%
(Header)
(Generated by gcodetools from Inkscape.)
(Using default header. To add your own header create file "header" in the output dir.)
M3
(Header end.)
G21 (All units in mm)

G00 Z5.000000
G00 X119.470952 Y104.813010

G01 Z-0.125000 F100.0(Penetrate)
G01 X119.470952 Y99.163438 Z-0.125000 F400.000000
G03 X119.889796 Y96.795341 Z-0.125000 I6.903907 J-0.000000
G03 X120.796701 Y95.373933 Z-0.125000 I3.664811 J1.338249
G03 X122.374738 Y94.354301 Z-0.125000 I3.086757 J3.046287
G03 X124.702099 Y93.936421 Z-0.125000 I2.327360 J6.272112
G03 X124.906974 Y93.937719 Z-0.125000 I-0.000000 J16.163482
G03 X125.112266 Y93.948258 Z-0.125000 I-0.033747 J2.662192
G01 X125.112266 Y105.995063 Z-0.125000
G03 X123.849598 Y113.041297 Z-0.125000 I-20.291861 J0.000000
G03 X121.182643 Y117.381195 Z-0.125000 I-12.239860 J-4.532243
G03 X116.644312 Y120.519245 Z-0.125000 I-9.395855 J-8.737783
G03 X110.230903 Y121.780170 Z-0.125000 I-6.413409 J-15.679714
G03 X99.763308 Y117.362962 Z-0.125000 I0.000000 J-14.611294
G03 X95.660331 Y107.269059 Z-0.125000 I10.364723 J-10.093903
G03 X99.681946 Y97.449482 Z-0.125000 I13.999036 J-0.000000
G03 X108.343858 Y93.821079 Z-0.125000 I8.661912 J8.524879
G03 X115.154291 Y96.421929 Z-0.125000 I0.000000 J10.217124
G03 X117.181999 Y100.955236 Z-0.125000 I-4.053660 J4.533307
G03 X116.867501 Y103.049693 Z-0.125000 I-7.131471 J0.000000
G03 X115.748616 Y105.397980 Z-0.125000 I-8.513405 J-2.615672
G02 X113.198823 Y100.687448 Z-0.125000 I-8.725746 J1.677850
G02 X108.977002 Y98.980377 Z-0.125000 I-4.221821 J4.367035
G02 X104.273347 Y100.921292 Z-0.125000 I-0.000000 J6.669927
G02 X101.576098 Y107.408350 Z-0.125000 I6.452275 J6.487059
G02 X104.142852 Y113.808297 Z-0.125000 I9.262193 J-0.000000
G02 X110.246869 Y116.417715 Z-0.125000 I6.104017 J-5.834625
G02 X113.886717 Y115.697677 Z-0.125000 I0.000000 J-9.559877
G02 X116.524905 Y113.953408 Z-0.125000 I-3.129711 J-7.600905
G02 X118.438945 Y110.919564 Z-0.125000 I-5.580704 J-5.641545
G02 X119.470952 Y104.813010 Z-0.125000 I-17.550732 J-6.106554
G00 Z5.000000

(End cutting path id: path835)
%