%
(Header)
(Generated by gcodetools from Inkscape.)
(Using default header. To add your own header create file "header" in the output dir.)
M3
(Header end.)
G21 (All units in mm)

(Start cutting path id: path821)
(ZZZanette)
(Change tool to Default tool)

G00 Z5.000000
G00 X106.024880 Y52.437880

G01 Z-0.125000 F100.0(Penetrate)
G02 X98.930943 Y53.117685 Z-0.125000 I78.336716 J854.817391 F400.000000
G02 X92.927999 Y53.747830 Z-0.125000 I61.279527 J612.674085
G03 X90.678240 Y53.987043 Z-0.125000 I-34.689254 J-315.547722
G03 X89.223839 Y54.128340 Z-0.125000 I-13.526929 J-131.679837
G02 X87.446323 Y54.298480 Z-0.125000 I19.937019 J217.659464
G02 X78.573009 Y55.191740 Z-0.125000 I541.530379 J5423.882484
G03 X74.663993 Y55.487482 Z-0.125000 I-7.720876 J-76.070097
G03 X70.635169 Y55.587970 Z-0.125000 I-4.028824 J-80.712439
G03 X66.351364 Y55.401333 Z-0.125000 I-0.000000 J-49.255420
G03 X54.034249 Y54.138680 Z-0.125000 I35.720246 J-409.157069
G02 X46.139845 Y53.347389 Z-0.125000 I-26.778599 J227.384401
G02 X43.318619 Y53.251840 Z-0.125000 I-2.390463 J28.883703
G02 X42.047294 Y53.285970 Z-0.125000 I0.790152 J53.128324
G01 X42.044970 Y53.311301 Z-0.125000
G02 X42.259410 Y53.343219 Z-0.125000 I0.322396 J-1.429724
G02 X44.376969 Y53.490530 Z-0.125000 I18.303543 J-247.814845
G03 X48.943082 Y53.900937 Z-0.125000 I-6.103928 J93.517294
G03 X55.886339 Y54.809510 Z-0.125000 I-24.891475 J217.203266
G02 X57.608191 Y55.046090 Z-0.125000 I13.206655 J-89.735241
G02 X58.929049 Y55.197890 Z-0.125000 I6.713374 J-52.592493
G03 X60.250339 Y55.346781 Z-0.125000 I-6.556622 J64.121823
G03 X62.104049 Y55.588900 Z-0.125000 I-15.543088 J126.218335
G02 X70.225046 Y56.147844 Z-0.125000 I8.134055 J-58.905942
G02 X80.360299 Y55.592900 Z-0.125000 I0.020303 J-92.459522
G03 X82.741613 Y55.331357 Z-0.125000 I588.570389 J5347.538445
G03 X86.445719 Y54.925910 Z-0.125000 I1397.177103 J12748.565976
G02 X92.852998 Y54.213035 Z-0.125000 I-182.075962 J-1665.639762
G02 X100.468630 Y53.338400 Z-0.125000 I-266.439480 J-2353.536425
G03 X103.645774 Y52.989180 Z-0.125000 I28.516002 J244.806396
G03 X106.950920 Y52.668400 Z-0.125000 I27.351915 J264.632115
G02 X110.236707 Y52.322237 Z-0.125000 I-10.330632 J-113.825932
G01 X110.368450 Y52.258320 Z-0.125000
G01 X110.322059 Y52.152343 Z-0.125000
G02 X106.024880 Y52.437890 Z-0.125000 I3.551137 J85.917578
G01 X106.024880 Y52.437880 Z-0.125000
G00 Z5.000000

(End cutting path id: path821)


(Start cutting path id: path821)
(ZZZanette)
(Change tool to Default tool)

G00 Z5.000000
G00 X131.424880 Y55.341290

G01 Z-0.125000 F100.0(Penetrate)
G03 X128.513674 Y55.535146 Z-0.125000 I-24.764549 J-349.941358 F400.000000
G03 X121.238420 Y55.977070 Z-0.125000 I-136.402904 J-2185.453132
G02 X103.078866 Y57.208698 Z-0.125000 I61.582815 J1042.489575
G01 X102.656020 Y57.400170 Z-0.125000
G01 X102.554579 Y57.629093 Z-0.125000
G02 X102.391440 Y64.460160 Z-0.125000 I251.399660 J9.421396
G01 X102.320740 Y71.330680 Z-0.125000
G01 X98.682727 Y71.404280 Z-0.125000
G01 X95.044699 Y71.477880 Z-0.125000
G01 X95.044699 Y70.412080 Z-0.125000
G02 X94.578759 Y69.254372 Z-0.125000 I-1.671233 J-0.000000
G02 X91.292379 Y66.505520 Z-0.125000 I-14.206624 J13.645742
G02 X85.013993 Y62.765736 Z-0.125000 I-40.225989 J60.391779
G02 X82.193979 Y61.689350 Z-0.125000 I-5.791599 J10.941106
G02 X77.658096 Y60.811749 Z-0.125000 I-10.815248 J43.737966
G02 X75.699459 Y60.775280 Z-0.125000 I-1.129020 J8.021808
G02 X72.498428 Y61.128055 Z-0.125000 I22.993398 J223.338332
G02 X64.617609 Y62.077070 Z-0.125000 I159.213401 J1355.337374
G03 X61.574883 Y62.452356 Z-0.125000 R40694.985198
G03 X58.003039 Y62.892660 Z-0.125000 R61806.751821
G02 X54.444230 Y63.362773 Z-0.125000 I25.171761 J204.258284
G01 X54.341129 Y63.408920 Z-0.125000
G01 X54.300416 Y63.505019 Z-0.125000
G02 X54.583719 Y66.968050 Z-0.125000 I127.869128 J-8.717590
G03 X54.726838 Y70.356958 Z-0.125000 I-31.868920 J3.043356
G01 X54.543619 Y70.681440 Z-0.125000
G03 X52.785074 Y71.381923 Z-0.125000 I-2.865763 J-4.636794
G03 X45.582829 Y72.540370 Z-0.125000 I-16.444241 J-79.268442
G03 X41.295771 Y72.676061 Z-0.125000 I-2.961319 J-25.769653
G03 X35.116579 Y72.004760 Z-0.125000 I2.784072 J-54.401598
G02 X26.494091 Y70.635188 Z-0.125000 I-92.366790 J553.691096
G02 X19.296909 Y69.617990 Z-0.125000 I-58.039783 J384.690065
G02 X17.232126 Y69.409761 Z-0.125000 I-4.439417 J33.679736
G02 X15.857329 Y69.376970 Z-0.125000 I-1.042712 J14.880353
G02 X14.986787 Y69.435025 Z-0.125000 I0.219385 J9.845593
G01 X14.983687 Y69.490039 Z-0.125000
G02 X15.436418 Y69.569106 Z-0.125000 I1.007043 J-4.430556
G02 X18.050949 Y69.875620 Z-0.125000 I28.665084 J-233.205840
G03 X20.822270 Y70.234148 Z-0.125000 I-8.820616 J79.070912
G03 X25.459279 Y70.966640 Z-0.125000 I-32.716451 J222.153534
G02 X30.090694 Y71.740199 Z-0.125000 I239.344150 J-1418.738871
G02 X31.015529 Y71.885350 Z-0.125000 I9.327462 J-56.411288
G03 X31.938129 Y72.039427 Z-0.125000 I-3.834971 J25.802719
G03 X32.338449 Y72.130780 Z-0.125000 I-0.914579 J4.930605
G02 X32.739823 Y72.217073 Z-0.125000 I1.006458 J-3.704715
G02 X36.571779 Y72.806440 Z-0.125000 I53.905842 J-337.734046
G02 X42.006894 Y73.173373 Z-0.125000 I5.019600 J-33.915028
G02 X47.684289 Y72.671750 Z-0.125000 I-0.454852 J-37.527361
G02 X51.982528 Y71.797338 Z-0.125000 I-9.802661 J-59.187086
G02 X54.355019 Y71.058670 Z-0.125000 I-4.525407 J-18.714309
G01 X54.625270 Y71.171446 Z-0.125000
G03 X54.975859 Y72.472570 Z-0.125000 I-4.113609 J1.806211
G01 X55.154989 Y74.055960 Z-0.125000
G01 X56.512879 Y74.466590 Z-0.125000
G02 X57.872252 Y74.872103 Z-0.125000 I54.682335 J-180.826520
G02 X59.590539 Y75.372110 Z-0.125000 I84.800080 J-288.215252
G03 X61.021887 Y76.054202 Z-0.125000 I-1.338784 J4.652263
G01 X61.220289 Y76.509250 Z-0.125000
G02 X61.165354 Y77.154264 Z-0.125000 I5.909957 J0.828194
G02 X61.018029 Y83.096230 Z-0.125000 I502.527478 J15.432430
G03 X60.695943 Y88.918942 Z-0.125000 I-80.126451 J-1.511971
G01 X60.446609 Y89.313940 Z-0.125000
G03 X59.954859 Y89.468029 Z-0.125000 I-0.571000 J-0.960541
G03 X56.680119 Y89.581740 Z-0.125000 I-3.204202 J-45.065905
G03 X53.427600 Y89.333011 Z-0.125000 I0.035706 J-21.857151
G03 X51.814419 Y88.841080 Z-0.125000 I0.878145 J-5.770691
G03 X48.854931 Y87.041219 Z-0.125000 I7.023477 J-14.881666
G03 X45.979469 Y84.388300 Z-0.125000 I12.734911 J-16.687990
G02 X44.761241 Y83.329138 Z-0.125000 I-4.898991 J4.404550
G01 X44.490289 Y83.385070 Z-0.125000
G02 X44.456176 Y84.935408 Z-0.125000 I1.250621 J0.803063
G02 X50.713869 Y94.084820 Z-0.125000 I65.644883 J-38.182815
G03 X59.951567 Y108.608834 Z-0.125000 I-63.359864 J50.498456
G03 X64.873709 Y122.659830 Z-0.125000 I-54.312469 J26.913586
G03 X65.942140 Y128.644659 Z-0.125000 I-79.943690 J17.359591
G01 X65.781449 Y129.124810 Z-0.125000
G01 X65.636286 Y129.188276 Z-0.125000
G03 X64.485489 Y129.175410 Z-0.125000 I-0.447127 J-11.479314
G02 X62.546062 Y129.420690 Z-0.125000 I-0.322213 J5.242421
G02 X52.843669 Y132.943090 Z-0.125000 I45.080261 J139.296582
G02 X48.767973 Y134.848477 Z-0.125000 I15.651214 J38.790280
G02 X47.997999 Y135.534680 Z-0.125000 I1.036633 J1.938271
G03 X46.620913 Y136.937090 Z-0.125000 I-4.767928 J-3.304516
G03 X45.501479 Y137.333140 Z-0.125000 I-1.237558 J-1.717889
G01 X45.379053 Y137.263791 Z-0.125000
G01 X45.303039 Y136.956570 Z-0.125000
G02 X44.859141 Y135.793110 Z-0.125000 I-1.746667 J0.000000
G02 X42.948659 Y134.320240 Z-0.125000 I-4.889253 J4.366430
G02 X42.239684 Y134.096410 Z-0.125000 I-1.022914 J2.005307
G02 X41.389989 Y134.100740 Z-0.125000 I-0.410023 J2.911389
G03 X39.332913 Y132.937747 Z-0.125000 I-0.286444 J-1.894095
G03 X38.230719 Y126.449380 Z-0.125000 I13.733978 J-5.670823
G03 X38.575680 Y123.887927 Z-0.125000 I16.387052 J0.902953
G03 X38.929379 Y123.214200 Z-0.125000 I1.390498 J0.300288
G02 X39.423431 Y121.723184 Z-0.125000 I-1.360564 J-1.278187
G02 X38.560659 Y120.001130 Z-0.125000 I-2.788706 J0.320022
G02 X36.836014 Y119.062364 Z-0.125000 I-2.643575 J2.803027
G02 X35.236879 Y119.184860 Z-0.125000 I-0.613043 J2.496249
G03 X31.830299 Y120.045883 Z-0.125000 I-4.627882 J-11.140442
G03 X28.647989 Y119.855350 Z-0.125000 I-1.005354 J-9.879393
G03 X26.937441 Y119.078479 Z-0.125000 I1.010112 J-4.495722
G03 X24.986439 Y117.176620 Z-0.125000 I5.722378 J-7.821879
G03 X21.732068 Y111.627708 Z-0.125000 I20.155121 J-15.549521
G03 X20.005459 Y105.517130 Z-0.125000 I22.809507 J-9.744293
G02 X19.331243 Y103.803938 Z-0.125000 I-4.030446 J0.596893
G02 X18.057619 Y102.687210 Z-0.125000 I-2.840883 J1.955373
G02 X15.625285 Y102.386787 Z-0.125000 I-1.629141 J3.193376
G02 X13.774439 Y103.671860 Z-0.125000 I0.678918 J2.953212
G02 X13.200679 Y105.663442 Z-0.125000 I2.904471 J1.915196
G02 X13.856010 Y114.818598 Z-0.125000 I92.726394 J-2.036381
G02 X15.241819 Y123.659064 Z-0.125000 I128.645214 J-15.637242
G02 X17.127729 Y131.258820 Z-0.125000 I72.280006 J-13.902697
G02 X18.303712 Y133.548200 Z-0.125000 I6.948339 J-2.122422
G02 X20.880999 Y136.169570 Z-0.125000 I11.776330 J-9.000632
G03 X26.277124 Y140.669163 Z-0.125000 I-85.509390 J108.032365
G03 X29.591369 Y143.817590 Z-0.125000 I-38.481745 J43.827063
G03 X30.892796 Y145.611113 Z-0.125000 I-5.527961 J5.380170
G03 X31.222899 Y146.924210 Z-0.125000 I-2.549587 J1.338988
G02 X31.357943 Y148.342360 Z-0.125000 I8.280433 J-0.073002
G02 X31.676709 Y149.404470 Z-0.125000 I4.945309 J-0.905323
G03 X32.085887 Y150.452769 Z-0.125000 I-17.282829 J7.349939
G03 X32.639159 Y152.106560 Z-0.125000 I-42.492037 J15.135055
G02 X34.136964 Y154.811974 Z-0.125000 I7.350184 J-2.301976
G02 X35.453289 Y155.395570 Z-0.125000 I1.268861 J-1.085658
G01 X36.096535 Y155.660684 Z-0.125000
G03 X37.090569 Y157.116500 Z-0.125000 I-3.973581 J3.780440
G01 X37.906809 Y158.860780 Z-0.125000
G01 X37.347639 Y159.455980 Z-0.125000
G02 X36.942839 Y160.090743 Z-0.125000 I1.479831 J1.390170
G01 X36.914019 Y160.537820 Z-0.125000
G01 X36.994932 Y160.575126 Z-0.125000
G01 X37.070259 Y160.461520 Z-0.125000
G03 X37.202418 Y159.949670 Z-0.125000 I1.340723 J0.073185
G03 X37.505199 Y159.563110 Z-0.125000 I1.042324 J0.504563
G01 X37.899263 Y159.450779 Z-0.125000
G01 X38.365099 Y159.681960 Z-0.125000
G02 X38.850036 Y160.099083 Z-0.125000 I3.070397 J-3.079121
G02 X39.746789 Y160.703710 Z-0.125000 I7.390970 J-9.994595
G03 X40.166355 Y161.169888 Z-0.125000 I-0.576333 J0.940603
G01 X40.062569 Y161.366580 Z-0.125000
G01 X39.373680 Y162.047519 Z-0.125000
G02 X39.311299 Y165.829400 Z-0.125000 I12.456589 J2.096921
G03 X39.963222 Y173.473092 Z-0.125000 I-78.080887 J10.509092
G03 X39.620739 Y174.331802 Z-0.125000 I-1.143427 J0.041614
G01 X39.439140 Y174.343122 Z-0.125000
G03 X38.662639 Y173.602144 Z-0.125000 I2.931923 J-3.849831
G03 X38.182461 Y172.581438 Z-0.125000 I1.694279 J-1.420351
G03 X37.894699 Y169.423805 Z-0.125000 I17.180581 J-3.157633
G02 X37.774855 Y166.173381 Z-0.125000 I-44.139196 J0.000000
G02 X37.512989 Y164.254430 Z-0.125000 I-15.606925 J1.152428
G02 X37.130983 Y162.347416 Z-0.125000 I-6128.933167 J1226.728976
G02 X36.998049 Y161.685900 Z-0.125000 I-723.556559 J145.057411
G01 X36.874280 Y161.704238 Z-0.125000
G02 X37.352629 Y165.390070 Z-0.125000 I55.035308 J-5.268557
G03 X37.515133 Y166.851821 Z-0.125000 I-13.969089 J2.292867
G03 X37.617169 Y169.887984 Z-0.125000 I-60.295276 J3.546124
G01 X37.642869 Y172.930693 Z-0.125000
G01 X39.551919 Y175.311943 Z-0.125000
G02 X49.724706 Y185.499309 Z-0.125000 I51.673708 J-41.426961
G02 X53.354929 Y186.410351 Z-0.125000 I2.804881 J-3.488406
G02 X54.958707 Y185.046818 Z-0.125000 I-0.391152 J-2.085014
G02 X54.484959 Y183.285757 Z-0.125000 I-1.497222 J-0.541481
G03 X52.630187 Y180.776042 Z-0.125000 I4.287304 J-5.108705
G03 X51.253899 Y175.649842 Z-0.125000 I17.766603 J-7.517852
G03 X52.027472 Y171.993166 Z-0.125000 I5.676669 J-0.709259
G03 X55.147059 Y169.173488 Z-0.125000 I6.206167 J3.730737
G02 X57.005101 Y167.933715 Z-0.125000 I-3.227173 J-6.848754
G02 X57.485000 Y167.089276 Z-0.125000 I-1.044683 J-1.152284
G02 X57.282224 Y166.245657 Z-0.125000 I-1.008805 J-0.203698
G02 X55.948899 Y165.202452 Z-0.125000 I-2.837062 J2.252395
G03 X52.249076 Y162.277492 Z-0.125000 I4.103252 J-8.992721
G03 X51.123889 Y158.997540 Z-0.125000 I4.217983 J-3.279952
G03 X51.316253 Y157.620286 Z-0.125000 I5.026488 J-0.000000
G03 X51.684289 Y157.030550 Z-0.125000 I1.207985 J0.344158
G02 X52.181133 Y156.482958 Z-0.125000 I-2.441026 J-2.714002
G02 X52.446179 Y155.997360 Z-0.125000 I-1.644775 J-1.212871
G02 X52.408267 Y154.765398 Z-0.125000 I-1.498153 J-0.570460
G02 X51.500329 Y153.909460 Z-0.125000 I-1.496549 J0.677949
G01 X51.241724 Y153.642625 Z-0.125000
G03 X51.197609 Y153.040080 Z-0.125000 I1.101526 J-0.383536
G02 X51.179451 Y152.349686 Z-0.125000 I-1.588387 J-0.303661
G02 X50.302439 Y149.405350 Z-0.125000 I-31.077905 J7.654213
G03 X49.321764 Y146.464026 Z-0.125000 I93.251611 J-32.725411
G03 X49.272469 Y146.146670 Z-0.125000 I1.010995 J-0.319546
G01 X49.823546 Y145.511253 Z-0.125000
G03 X51.068889 Y145.893420 Z-0.125000 I0.214473 J1.521254
G02 X51.555548 Y146.248019 Z-0.125000 I1.911550 J-2.112204
G02 X52.272529 Y146.588690 Z-0.125000 I2.476814 J-4.287912
G02 X53.128870 Y146.646081 Z-0.125000 I0.522130 J-1.373297
G02 X56.547849 Y145.589970 Z-0.125000 I-5.809691 J-24.870119
G03 X57.870974 Y145.077838 Z-0.125000 I632.363105 J1631.783561
G03 X59.662749 Y144.385770 Z-0.125000 I1137.159226 J2941.457618
G03 X61.471994 Y143.787034 Z-0.125000 I7.044235 J18.253153
G03 X62.153039 Y143.694230 Z-0.125000 I0.681045 J2.452534
G03 X63.231478 Y143.972504 Z-0.125000 I-0.000000 J2.228857
G03 X67.358589 Y146.572260 Z-0.125000 I-20.685139 J37.413421
G01 X69.438099 Y148.054350 Z-0.125000
G01 X69.267359 Y149.507060 Z-0.125000
G03 X68.518506 Y151.551166 Z-0.125000 I-4.658904 J-0.547555
G03 X67.437399 Y152.267930 Z-0.125000 I-1.388189 J-0.920120
G02 X66.234591 Y152.889539 Z-0.125000 I0.434240 J2.314765
G01 X65.988369 Y153.668950 Z-0.125000
G02 X66.565322 Y154.461085 Z-0.125000 I1.131408 J-0.217884
G02 X72.353629 Y157.163200 Z-0.125000 I23.559547 J-42.917091
G03 X75.861098 Y158.533443 Z-0.125000 I-713.624887 J1831.870481
G03 X76.381799 Y158.741320 Z-0.125000 I-15.857553 J40.476842
G01 X76.364347 Y158.838084 Z-0.125000
G03 X73.324599 Y158.831220 Z-0.125000 I-1.411521 J-47.990389
G02 X69.824319 Y158.903234 Z-0.125000 I-1.089787 J32.132914
G01 X69.326089 Y159.131870 Z-0.125000
G02 X68.904123 Y160.077472 Z-0.125000 I1.023851 J1.023834
G02 X68.503949 Y174.326253 Z-0.125000 I273.976483 J14.824585
G02 X69.738697 Y197.205466 Z-0.125000 I204.632773 J0.429275
G02 X72.347909 Y209.152913 Z-0.125000 I57.941602 J-6.395270
G02 X74.404339 Y213.252001 Z-0.125000 I15.074563 J-4.997225
G02 X75.891829 Y214.224762 Z-0.125000 I1.955287 J-1.366241
G02 X77.329171 Y213.584260 Z-0.125000 I0.266841 J-1.334197
G02 X79.588059 Y207.987946 Z-0.125000 I-17.216285 J-10.203199
G03 X80.170908 Y206.056592 Z-0.125000 I16.152582 J3.820946
G03 X80.832962 Y205.364817 Z-0.125000 I1.127829 J0.416681
G03 X81.916319 Y205.159571 Z-0.125000 I1.021823 J2.431740
G03 X85.942179 Y205.317925 Z-0.125000 I-2.940402 J126.008309
G02 X92.514392 Y205.247949 Z-0.125000 I2.756302 J-49.794407
G02 X96.422039 Y204.513687 Z-0.125000 I-1.396447 J-18.196849
G03 X98.230355 Y204.022978 Z-0.125000 I9.106078 J29.979614
G01 X98.335927 Y204.055301 Z-0.125000
G01 X98.384284 Y204.167944 Z-0.125000
G03 X98.549657 Y207.147968 Z-0.125000 I-110.007581 J7.599354
G02 X99.366356 Y210.850920 Z-0.125000 I10.869622 J-0.455793
G02 X100.408600 Y211.641601 Z-0.125000 I1.196565 J-0.495001
G02 X101.962210 Y211.337812 Z-0.125000 I0.306763 J-2.555744
G02 X104.085470 Y209.605819 Z-0.125000 I-3.735616 J-6.746966
G02 X107.733838 Y204.040803 Z-0.125000 I-19.854875 J-16.995079
G02 X109.826160 Y197.801488 Z-0.125000 I-22.987327 J-11.179164
G02 X109.975608 Y196.466992 Z-0.125000 I-7.950944 J-1.566030
G02 X110.278020 Y181.992632 Z-0.125000 I-941.511430 J-26.911276
G03 X110.738328 Y167.780429 Z-0.125000 I370.864156 J4.898072
G01 X111.025260 Y167.509094 Z-0.125000
G03 X114.999153 Y167.778333 Z-0.125000 I-0.136338 J31.473730
G03 X120.312430 Y168.732435 Z-0.125000 I-7.548847 J57.310142
G03 X125.640020 Y170.636757 Z-0.125000 I-5.306194 J23.249241
G03 X135.022930 Y176.061026 Z-0.125000 I-39.021633 J78.327119
G01 X138.091780 Y178.098611 Z-0.125000
G01 X137.964390 Y180.083610 Z-0.125000
G02 X138.409716 Y184.542726 Z-0.125000 I13.726697 J0.880928
G02 X140.864200 Y190.846991 Z-0.125000 I30.268951 J-8.154881
G02 X144.704978 Y195.388872 Z-0.125000 I11.955148 J-6.214814
G02 X148.622840 Y196.699760 Z-0.125000 I3.914510 J-5.189213
G02 X152.321505 Y196.224345 Z-0.125000 I-0.007124 J-14.680699
G02 X156.560340 Y194.629186 Z-0.125000 I-5.467486 J-20.958345
G02 X158.484312 Y193.374995 Z-0.125000 I-4.562595 J-9.101994
G02 X159.272320 Y192.387613 Z-0.125000 I-1.962561 J-2.374414
G02 X159.759955 Y191.181458 Z-0.125000 I-7.017981 J-3.538941
G02 X159.867640 Y190.472167 Z-0.125000 I-2.282107 J-0.709291
G02 X159.779997 Y189.867377 Z-0.125000 I-2.130536 J0.000000
G02 X159.200898 Y188.088895 Z-0.125000 I-33.262210 J9.847141
G02 X158.525407 Y186.371831 Z-0.125000 I-26.303172 J9.356232
G01 X158.400640 Y186.347994 Z-0.125000
G01 X158.377296 Y186.439441 Z-0.125000
G02 X159.007450 Y188.412700 Z-0.125000 I42.754094 J-12.566148
G03 X159.441763 Y190.401685 Z-0.125000 I-8.217351 J2.836242
G03 X159.317260 Y191.576289 Z-0.125000 I-2.912343 J0.285206
G03 X158.093123 Y193.300768 Z-0.125000 I-3.317796 J-1.058447
G03 X154.523880 Y195.182465 Z-0.125000 I-7.621427 J-10.130525
G03 X149.659406 Y195.465797 Z-0.125000 I-2.949807 J-8.744393
G03 X145.681440 Y193.307098 Z-0.125000 I1.651850 J-7.788533
G03 X142.508421 Y189.130099 Z-0.125000 I13.703152 J-13.703149
G03 X140.769699 Y184.943833 Z-0.125000 I16.456460 J-9.289235
G03 X140.432064 Y180.781197 Z-0.125000 I10.509400 J-2.947436
G03 X141.665560 Y178.988053 Z-0.125000 I2.293646 J0.256958
G03 X143.799760 Y179.099069 Z-0.125000 I0.972193 J1.880016
G03 X148.490550 Y183.471193 Z-0.125000 I-10.461865 J15.926789
G02 X150.292491 Y185.624399 Z-0.125000 I24.634480 J-18.785115
G02 X150.818100 Y186.009314 Z-0.125000 I1.229306 J-1.127321
G02 X152.970327 Y186.456312 Z-0.125000 I2.027513 J-4.357338
G02 X156.255060 Y185.868175 Z-0.125000 I-0.287411 J-11.071827
G03 X157.464719 Y185.631671 Z-0.125000 I1.473344 J4.323975
G01 X157.895750 Y185.773305 Z-0.125000
G01 X158.095210 Y185.827678 Z-0.125000
G01 X158.150170 Y185.732125 Z-0.125000
G01 X158.217983 Y185.434393 Z-0.125000
G03 X159.468050 Y184.488631 Z-0.125000 I4.960197 J5.257149
G02 X162.519285 Y181.383612 Z-0.125000 I-4.427820 J-7.402825
G02 X163.677120 Y177.163988 Z-0.125000 I-7.555844 J-4.341932
G02 X163.483665 Y175.366463 Z-0.125000 I-7.472552 J-0.104954
G02 X162.909860 Y173.864377 Z-0.125000 I-5.757547 J1.338773
G02 X160.934933 Y171.505199 Z-0.125000 I-6.939271 J3.802820
G02 X158.070270 Y169.965414 Z-0.125000 I-5.547100 J6.885345
G02 X156.657891 Y169.749181 Z-0.125000 I-1.392198 J4.372720
G02 X154.447790 Y169.981344 Z-0.125000 I0.048817 J11.100453
G01 X152.225810 Y170.443166 Z-0.125000
G01 X150.688910 Y169.457588 Z-0.125000
G02 X149.148018 Y168.478467 Z-0.125000 I-118.434585 J184.684523
G02 X148.659690 Y168.179984 Z-0.125000 I-11.498851 J18.263763
G01 X148.328619 Y167.790868 Z-0.125000
G03 X148.114230 Y166.792323 Z-0.125000 I2.927972 J-1.150927
G02 X147.653348 Y165.246298 Z-0.125000 I-3.372569 J0.163680
G01 X146.980050 Y164.860860 Z-0.125000
G01 X146.619987 Y164.773728 Z-0.125000
G03 X145.491100 Y164.095400 Z-0.125000 I4.550095 J-8.850877
G02 X141.321142 Y161.331463 Z-0.125000 I-65.077910 J93.655601
G02 X137.446230 Y159.013490 Z-0.125000 I-49.611617 J78.537022
G03 X136.409929 Y158.327818 Z-0.125000 I4.389614 J-7.760264
G01 X136.321760 Y158.151080 Z-0.125000
G01 X136.390355 Y157.950621 Z-0.125000
G03 X137.637190 Y156.482070 Z-0.125000 I20.710914 J16.320493
G02 X145.833837 Y145.907258 Z-0.125000 I-60.965408 J-55.718985
G02 X155.108170 Y129.716070 Z-0.125000 I-134.516303 J-87.802875
G02 X160.766836 Y117.114676 Z-0.125000 I-154.591015 J-76.990427
G02 X163.737330 Y108.240020 Z-0.125000 I-73.552237 J-29.553615
G02 X166.351492 Y96.947864 Z-0.125000 I-153.584037 J-41.503751
G02 X167.856940 Y86.941060 Z-0.125000 I-119.058542 J-23.028104
G02 X168.091819 Y83.565772 Z-0.125000 I-44.147277 J-4.767933
G02 X168.190160 Y77.744008 Z-0.125000 I-200.993689 J-6.306881
G02 X168.090343 Y71.631623 Z-0.125000 I-163.103638 J-0.393473
G01 X167.894940 Y71.182350 Z-0.125000
G01 X167.655381 Y71.208913 Z-0.125000
G02 X165.425920 Y75.081280 Z-0.125000 I44.819835 J28.382364
G03 X160.100437 Y83.497206 Z-0.125000 I-52.687892 J-27.447266
G03 X156.463410 Y86.917540 Z-0.125000 I-11.902441 J-9.012623
G03 X153.315453 Y88.502810 Z-0.125000 I-8.136685 J-12.239286
G03 X150.899240 Y88.925430 Z-0.125000 I-2.416213 J-6.695709
G03 X148.642018 Y88.585164 Z-0.125000 I0.000000 J-7.657006
G03 X144.267580 Y86.879540 Z-0.125000 I9.548935 J-30.952687
G03 X139.828347 Y83.830396 Z-0.125000 I7.377253 J-15.496603
G03 X138.040000 Y80.967640 Z-0.125000 I4.641818 J-4.889681
G01 X137.581590 Y79.513390 Z-0.125000
G01 X138.400780 Y76.956030 Z-0.125000
G02 X139.742572 Y72.156088 Z-0.125000 I-63.444749 J-20.323071
G02 X140.683710 Y67.428040 Z-0.125000 I-60.609078 J-14.522191
G01 X141.319211 Y66.790438 Z-0.125000
G03 X144.346620 Y66.832770 Z-0.125000 I1.394053 J8.578126
G02 X149.745260 Y67.262847 Z-0.125000 I4.653990 J-24.321388
G02 X156.560320 Y66.465310 Z-0.125000 I-1.195295 J-39.730510
G03 X160.904468 Y65.743695 Z-0.125000 I11.586585 J56.314896
G03 X167.937410 Y65.020650 Z-0.125000 I18.668834 J147.023035
G01 X167.937581 Y64.969698 Z-0.125000
G02 X166.441220 Y64.892820 Z-0.125000 I-1.881078 J22.012325
G02 X158.466746 Y65.187692 Z-0.125000 I-1.278714 J73.396291
G02 X156.671200 Y65.787620 Z-0.125000 I0.376919 J4.115037
G01 X156.461416 Y65.874290 Z-0.125000
G03 X154.268730 Y66.349710 Z-0.125000 I-15.679146 J-67.019728
G03 X149.646658 Y66.810490 Z-0.125000 I-4.657959 J-23.311540
G03 X143.343510 Y66.366210 Z-0.125000 I-0.066411 J-43.992398
G01 X140.974620 Y66.026940 Z-0.125000
G01 X141.037420 Y64.577760 Z-0.125000
G03 X141.122568 Y63.130234 Z-0.125000 I47.117594 J2.045353
G03 X141.248210 Y61.740280 Z-0.125000 I43.445396 J3.226485
G02 X141.148644 Y60.401715 Z-0.125000 I-3.719310 J-0.396333
G02 X140.428580 Y58.591730 Z-0.125000 I-7.622050 J1.984046
G02 X139.416241 Y56.860616 Z-0.125000 I-33.070539 J18.177780
G02 X138.784970 Y55.945120 Z-0.125000 I-9.857396 J6.121674
G02 X137.963793 Y55.359639 Z-0.125000 I-1.357554 J1.035444
G02 X136.222100 Y55.097040 Z-0.125000 I-1.636106 J4.944294
G02 X134.336581 Y55.164170 Z-0.125000 I1.256827 J61.814459
G02 X131.424860 Y55.341270 Z-0.125000 I7.486752 J147.115191
G01 X131.424880 Y55.341290 Z-0.125000
G00 Z5.000000

(End cutting path id: path821)


(Start cutting path id: path821)
(ZZZanette)
(Change tool to Default tool)

G00 Z5.000000
G00 X137.907510 Y56.315580

G01 Z-0.125000 F100.0(Penetrate)
G03 X137.865416 Y57.208425 Z-0.125000 I-9.410799 J0.003735 F400.000000
G03 X136.711310 Y68.919300 Z-0.125000 I-1620.782538 J-153.815720
G03 X136.296490 Y72.574653 Z-0.125000 I-164.081204 J-16.769212
G01 X136.240970 Y72.688200 Z-0.125000
G01 X136.126545 Y72.736701 Z-0.125000
G03 X119.696430 Y72.960140 Z-0.125000 I-47.645874 J-2899.355133
G01 X103.246750 Y73.137220 Z-0.125000
G01 X103.246750 Y65.449240 Z-0.125000
G03 X103.447918 Y57.899505 Z-0.125000 I141.769419 J0.000000
G01 X103.665280 Y57.600650 Z-0.125000
G03 X104.096080 Y57.506525 Z-0.125000 I0.524272 J1.366610
G03 X106.175580 Y57.440060 Z-0.125000 I2.079500 J32.497604
G02 X108.265554 Y57.387466 Z-0.125000 I0.000000 J-41.551893
G02 X113.760710 Y57.058060 Z-0.125000 I-14.491081 J-287.740239
G03 X119.254783 Y56.687324 Z-0.125000 I93.167169 J1339.784652
G03 X126.000920 Y56.257300 Z-0.125000 I132.172343 J2020.363108
G03 X137.521956 Y55.928337 Z-0.125000 I10.677015 J172.022642
G01 X137.907510 Y56.315600 Z-0.125000
G01 X137.907510 Y56.315580 Z-0.125000
G00 Z5.000000

(End cutting path id: path821)


(Start cutting path id: path821)
(ZZZanette)
(Change tool to Default tool)

G00 Z5.000000
G00 X139.712070 Y58.313920

G01 Z-0.125000 F100.0(Penetrate)
G03 X140.481677 Y60.731003 Z-0.125000 I-5.245551 J3.001264 F400.000000
G03 X140.417760 Y65.580200 Z-0.125000 I-21.985851 J2.135227
G03 X137.659345 Y77.608665 Z-0.125000 I-59.992636 J-7.427230
G03 X131.056700 Y93.118300 Z-0.125000 I-106.785859 J-36.299841
G03 X130.456408 Y94.075775 Z-0.125000 I-6.073821 J-3.141082
G01 X130.349617 Y94.110498 Z-0.125000
G01 X130.300652 Y94.025481 Z-0.125000
G03 X130.637650 Y92.988970 Z-0.125000 I6.042998 J1.391701
G02 X137.433294 Y75.809830 Z-0.125000 I-331.336145 J-141.002065
G02 X137.907170 Y73.137700 Z-0.125000 I-7.296968 J-2.672130
G01 X137.867107 Y73.090500 Z-0.125000
G02 X137.378000 Y73.050500 Z-0.125000 I-0.489107 J2.970312
G01 X137.025688 Y72.717290 Z-0.125000
G03 X137.112390 Y68.288000 Z-0.125000 I29.404004 J-1.639920
G02 X138.151360 Y57.152886 Z-0.125000 I-3052.603297 J-290.441431
G02 X138.171750 Y56.706110 Z-0.125000 I-4.884584 J-0.446776
G01 X138.432201 Y56.601485 Z-0.125000
G03 X139.712070 Y58.313950 Z-0.125000 I-6.336100 J6.070009
G01 X139.712070 Y58.313920 Z-0.125000
G00 Z5.000000

(End cutting path id: path821)


(Start cutting path id: path821)
(ZZZanette)
(Change tool to Default tool)

G00 Z5.000000
G00 X167.519070 Y82.310890

G01 Z-0.125000 F100.0(Penetrate)
G03 X163.663631 Y106.030065 Z-0.125000 I-108.353476 J-5.439411 F400.000000
G03 X153.897800 Y131.126520 Z-0.125000 I-131.232542 J-36.618443
G03 X145.001609 Y146.462401 Z-0.125000 I-142.315254 J-72.307415
G03 X137.070400 Y156.742810 Z-0.125000 I-71.559045 J-47.007305
G01 X135.922790 Y158.017440 Z-0.125000
G01 X133.409250 Y156.733420 Z-0.125000
G02 X129.646390 Y155.094364 Z-0.125000 I-15.194320 J29.743517
G02 X125.604040 Y153.890280 Z-0.125000 I-12.072748 J33.143091
G03 X121.780777 Y152.609175 Z-0.125000 I4.908446 J-20.994033
G03 X120.160250 Y151.478980 Z-0.125000 I2.096307 J-4.732676
G03 X119.581420 Y150.502927 Z-0.125000 I1.753461 J-1.699517
G03 X119.611200 Y149.708970 Z-0.125000 I1.143322 J-0.354652
G02 X123.634688 Y137.566533 Z-0.125000 I-106.684500 J-42.088533
G02 X126.785640 Y123.185690 Z-0.125000 I-146.639869 J-39.665535
G02 X127.032362 Y118.468907 Z-0.125000 I-20.300374 J-3.426701
G02 X126.427590 Y117.483000 Z-0.125000 I-1.232120 J0.077361
G03 X125.839897 Y116.822015 Z-0.125000 I0.734391 J-1.244717
G03 X125.759820 Y115.970570 Z-0.125000 I1.236023 J-0.545734
G02 X125.873201 Y115.173632 Z-0.125000 I-4.516667 J-1.049126
G02 X125.988201 Y112.320319 Z-0.125000 I-100.890715 J-5.495277
G02 X126.018032 Y109.387847 Z-0.125000 I-91.741630 J-2.399646
G01 X125.934770 Y109.281880 Z-0.125000
G01 X125.867827 Y109.269828 Z-0.125000
G02 X124.545710 Y109.123280 Z-0.125000 I-21.819366 J190.811175
G03 X123.251989 Y108.917271 Z-0.125000 I1.371793 J-12.779985
G01 X123.030770 Y108.802240 Z-0.125000
G01 X122.905476 Y108.119957 Z-0.125000
G03 X125.304000 Y104.184250 Z-0.125000 I23.031879 J11.337521
G02 X125.879923 Y103.316738 Z-0.125000 I-8.185302 J-6.058975
G02 X127.055380 Y101.228600 Z-0.125000 I-46.404841 J-27.497184
G03 X129.990682 Y95.802216 Z-0.125000 I507.522294 J271.027740
G03 X130.244500 Y95.407760 Z-0.125000 I2.917855 J1.598640
G02 X132.197031 Y92.192156 Z-0.125000 I-15.612360 J-11.680500
G02 X136.205520 Y83.038490 Z-0.125000 I-123.936288 J-59.727546
G03 X137.277555 Y80.535794 Z-0.125000 I44.774725 J17.698391
G01 X137.397950 Y80.458810 Z-0.125000
G01 X137.520052 Y80.532338 Z-0.125000
G03 X138.018590 Y81.631600 Z-0.125000 I-8.753960 J4.632780
G02 X139.805918 Y84.263226 Z-0.125000 I6.468117 J-2.470203
G02 X143.995210 Y87.114970 Z-0.125000 I11.878755 J-12.947257
G02 X150.663614 Y88.955749 Z-0.125000 I8.290184 J-17.033146
G02 X155.291010 Y88.085590 Z-0.125000 I0.751314 J-8.743638
G02 X158.194606 Y86.139632 Z-0.125000 I-5.822645 J-11.827291
G02 X161.380690 Y82.707760 Z-0.125000 I-15.662055 J-17.735241
G02 X163.428917 Y79.682579 Z-0.125000 I-26.959316 J-20.459031
G02 X166.286100 Y74.545880 Z-0.125000 I-75.097418 J-45.134368
G01 X167.392750 Y72.389010 Z-0.125000
G01 X167.592050 Y74.637970 Z-0.125000
G03 X167.680884 Y76.889043 Z-0.125000 I-22.931207 J2.032224
G03 X167.519050 Y82.310890 Z-0.125000 I-133.388431 J-1.268110
G01 X167.519070 Y82.310890 Z-0.125000
G00 Z5.000000

(End cutting path id: path821)


(Start cutting path id: path821)
(ZZZanette)
(Change tool to Default tool)

G00 Z5.000000
G00 X124.780760 Y110.089070

G01 Z-0.125000 F100.0(Penetrate)
G01 X124.967692 Y110.709731 Z-0.125000 F400.000000
G03 X124.427381 Y112.436703 Z-0.125000 I-8.631307 J-1.752434
G03 X123.545175 Y114.020169 Z-0.125000 I-8.162639 J-3.510214
G01 X122.958970 Y114.325470 Z-0.125000
G01 X122.710614 Y114.176624 Z-0.125000
G03 X122.169700 Y112.849120 Z-0.125000 I6.087492 J-3.254407
G03 X121.916469 Y111.375912 Z-0.125000 I6.382296 J-1.855427
G03 X122.033510 Y110.484960 Z-0.125000 I2.398093 J-0.138135
G03 X122.407531 Y109.677165 Z-0.125000 I3.688086 J1.217152
G01 X122.642360 Y109.488500 Z-0.125000
G03 X123.702685 Y109.457984 Z-0.125000 I0.579043 J1.683189
G03 X124.780760 Y110.089070 Z-0.125000 I-0.667437 J2.376549
G01 X124.780760 Y110.089070 Z-0.125000
G00 Z5.000000

(End cutting path id: path821)


(Start cutting path id: path821)
(ZZZanette)
(Change tool to Default tool)

G00 Z5.000000
G00 X125.593390 Y113.764940

G01 Z-0.125000 F100.0(Penetrate)
G01 X125.405000 Y116.422170 Z-0.125000 F400.000000
G01 X122.461810 Y118.278200 Z-0.125000
G03 X120.076838 Y119.684073 Z-0.125000 I-24.626016 J-39.050518
G01 X119.579625 Y119.754086 Z-0.125000
G01 X119.353015 Y119.447264 Z-0.125000
G03 X119.613920 Y117.632770 Z-0.125000 I13.615425 J1.031746
G02 X119.850784 Y116.302966 Z-0.125000 I-19.596437 J-4.176497
G02 X120.069630 Y114.457770 Z-0.125000 I-37.531691 J-5.386961
G03 X120.584796 Y112.556037 Z-0.125000 I5.764026 J0.540789
G01 X121.114280 Y112.212870 Z-0.125000
G01 X121.309005 Y112.321053 Z-0.125000
G03 X121.775740 Y113.308660 Z-0.125000 I-4.602267 J2.779087
G02 X122.795004 Y114.417644 Z-0.125000 I1.808270 J-0.639082
G01 X123.836590 Y114.238850 Z-0.125000
G02 X124.482923 Y113.431710 Z-0.125000 I-2.725762 J-2.845058
G02 X124.951400 Y112.394190 Z-0.125000 I-4.086890 J-2.469904
G03 X125.507877 Y110.955126 Z-0.125000 I11.447549 J3.599572
G01 X125.634101 Y110.954830 Z-0.125000
G01 X125.704284 Y111.284566 Z-0.125000
G03 X125.593390 Y113.764940 Z-0.125000 I-47.561971 J-0.883762
G01 X125.593390 Y113.764940 Z-0.125000
G00 Z5.000000

(End cutting path id: path821)


(Start cutting path id: path821)
(ZZZanette)
(Change tool to Default tool)

G00 Z5.000000
G00 X126.962990 Y118.475880

G01 Z-0.125000 F100.0(Penetrate)
G03 X127.005413 Y120.529835 Z-0.125000 I-4.460579 J1.119545 F400.000000
G03 X123.184920 Y136.682770 Z-0.125000 I-293.958501 J-60.998793
G03 X119.805942 Y148.588460 Z-0.125000 I-359.412482 J-95.573255
G03 X119.260220 Y149.683650 Z-0.125000 I-3.480254 J-1.050615
G01 X118.909853 Y149.818268 Z-0.125000
G03 X117.944680 Y149.409060 Z-0.125000 I0.552095 J-2.645041
G02 X115.472296 Y148.859006 Z-0.125000 I-1.930159 J2.844220
G02 X112.705610 Y150.245980 Z-0.125000 I0.809570 J5.067832
G03 X111.880996 Y150.865554 Z-0.125000 I-2.845894 J-2.929162
G01 X111.722187 Y150.818516 Z-0.125000
G01 X111.703093 Y150.573851 Z-0.125000
G03 X112.229390 Y149.324780 Z-0.125000 I8.313544 J2.767505
G02 X117.251404 Y138.075146 Z-0.125000 I-97.249771 J-50.159598
G02 X121.367580 Y125.305690 Z-0.125000 I-121.287576 J-46.144644
G03 X122.077896 Y122.661625 Z-0.125000 I565.849056 J150.595227
G03 X122.171610 Y122.340430 Z-0.125000 I8.453637 J2.292232
G01 X122.346311 Y122.078615 Z-0.125000
G03 X123.408590 Y121.305180 Z-0.125000 I6.251851 J7.470431
G02 X126.404220 Y119.171111 Z-0.125000 I-17.146869 J-27.238903
G01 X126.419630 Y118.889330 Z-0.125000
G01 X125.841406 Y118.824573 Z-0.125000
G02 X122.629940 Y121.277640 Z-0.125000 I11.991531 J19.027581
G01 X121.978143 Y121.541191 Z-0.125000
G03 X120.594500 Y121.331040 Z-0.125000 I-0.104250 J-3.973669
G03 X119.313355 Y120.782703 Z-0.125000 I2.924835 J-8.604458
G01 X119.274710 Y120.641990 Z-0.125000
G01 X119.448519 Y120.467389 Z-0.125000
G03 X123.703290 Y117.877040 Z-0.125000 I117.222656 J187.754287
G03 X125.089647 Y117.357814 Z-0.125000 I2.142374 J3.609803
G03 X125.943020 Y117.466950 Z-0.125000 I0.255327 J1.394484
G03 X126.679827 Y117.979419 Z-0.125000 I-1.104740 J2.374260
G03 X126.962990 Y118.475830 Z-0.125000 I-0.746678 J0.754886
G01 X126.962990 Y118.475880 Z-0.125000
G00 Z5.000000

(End cutting path id: path821)


(Start cutting path id: path821)
(ZZZanette)
(Change tool to Default tool)

G00 Z5.000000
G00 X120.315290 Y123.122880

G01 Z-0.125000 F100.0(Penetrate)
G02 X120.214227 Y123.457048 Z-0.125000 I4.747419 J1.618142 F400.000000
G02 X119.772300 Y125.173400 Z-0.125000 I124.675676 J33.016586
G03 X116.364057 Y136.486613 Z-0.125000 I-120.749964 J-30.207399
G03 X115.009120 Y138.634640 Z-0.125000 I-5.421233 J-1.918268
G01 X114.889328 Y138.644434 Z-0.125000
G03 X114.474210 Y138.250960 Z-0.125000 I1.225958 J-1.709109
G01 X114.373988 Y138.230064 Z-0.125000
G01 X114.344650 Y138.319060 Z-0.125000
G03 X114.452724 Y139.287436 Z-0.125000 I-1.319627 J0.637494
G03 X113.432440 Y142.255090 Z-0.125000 I-14.808767 J-3.432062
G01 X112.241060 Y144.822020 Z-0.125000
G01 X111.677910 Y144.106090 Z-0.125000
G02 X110.275985 Y142.911536 Z-0.125000 I-3.669043 J2.886054
G01 X109.678430 Y142.995220 Z-0.125000
G01 X109.682464 Y143.091467 Z-0.125000
G02 X110.459340 Y143.655040 Z-0.125000 I4.188443 J-4.956455
G03 X111.633198 Y145.032331 Z-0.125000 I-1.552628 J2.512180
G03 X111.578830 Y146.344570 Z-0.125000 I-1.436045 J0.597748
G01 X111.128780 Y147.214840 Z-0.125000
G01 X110.453620 Y146.352150 Z-0.125000
G02 X109.693554 Y145.599972 Z-0.125000 I-3.335582 J2.610456
G02 X108.759890 Y145.054880 Z-0.125000 I-2.632752 J3.437362
G01 X107.741320 Y144.620300 Z-0.125000
G01 X108.669040 Y143.316960 Z-0.125000
G02 X109.347307 Y141.075089 Z-0.125000 I-2.989737 J-2.128069
G02 X108.538020 Y139.094270 Z-0.125000 I-3.061248 J0.094978
G02 X107.380809 Y138.078761 Z-0.125000 I-5.359377 J4.940119
G02 X105.693760 Y137.087430 Z-0.125000 I-6.787364 J9.619568
G03 X103.984161 Y136.128483 Z-0.125000 I6.729227 J-14.000180
G03 X103.286820 Y135.529950 Z-0.125000 I1.855104 J-2.866849
G01 X102.665430 Y134.830720 Z-0.125000
G01 X102.822240 Y135.532020 Z-0.125000
G03 X102.766654 Y136.175518 Z-0.125000 I-1.045669 J0.233824
G03 X102.176670 Y137.092270 Z-0.125000 I-2.821028 J-1.167277
G01 X101.374290 Y137.951220 Z-0.125000
G01 X99.063187 Y137.787180 Z-0.125000
G03 X96.765660 Y137.552426 Z-0.125000 I2.638980 J-37.187912
G03 X95.964529 Y137.373280 Z-0.125000 I0.624097 J-4.671799
G02 X95.172350 Y137.140703 Z-0.125000 I-5.769080 J18.184651
G02 X94.469759 Y136.969340 Z-0.125000 I-3.820098 J14.136430
G03 X93.808834 Y136.721073 Z-0.125000 I0.521559 J-2.392343
G03 X92.948399 Y136.130200 Z-0.125000 I2.582514 J-4.682608
G03 X92.404128 Y135.319517 Z-0.125000 I1.137274 J-1.351581
G03 X92.134249 Y133.599180 Z-0.125000 I5.348184 J-1.720337
G03 X92.240254 Y131.779811 Z-0.125000 I15.666023 J0.000000
G03 X92.410419 Y131.237210 Z-0.125000 I1.515029 J0.177146
G01 X92.425869 Y130.819007 Z-0.125000
G01 X92.079689 Y130.491690 Z-0.125000
G01 X91.648499 Y130.579022 Z-0.125000
G01 X91.587229 Y130.960880 Z-0.125000
G03 X91.968281 Y132.875038 Z-0.125000 I-2.960423 J1.584340
G03 X91.199819 Y134.886950 Z-0.125000 I-4.069576 J-0.401684
G01 X90.785362 Y135.093084 Z-0.125000
G03 X89.317919 Y134.856150 Z-0.125000 I0.084926 J-5.188740
G03 X84.671069 Y133.016708 Z-0.125000 I10.227810 J-32.626994
G03 X82.518609 Y131.571150 Z-0.125000 I4.003751 J-8.286958
G03 X81.728935 Y130.420343 Z-0.125000 I1.990784 J-2.212395
G01 X81.834849 Y129.780310 Z-0.125000
G02 X82.072670 Y129.400439 Z-0.125000 I-1.296539 J-1.076086
G01 X82.051649 Y129.302520 Z-0.125000
G02 X81.040014 Y129.031806 Z-0.125000 I-0.778730 J0.884492
G02 X77.449879 Y130.230310 Z-0.125000 I3.042249 J15.089496
G02 X76.360169 Y131.025196 Z-0.125000 I1.581788 J3.312861
G02 X76.044059 Y131.721850 Z-0.125000 I0.859377 J0.809991
G03 X75.778504 Y132.380656 Z-0.125000 I-1.248948 J-0.120509
G01 X75.362579 Y132.581740 Z-0.125000
G02 X74.096225 Y133.075819 Z-0.125000 I0.000000 J1.869908
G02 X73.619309 Y134.186300 Z-0.125000 I1.001020 J1.087557
G01 X73.730734 Y134.260604 Z-0.125000
G01 X74.082329 Y134.001770 Z-0.125000
G03 X75.434940 Y132.969842 Z-0.125000 I2.800731 J2.268650
G01 X76.024259 Y133.149740 Z-0.125000
G01 X76.143300 Y133.133574 Z-0.125000
G02 X76.255209 Y132.389400 Z-0.125000 I-2.480897 J-0.753580
G03 X76.776275 Y131.245157 Z-0.125000 I1.529777 J0.005867
G03 X78.870939 Y130.095510 Z-0.125000 I3.641780 J4.152279
G03 X80.456426 Y130.119823 Z-0.125000 I0.753340 J2.581731
G03 X81.602769 Y130.984410 Z-0.125000 I-0.682304 J2.096909
G02 X82.298293 Y131.821718 Z-0.125000 I4.513022 J-3.041289
G02 X83.274269 Y132.629590 Z-0.125000 I5.172207 J-5.254987
G02 X87.963648 Y135.208654 Z-0.125000 I14.870153 J-21.484869
G02 X90.665799 Y135.756740 Z-0.125000 I2.702151 J-6.386979
G03 X91.331107 Y135.889053 Z-0.125000 I-0.000000 J1.738837
G03 X92.219229 Y136.400050 Z-0.125000 I-1.518105 J3.665778
G02 X93.685786 Y137.205281 Z-0.125000 I3.406736 J-4.466519
G02 X96.624279 Y138.021250 Z-0.125000 I6.446295 J-17.515516
G02 X101.039695 Y138.130765 Z-0.125000 I2.538039 J-13.263476
G02 X102.836840 Y137.149090 Z-0.125000 I-0.403558 J-2.874636
G01 X103.408530 Y136.484450 Z-0.125000
G01 X105.423880 Y137.467170 Z-0.125000
G03 X108.753265 Y139.734717 Z-0.125000 I-6.142700 J12.597180
G03 X109.332170 Y141.051010 Z-0.125000 I-1.207016 J1.316293
G03 X109.173735 Y141.709102 Z-0.125000 I-1.445976 J0.000000
G03 X108.002360 Y143.652750 Z-0.125000 I-14.471608 J-7.396779
G02 X106.864151 Y145.446755 Z-0.125000 I18.551461 J13.028079
G01 X106.921980 Y145.546330 Z-0.125000
G01 X107.117629 Y145.471723 Z-0.125000
G01 X107.277030 Y145.229460 Z-0.125000
G01 X107.703674 Y145.033150 Z-0.125000
G03 X109.070584 Y145.815968 Z-0.125000 I-2.230219 J5.479094
G03 X110.355297 Y147.019277 Z-0.125000 I-5.411507 J7.065058
G03 X110.655090 Y147.816900 Z-0.125000 I-0.911171 J0.797623
G03 X110.448681 Y148.694920 Z-0.125000 I-1.970656 J-0.000000
G03 X104.477080 Y160.230700 Z-0.125000 I-365.947069 J-182.122285
G03 X102.940648 Y162.761107 Z-0.125000 I-25.022589 J-13.461758
G03 X102.473530 Y163.173110 Z-0.125000 I-1.039639 J-0.707910
G01 X102.246847 Y163.450911 Z-0.125000
G01 X102.343350 Y163.642360 Z-0.125000
G02 X102.781224 Y163.768372 Z-0.125000 I0.947079 J-2.467190
G01 X102.853820 Y163.742660 Z-0.125000
G01 X102.907193 Y163.665362 Z-0.125000
G02 X105.438400 Y159.142840 Z-0.125000 I-1357.664040 J-762.839470
G02 X110.558656 Y149.618278 Z-0.125000 I-308.166492 J-171.804056
G02 X113.166530 Y144.223410 Z-0.125000 I-96.202382 J-49.831900
G03 X114.418505 Y141.446461 Z-0.125000 I1476.687409 J664.087480
G03 X114.900520 Y140.386950 Z-0.125000 I215.835356 J97.552844
G02 X119.610914 Y128.863355 Z-0.125000 I-136.811721 J-62.647776
G01 X119.249420 Y128.348410 Z-0.125000
G01 X119.209455 Y128.297759 Z-0.125000
G03 X119.423490 Y127.620810 Z-0.125000 I4.834992 J1.156399
G02 X120.811656 Y123.150294 Z-0.125000 I-28.434672 J-11.280201
G01 X120.526080 Y122.792160 Z-0.125000
G01 X120.455699 Y122.830763 Z-0.125000
G02 X120.315290 Y123.122890 Z-0.125000 I1.147309 J0.731254
G01 X120.315290 Y123.122880 Z-0.125000
G00 Z5.000000

(End cutting path id: path821)


(Start cutting path id: path821)
(ZZZanette)
(Change tool to Default tool)

G00 Z5.000000
G00 X114.749090 Y124.384950

G01 Z-0.125000 F100.0(Penetrate)
G03 X117.633467 Y124.714433 Z-0.125000 I-9.981529 J100.170968 F400.000000
G01 X117.749840 Y124.771630 Z-0.125000
G01 X117.780060 Y124.876081 Z-0.125000
G03 X116.877041 Y128.751010 Z-0.125000 I-284.174169 J-64.181676
G03 X115.924676 Y132.600630 Z-0.125000 I-286.096798 J-68.735474
G01 X115.824250 Y132.786400 Z-0.125000
G01 X115.276796 Y132.808893 Z-0.125000
G03 X114.888420 Y131.920270 Z-0.125000 I0.822416 J-0.888623
G01 X114.570582 Y131.312076 Z-0.125000
G02 X113.556880 Y130.994230 Z-0.125000 I-1.013702 J1.457573
G03 X113.066460 Y130.955841 Z-0.125000 I0.000000 J-3.151746
G03 X111.694410 Y130.700850 Z-0.125000 I3.946847 J-25.055963
G01 X110.326430 Y130.407470 Z-0.125000
G01 X110.509690 Y127.724290 Z-0.125000
G03 X111.054189 Y124.170978 Z-0.125000 I21.408804 J1.462247
G01 X111.413400 Y123.964980 Z-0.125000
G02 X111.853142 Y124.058445 Z-0.125000 I0.773507 J-2.558061
G02 X114.749090 Y124.384950 Z-0.125000 I14.056744 J-111.670707
G01 X114.749090 Y124.384950 Z-0.125000
G00 Z5.000000

(End cutting path id: path821)


(Start cutting path id: path821)
(ZZZanette)
(Change tool to Default tool)

G00 Z5.000000
G00 X110.547930 Y124.578090

G01 Z-0.125000 F100.0(Penetrate)
G02 X110.146023 Y127.676727 Z-0.125000 I62.596924 J9.694490 F400.000000
G02 X109.721710 Y132.469700 Z-0.125000 I149.367567 J15.638489
G01 X109.547850 Y134.871200 Z-0.125000
G01 X111.225940 Y135.289500 Z-0.125000
G02 X115.231552 Y135.993804 Z-0.125000 I7.008303 J-28.115766
G01 X115.683670 Y135.753930 Z-0.125000
G02 X115.874941 Y135.270362 Z-0.125000 I-2.002355 J-1.071625
G02 X116.472340 Y132.811960 Z-0.125000 I-51.920588 J-13.918644
G03 X117.029359 Y130.336476 Z-0.125000 I191.522578 J41.794916
G03 X117.712210 Y127.463640 Z-0.125000 I258.611432 J59.952338
G02 X118.220381 Y124.672705 Z-0.125000 I-23.443307 J-5.710270
G01 X118.086370 Y124.393830 Z-0.125000
G01 X117.738392 Y124.270641 Z-0.125000
G02 X116.130440 Y124.144210 Z-0.125000 I-2.107147 J16.510583
G03 X114.503369 Y124.047537 Z-0.125000 I0.831692 J-27.738625
G03 X112.775600 Y123.845820 Z-0.125000 I2.801849 J-31.498999
G02 X111.051191 Y123.605405 Z-0.125000 I-24.023087 J166.004279
G02 X110.876780 Y123.591140 Z-0.125000 I-0.224966 J1.677200
G01 X110.768660 Y123.666563 Z-0.125000
G02 X110.547930 Y124.578090 Z-0.125000 I5.308946 J1.768069
G01 X110.547930 Y124.578090 Z-0.125000
G00 Z5.000000

(End cutting path id: path821)


(Start cutting path id: path821)
(ZZZanette)
(Change tool to Default tool)

G00 Z5.000000
G00 X103.881820 Y122.665030

G01 Z-0.125000 F100.0(Penetrate)
G03 X106.023846 Y123.072466 Z-0.125000 I-79.955778 J426.188554 F400.000000
G03 X107.434310 Y123.350020 Z-0.125000 I-35.621074 J184.740400
G01 X108.843750 Y123.632970 Z-0.125000
G01 X108.682300 Y125.659950 Z-0.125000
G03 X108.504888 Y127.685319 Z-0.125000 I-128.470676 J-10.232943
G03 X108.381140 Y128.811420 Z-0.125000 I-39.735037 J-3.796649
G01 X108.241420 Y129.935900 Z-0.125000
G01 X107.067000 Y129.935900 Z-0.125000
G02 X106.058398 Y130.101717 Z-0.125000 I0.000000 J3.150380
G01 X105.892590 Y130.332770 Z-0.125000
G01 X105.587021 Y130.655359 Z-0.125000
G03 X103.709780 Y130.451150 Z-0.125000 I-0.315950 J-5.826147
G03 X102.929767 Y130.014323 Z-0.125000 I0.503964 J-1.814718
G01 X102.717590 Y129.526590 Z-0.125000
G01 X102.533284 Y129.061875 Z-0.125000
G01 X102.106700 Y128.877570 Z-0.125000
G03 X101.524830 Y128.788760 Z-0.125000 I-0.000000 J-1.950581
G03 X101.039810 Y128.544140 Z-0.125000 I0.495645 J-1.585882
G01 X100.796643 Y128.110680 Z-0.125000
G03 X100.764440 Y125.236840 Z-0.125000 I19.943294 J-1.660574
G03 X100.938695 Y122.958353 Z-0.125000 I72.802974 J4.421948
G01 X101.205814 Y122.453301 Z-0.125000
G01 X101.747417 Y122.303503 Z-0.125000
G03 X103.881820 Y122.665030 Z-0.125000 I-9.168284 J60.609618
G01 X103.881820 Y122.665030 Z-0.125000
G00 Z5.000000

(End cutting path id: path821)


(Start cutting path id: path821)
(ZZZanette)
(Change tool to Default tool)

G00 Z5.000000
G00 X100.510520 Y123.784340

G01 Z-0.125000 F100.0(Penetrate)
G02 X100.375976 Y125.571925 Z-0.125000 I66.038225 J5.869258 F400.000000
G02 X100.176330 Y129.203010 Z-0.125000 I271.817437 J16.766258
G02 X100.221081 Y132.692098 Z-0.125000 I28.549780 J1.378650
G01 X100.458280 Y133.011250 Z-0.125000
G02 X101.409408 Y133.292378 Z-0.125000 I2.250704 J-5.865197
G02 X104.713049 Y133.944020 Z-0.125000 I25.571052 J-120.937865
G02 X108.137411 Y134.517315 Z-0.125000 I20.506515 J-111.974269
G01 X108.341860 Y134.455020 Z-0.125000
G02 X108.744864 Y133.633650 Z-0.125000 I-0.849637 J-0.926425
G02 X109.186060 Y124.388830 Z-0.125000 I-128.182361 J-10.750262
G01 X108.690876 Y123.571643 Z-0.125000
G02 X105.815680 Y122.678880 Z-0.125000 I-4.062607 J8.007616
G03 X104.551043 Y122.491879 Z-0.125000 I5.958181 J-44.663292
G03 X103.199880 Y122.254090 Z-0.125000 I8.322171 J-51.245827
G02 X101.463166 Y121.983778 Z-0.125000 I-4.960766 J26.157933
G01 X100.974449 Y122.081809 Z-0.125000
G01 X100.702973 Y122.456982 Z-0.125000
G02 X100.510520 Y123.784340 Z-0.125000 I11.889695 J2.401508
G01 X100.510520 Y123.784340 Z-0.125000
G00 Z5.000000

(End cutting path id: path821)


(Start cutting path id: path821)
(ZZZanette)
(Change tool to Default tool)

G00 Z5.000000
G00 X97.622949 Y122.976080

G01 Z-0.125000 F100.0(Penetrate)
G01 X97.546075 Y123.297793 Z-0.125000 F400.000000
G02 X97.699407 Y126.560104 Z-0.125000 I111.344492 J-3.598577
G02 X97.947477 Y129.809919 Z-0.125000 I111.714301 J-6.893168
G01 X98.066647 Y130.166950 Z-0.125000
G01 X98.307320 Y130.363890 Z-0.125000
G02 X98.872257 Y130.465070 Z-0.125000 I0.564937 J-1.526568
G01 X99.263972 Y130.218504 Z-0.125000
G02 X99.601917 Y128.943710 Z-0.125000 I-3.180109 J-1.525230
G02 X99.674380 Y127.421229 Z-0.125000 I-32.283632 J-2.299525
G02 X99.692517 Y125.173400 Z-0.125000 I-70.483095 J-1.692679
G01 X99.674817 Y122.924440 Z-0.125000
G01 X98.707207 Y122.843740 Z-0.125000
G02 X97.792303 Y122.861249 Z-0.125000 I-0.372232 J4.461755
G01 X97.622879 Y122.976030 Z-0.125000
G01 X97.622949 Y122.976080 Z-0.125000
G00 Z5.000000

(End cutting path id: path821)


(Start cutting path id: path821)
(ZZZanette)
(Change tool to Default tool)

G00 Z5.000000
G00 X99.145717 Y126.764520

G01 Z-0.125000 F100.0(Penetrate)
G03 X98.959147 Y129.881634 Z-0.125000 I-26.132866 J0.000000 F400.000000
G01 X98.748837 Y130.068190 Z-0.125000
G01 X98.534544 Y129.881583 Z-0.125000
G03 X98.277757 Y126.673800 Z-0.125000 I27.483984 J-3.814295
G03 X98.430576 Y123.548262 Z-0.125000 I22.142066 J-0.483900
G01 X98.674637 Y123.370130 Z-0.125000
G01 X98.929869 Y123.639077 Z-0.125000
G03 X99.145717 Y126.764520 Z-0.125000 I-22.520011 J3.125443
G01 X99.145717 Y126.764520 Z-0.125000
G00 Z5.000000

(End cutting path id: path821)


(Start cutting path id: path821)
(ZZZanette)
(Change tool to Default tool)

G00 Z5.000000
G00 X102.122280 Y129.138540

G01 Z-0.125000 F100.0(Penetrate)
G01 X102.326562 Y129.267213 Z-0.125000 F400.000000
G03 X102.453000 Y129.810160 Z-0.125000 I-1.102537 J0.542947
G01 X102.885585 Y130.516290 Z-0.125000
G02 X105.164980 Y131.192920 Z-0.125000 I2.968232 J-5.821556
G02 X106.234752 Y131.118315 Z-0.125000 I0.324203 J-3.058311
G01 X106.421750 Y130.878840 Z-0.125000
G01 X106.593074 Y130.620171 Z-0.125000
G03 X107.281660 Y130.514450 Z-0.125000 I0.552642 J1.304170
G01 X108.141550 Y130.597350 Z-0.125000
G01 X108.050950 Y132.052560 Z-0.125000
G03 X107.876848 Y133.471361 Z-0.125000 I-11.904391 J-0.740715
G01 X107.740620 Y133.738720 Z-0.125000
G01 X107.271311 Y133.897945 Z-0.125000
G03 X101.725450 Y132.791330 Z-0.125000 I10.801831 J-68.583948
G01 X100.600970 Y132.518900 Z-0.125000
G01 X100.600970 Y130.667370 Z-0.125000
G03 X100.859631 Y129.152918 Z-0.125000 I4.562860 J-0.000000
G01 X101.196280 Y128.975380 Z-0.125000
G02 X101.795263 Y129.108123 Z-0.125000 I1.820144 J-6.795342
G02 X102.122320 Y129.138530 Z-0.125000 I0.349055 J-1.980313
G01 X102.122280 Y129.138540 Z-0.125000
G00 Z5.000000

(End cutting path id: path821)


(Start cutting path id: path821)
(ZZZanette)
(Change tool to Default tool)

G00 Z5.000000
G00 X93.639199 Y121.470090

G01 Z-0.125000 F100.0(Penetrate)
G03 X95.621455 Y121.857864 Z-0.125000 I-5.353301 J32.625890 F400.000000
G01 X96.218991 Y122.292949 Z-0.125000
G03 X96.434992 Y123.075068 Z-0.125000 I-1.325290 J0.786897
G03 X96.405279 Y126.128700 Z-0.125000 I-119.014515 J0.368894
G03 X96.277300 Y130.051957 Z-0.125000 I-195.356463 J-4.408937
G01 X96.233439 Y130.154690 Z-0.125000
G01 X96.134931 Y130.185790 Z-0.125000
G03 X94.605399 Y129.832840 Z-0.125000 I4.827888 J-24.412619
G02 X93.056944 Y129.437953 Z-0.125000 I-23.527817 J89.025220
G02 X90.679049 Y128.867750 Z-0.125000 I-51.457187 J209.346710
G03 X88.299940 Y128.302735 Z-0.125000 I79.692565 J-340.852863
G03 X87.863469 Y128.188690 Z-0.125000 I2.796640 J-11.595507
G01 X87.599465 Y127.895780 Z-0.125000
G03 X86.700789 Y121.447720 Z-0.125000 I99.271693 J-17.122308
G01 X86.571629 Y120.235580 Z-0.125000
G01 X89.286799 Y120.718510 Z-0.125000
G02 X92.003132 Y121.194614 Z-0.125000 I95.939967 J-539.383292
G02 X93.639199 Y121.470090 Z-0.125000 I33.750041 J-195.446972
G01 X93.639199 Y121.470090 Z-0.125000
G00 Z5.000000

(End cutting path id: path821)


(Start cutting path id: path821)
(ZZZanette)
(Change tool to Default tool)

G00 Z5.000000
G00 X90.811339 Y122.143440

G01 Z-0.125000 F100.0(Penetrate)
G03 X92.791533 Y122.570450 Z-0.125000 I-22.657389 J109.875148 F400.000000
G03 X93.756409 Y122.806400 Z-0.125000 I-5.922969 J26.311751
G01 X94.717119 Y123.060170 Z-0.125000
G01 X94.907549 Y125.854020 Z-0.125000
G03 X95.049136 Y128.627396 Z-0.125000 I-81.285966 J5.540133
G01 X95.005149 Y128.727500 Z-0.125000
G01 X94.861969 Y128.763480 Z-0.125000
G03 X91.972179 Y128.090371 Z-0.125000 I26.528942 J-120.433814
G03 X89.138000 Y127.359522 Z-0.125000 I30.371345 J-123.638694
G03 X88.747209 Y127.190270 Z-0.125000 I0.384759 J-1.424157
G01 X88.527963 Y126.939668 Z-0.125000
G03 X88.430059 Y126.480700 Z-0.125000 I1.026858 J-0.458968
G01 X88.611009 Y126.148104 Z-0.125000
G03 X89.223809 Y125.967150 Z-0.125000 I0.612800 J0.947143
G01 X89.739158 Y125.619618 Z-0.125000
G02 X89.852199 Y124.412720 Z-0.125000 I-1.959921 J-0.792314
G02 X89.528562 Y123.778956 Z-0.125000 I-1.286043 J0.257213
G01 X89.086749 Y123.585900 Z-0.125000
G01 X88.483443 Y123.267936 Z-0.125000
G03 X88.165479 Y122.241340 Z-0.125000 I1.498279 J-1.026596
G01 X88.449587 Y121.946525 Z-0.125000
G03 X90.811309 Y122.143440 Z-0.125000 I0.365495 J9.877652
G01 X90.811339 Y122.143440 Z-0.125000
G00 Z5.000000

(End cutting path id: path821)


(Start cutting path id: path821)
(ZZZanette)
(Change tool to Default tool)

G00 Z5.000000
G00 X87.951649 Y122.428050

G01 Z-0.125000 F100.0(Penetrate)
G02 X88.254089 Y123.509906 Z-0.125000 I2.708626 J-0.174012 F400.000000
G01 X88.694679 Y123.851760 Z-0.125000
G01 X89.157832 Y124.163869 Z-0.125000
G03 X89.356129 Y124.788450 Z-0.125000 I-0.884484 J0.624581
G03 X89.211657 Y125.392244 Z-0.125000 I-1.333957 J0.000000
G01 X88.997559 Y125.494840 Z-0.125000
G01 X87.879919 Y126.273826 Z-0.125000
G02 X88.659639 Y127.791850 Z-0.125000 I1.451767 J0.213572
G02 X89.531161 Y128.123588 Z-0.125000 I1.910383 J-3.708165
G02 X92.368136 Y128.789343 Z-0.125000 I17.119913 J-66.575551
G02 X95.300261 Y129.338825 Z-0.125000 I12.887549 J-60.672085
G01 X95.539169 Y129.253150 Z-0.125000
G01 X95.636917 Y128.978334 Z-0.125000
G02 X95.465538 Y125.974574 Z-0.125000 I-77.012663 J2.887174
G02 X95.177642 Y122.982343 Z-0.125000 I-77.232651 J5.920938
G01 X95.036249 Y122.693110 Z-0.125000
G01 X94.870254 Y122.603583 Z-0.125000
G02 X91.861249 Y122.008650 Z-0.125000 I-18.888606 J87.626480
G03 X88.833649 Y121.435492 Z-0.125000 I30.328396 J-168.487163
G03 X88.348519 Y121.310840 Z-0.125000 I0.881115 J-4.435533
G01 X88.089531 Y121.439558 Z-0.125000
G02 X87.951649 Y122.428050 Z-0.125000 I2.334913 J0.829554
G01 X87.951649 Y122.428050 Z-0.125000
G00 Z5.000000

(End cutting path id: path821)


(Start cutting path id: path821)
(ZZZanette)
(Change tool to Default tool)

G00 Z5.000000
G00 X86.313429 Y120.220440

G01 Z-0.125000 F100.0(Penetrate)
G01 X86.169140 Y120.407117 Z-0.125000 F400.000000
G03 X85.388649 Y120.461270 Z-0.125000 I-0.534543 J-2.052652
G02 X84.308262 Y120.865832 Z-0.125000 I-0.146396 J1.253920
G02 X83.950889 Y122.042300 Z-0.125000 I1.060922 J0.964787
G03 X84.160976 Y123.453689 Z-0.125000 I-1812.084471 J270.451275
G03 X84.430049 Y125.269970 Z-0.125000 I-3017.987400 J448.029617
G02 X84.728788 Y127.070641 Z-0.125000 I51.210123 J-7.570870
G01 X84.778399 Y127.162330 Z-0.125000
G01 X84.870956 Y127.211924 Z-0.125000
G02 X85.519679 Y127.330340 Z-0.125000 I1.722389 J-7.599637
G01 X85.917032 Y127.098357 Z-0.125000
G02 X86.318419 Y125.305690 Z-0.125000 I-5.517018 J-2.176556
G01 X86.455699 Y123.189020 Z-0.125000
G01 X86.682929 Y125.632060 Z-0.125000
G02 X87.043126 Y128.004966 Z-0.125000 I20.648490 J-1.920559
G01 X87.261659 Y128.366820 Z-0.125000
G02 X87.677886 Y128.585518 Z-0.125000 I0.723864 J-0.872231
G02 X91.714809 Y129.666106 Z-0.125000 I42.600692 J-151.069066
G02 X95.721419 Y130.627384 Z-0.125000 I39.669343 J-156.511588
G02 X96.566029 Y130.725100 Z-0.125000 I0.874917 J-3.863294
G01 X96.883913 Y130.450287 Z-0.125000
G02 X97.161339 Y126.396420 Z-0.125000 I-29.479672 J-4.053867
G02 X97.004254 Y122.136927 Z-0.125000 I-57.828557 J-0.000000
G01 X96.820459 Y121.780290 Z-0.125000
G02 X96.335189 Y121.553926 Z-0.125000 I-0.674562 J0.812764
G02 X89.223839 Y120.396450 Z-0.125000 I-34.272207 J188.138861
G03 X87.507683 Y120.130377 Z-0.125000 I10.911872 J-76.048641
G03 X86.908739 Y120.010670 Z-0.125000 I1.561771 J-9.372408
G01 X86.443941 Y120.036087 Z-0.125000
G01 X86.313429 Y120.220440 Z-0.125000
G01 X86.313429 Y120.220440 Z-0.125000
G00 Z5.000000

(End cutting path id: path821)


(Start cutting path id: path821)
(ZZZanette)
(Change tool to Default tool)

G00 Z5.000000
G00 X85.726779 Y124.048920

G01 Z-0.125000 F100.0(Penetrate)
G03 X85.620259 Y126.848798 Z-0.125000 I-22.187784 J0.557842 F400.000000
G01 X85.424729 Y127.025480 Z-0.125000
G01 X85.095501 Y126.763832 Z-0.125000
G03 X84.576179 Y123.364350 Z-0.125000 I22.014932 J-5.102523
G01 X84.389469 Y120.893840 Z-0.125000
G01 X85.020709 Y120.983140 Z-0.125000
G01 X85.381025 Y121.313768 Z-0.125000
G03 X85.726779 Y124.048960 Z-0.125000 I-13.373499 J3.079985
G01 X85.726779 Y124.048920 Z-0.125000
G00 Z5.000000

(End cutting path id: path821)


(Start cutting path id: path821)
(ZZZanette)
(Change tool to Default tool)

G00 Z5.000000
G00 X78.640499 Y124.750130

G01 Z-0.125000 F100.0(Penetrate)
G01 X78.793424 Y125.000044 Z-0.125000 F400.000000
G02 X80.006299 Y125.448270 Z-0.125000 I2.488111 J-4.867591
G02 X81.289720 Y125.551638 Z-0.125000 I0.972313 J-4.053079
G01 X81.704629 Y125.321150 Z-0.125000
G01 X82.100739 Y125.017117 Z-0.125000
G03 X82.652289 Y124.953750 Z-0.125000 I0.397083 J1.024191
G01 X83.082205 Y125.233703 Z-0.125000
G03 X83.498519 Y126.310960 Z-0.125000 I-2.611337 J1.628242
G03 X83.655359 Y127.557617 Z-0.125000 I-11.272083 J2.051318
G01 X83.597219 Y127.713200 Z-0.125000
G01 X83.330671 Y127.798445 Z-0.125000
G03 X80.688673 Y127.283675 Z-0.125000 I8.538957 J-50.862437
G03 X78.078418 Y126.633394 Z-0.125000 I11.379617 J-51.242236
G01 X77.797159 Y126.425150 Z-0.125000
G03 X77.645575 Y126.083084 Z-0.125000 I1.065401 J-0.676744
G03 X77.586209 Y125.658060 Z-0.125000 I1.600967 J-0.440276
G02 X77.543143 Y125.224122 Z-0.125000 I-2.407580 J0.019835
G02 X77.421559 Y124.798160 Z-0.125000 I-2.462837 J0.472642
G01 X77.492662 Y124.538876 Z-0.125000
G01 X77.950729 Y124.379650 Z-0.125000
G03 X78.501848 Y124.518290 Z-0.125000 I-0.000000 J1.164717
G01 X78.640489 Y124.750130 Z-0.125000
G01 X78.640499 Y124.750130 Z-0.125000
G00 Z5.000000

(End cutting path id: path821)


(Start cutting path id: path821)
(ZZZanette)
(Change tool to Default tool)

G00 Z5.000000
G00 X75.383109 Y123.942580

G01 Z-0.125000 F100.0(Penetrate)
G01 X75.595597 Y124.295305 Z-0.125000 F400.000000
G03 X75.779989 Y125.305690 Z-0.125000 I-4.804423 J1.398807
G01 X75.862389 Y126.364020 Z-0.125000
G01 X74.804059 Y126.293720 Z-0.125000
G03 X72.926920 Y125.864843 Z-0.125000 I0.404951 J-6.094850
G03 X72.335869 Y125.299600 Z-0.125000 I0.411679 J-1.022116
G03 X72.040323 Y124.097784 Z-0.125000 I3.038633 J-1.384498
G01 X72.262769 Y123.965660 Z-0.125000
G01 X72.448751 Y123.961314 Z-0.125000
G01 X72.660229 Y123.693530 Z-0.125000
G01 X72.931779 Y123.467827 Z-0.125000
G03 X73.944719 Y123.456420 Z-0.125000 I0.539444 J2.922307
G03 X75.025272 Y123.724279 Z-0.125000 I-1.071106 J6.634308
G01 X75.383089 Y123.942600 Z-0.125000
G01 X75.383109 Y123.942580 Z-0.125000
G00 Z5.000000

(End cutting path id: path821)


(Start cutting path id: path821)
(ZZZanette)
(Change tool to Default tool)

G00 Z5.000000
G00 X75.994679 Y118.410310

G01 Z-0.125000 F100.0(Penetrate)
G02 X76.364357 Y122.813858 Z-0.125000 I26.412052 J-0.000000 F400.000000
G02 X77.434819 Y126.927450 Z-0.125000 I24.097222 J-4.074639
G01 X77.629617 Y127.122939 Z-0.125000
G02 X79.082989 Y127.519690 Z-0.125000 I3.250011 J-9.045038
G03 X80.622274 Y127.825711 Z-0.125000 I-17.865579 J93.888118
G03 X82.344679 Y128.196020 Z-0.125000 I-24.458420 J117.953423
G02 X84.030543 Y128.473027 Z-0.125000 I3.303501 J-14.836500
G01 X84.227369 Y128.397530 Z-0.125000
G01 X84.299060 Y128.187036 Z-0.125000
G02 X83.885399 Y123.850480 Z-0.125000 I-108.444436 J8.156429
G02 X82.752589 Y119.442301 Z-0.125000 I-16.625200 J1.922685
G01 X81.831089 Y118.823350 Z-0.125000
G03 X81.158625 Y118.775071 Z-0.125000 I0.000253 J-4.710931
G03 X79.080259 Y118.426480 Z-0.125000 I6.574702 J-45.569744
G02 X76.255190 Y118.151133 Z-0.125000 I-2.906256 J15.187963
G01 X75.994679 Y118.410280 Z-0.125000
G01 X75.994679 Y118.410310 Z-0.125000
G00 Z5.000000

(End cutting path id: path821)


(Start cutting path id: path821)
(ZZZanette)
(Change tool to Default tool)

G00 Z5.000000
G00 X72.158219 Y117.540190

G01 Z-0.125000 F100.0(Penetrate)
G03 X74.249442 Y117.904244 Z-0.125000 I-5.464526 J37.578020 F400.000000
G01 X74.463359 Y118.008220 Z-0.125000
G01 X74.596808 Y118.233074 Z-0.125000
G03 X75.026969 Y120.529311 Z-0.125000 I-57.424175 J11.945848
G03 X75.365363 Y122.841393 Z-0.125000 I-57.790117 J9.638900
G01 X75.311219 Y123.091600 Z-0.125000
G01 X75.168250 Y123.165062 Z-0.125000
G03 X73.995589 Y123.000100 Z-0.125000 I0.585241 J-8.410784
G02 X72.866903 Y122.963320 Z-0.125000 I-0.666828 J3.126603
G01 X72.422169 Y123.229820 Z-0.125000
G01 X71.950729 Y123.268964 Z-0.125000
G03 X71.149899 Y121.998410 Z-0.125000 I2.203265 J-2.276376
G02 X70.737831 Y120.812568 Z-0.125000 I-52.425568 J17.552846
G02 X70.077529 Y119.021850 Z-0.125000 I-120.083977 J43.262157
G03 X69.607128 Y117.375696 Z-0.125000 I9.732643 J-3.671464
G01 X69.722679 Y117.234160 Z-0.125000
G03 X70.040093 Y117.253121 Z-0.125000 I0.013879 J2.433972
G03 X72.158219 Y117.540200 Z-0.125000 I-13.764839 J109.517185
G01 X72.158219 Y117.540190 Z-0.125000
G00 Z5.000000

(End cutting path id: path821)


(Start cutting path id: path821)
(ZZZanette)
(Change tool to Default tool)

G00 Z5.000000
G00 X68.978419 Y116.714500

G01 Z-0.125000 F100.0(Penetrate)
G01 X68.945277 Y117.023437 Z-0.125000 F400.000000
G02 X71.548319 Y123.982770 Z-0.125000 I193.897778 J-68.558278
G03 X72.057389 Y125.310285 Z-0.125000 I-67.482470 J26.639257
G03 X72.207159 Y125.752500 Z-0.125000 I-7.336268 J2.731130
G01 X72.815399 Y126.355515 Z-0.125000
G02 X75.610819 Y126.760900 Z-0.125000 I2.795420 J-9.435511
G01 X76.045345 Y126.353691 Z-0.125000
G02 X75.875149 Y122.692630 Z-0.125000 I-16.458284 J-1.069372
G03 X75.503497 Y120.276821 Z-0.125000 I234.422290 J-37.300354
G03 X75.329869 Y119.022520 Z-0.125000 I62.980444 J-9.357329
G02 X74.634425 Y117.924161 Z-0.125000 I-1.523869 J0.195517
G02 X72.158219 Y116.991820 Z-0.125000 I-3.431696 J5.359800
G03 X70.042852 Y116.662795 Z-0.125000 I44.686785 J-294.264466
G03 X69.578799 Y116.581110 Z-0.125000 I2.267438 J-14.240376
G02 X69.157793 Y116.587003 Z-0.125000 I-0.196301 J1.017568
G01 X68.978419 Y116.714500 Z-0.125000
G01 X68.978419 Y116.714500 Z-0.125000
G00 Z5.000000

(End cutting path id: path821)


(Start cutting path id: path821)
(ZZZanette)
(Change tool to Default tool)

G00 Z5.000000
G00 X76.391549 Y114.335760

G01 Z-0.125000 F100.0(Penetrate)
G03 X80.094905 Y114.872832 Z-0.125000 I-180.409637 J1257.042768 F400.000000
G03 X81.815499 Y115.130540 Z-0.125000 I-39.649569 J270.594222
G02 X84.637485 Y115.557918 Z-0.125000 I139.902596 J-914.249023
G02 X91.472799 Y116.577850 Z-0.125000 I802.043055 J-5351.665002
G03 X94.382397 Y117.015580 Z-0.125000 I-117.177064 J788.767228
G03 X96.632179 Y117.363770 Z-0.125000 I-72.036972 J472.899039
G02 X98.881783 Y117.713029 Z-0.125000 I93.183692 J-592.783240
G02 X100.865500 Y118.012770 Z-0.125000 I70.344287 J-458.832137
G03 X106.101438 Y118.839706 Z-0.125000 I-44.189896 J296.788258
G03 X112.689920 Y119.987470 Z-0.125000 I-78.655145 J470.986095
G03 X119.943802 Y121.556997 Z-0.125000 I-19.714713 J108.662856
G03 X121.124660 Y122.111530 Z-0.125000 I-0.833289 J3.309023
G01 X121.348939 Y122.546878 Z-0.125000
G03 X121.150660 Y124.278010 Z-0.125000 I-6.929957 J0.083181
G03 X116.894718 Y137.475140 Z-0.125000 I-93.810285 J-22.968063
G03 X106.631700 Y160.230690 Z-0.125000 I-290.232569 J-117.206118
G03 X104.227153 Y164.293516 Z-0.125000 I-29.839142 J-14.917059
G03 X103.303280 Y165.041768 Z-0.125000 I-1.739746 J-1.203597
G03 X101.510331 Y165.097717 Z-0.125000 I-0.969740 J-2.319911
G03 X92.157119 Y161.179740 Z-0.125000 I26.307523 J-75.926018
G02 X84.523224 Y157.902414 Z-0.125000 I-33.960724 J68.575407
G02 X74.274939 Y154.627710 Z-0.125000 I-44.153791 J120.507127
G03 X72.702690 Y154.148311 Z-0.125000 I7.591438 J-27.714971
G03 X71.401349 Y153.660860 Z-0.125000 I6.549560 J-19.466073
G01 X70.115259 Y153.128840 Z-0.125000
G01 X70.269249 Y151.917270 Z-0.125000
G03 X70.461208 Y150.712664 Z-0.125000 I19.151794 J2.434319
G03 X70.806459 Y149.118190 Z-0.125000 I33.925105 J6.511181
G02 X73.009682 Y137.934594 Z-0.125000 I-130.877131 J-31.592253
G02 X73.184699 Y133.610170 Z-0.125000 I-19.185639 J-2.942231
G03 X73.053778 Y129.947066 Z-0.125000 I51.438006 J-3.672310
G03 X73.183899 Y129.142150 Z-0.125000 I2.551808 J-0.000456
G01 X73.137260 Y128.985049 Z-0.125000
G01 X73.007049 Y129.001200 Z-0.125000
G01 X72.704099 Y128.991257 Z-0.125000
G03 X71.954529 Y127.413700 Z-0.125000 I5.146621 J-3.412252
G02 X71.259402 Y125.319277 Z-0.125000 I-56.088228 J17.452799
G02 X70.193429 Y122.423040 Z-0.125000 I-108.372540 J38.242708
G03 X67.938569 Y114.958249 Z-0.125000 I50.088522 J-19.202996
G03 X68.210729 Y113.581750 Z-0.125000 I1.694789 J-0.380063
G01 X68.669169 Y113.325762 Z-0.125000
G03 X70.626469 Y113.439710 Z-0.125000 I0.493410 J8.392024
G02 X72.690886 Y113.782644 Z-0.125000 I17.482977 J-98.860016
G02 X76.391609 Y114.335760 Z-0.125000 I49.308685 J-317.251871
G01 X76.391549 Y114.335760 Z-0.125000
G00 Z5.000000

(End cutting path id: path821)


(Start cutting path id: path821)
(ZZZanette)
(Change tool to Default tool)

G00 Z5.000000
G00 X80.484409 Y119.048120

G01 Z-0.125000 F100.0(Penetrate)
G03 X82.107638 Y119.430991 Z-0.125000 I-4.126397 J21.126776 F400.000000
G03 X82.674785 Y119.832648 Z-0.125000 I-0.273807 J0.987859
G03 X82.949334 Y120.531098 Z-0.125000 I-1.326326 J0.924540
G03 X83.258039 Y123.027120 Z-0.125000 I-72.199763 J10.196694
G01 X83.437549 Y124.717290 Z-0.125000
G01 X82.590049 Y124.547790 Z-0.125000
G02 X81.809253 Y124.549700 Z-0.125000 I-0.385684 J1.928418
G01 X81.447179 Y124.782230 Z-0.125000
G03 X80.212379 Y125.268426 Z-0.125000 I-1.001448 J-0.732276
G03 X79.241139 Y124.359760 Z-0.125000 I0.234398 J-1.223934
G01 X78.994187 Y124.018291 Z-0.125000
G02 X78.169789 Y123.666580 Z-0.125000 I-1.430473 J2.210945
G03 X77.493212 Y123.174088 Z-0.125000 I0.249057 J-1.053131
G03 X76.755309 Y121.331240 Z-0.125000 I5.208633 J-3.154770
G03 X76.701216 Y118.882786 Z-0.125000 I6.169600 J-1.361129
G01 X77.253799 Y118.477980 Z-0.125000
G03 X78.244981 Y118.631867 Z-0.125000 I-3.232337 J24.088395
G03 X80.484409 Y119.048120 Z-0.125000 I-21.715741 J123.062209
G01 X80.484409 Y119.048120 Z-0.125000
G00 Z5.000000

(End cutting path id: path821)


(Start cutting path id: path821)
(ZZZanette)
(Change tool to Default tool)

G00 Z5.000000
G00 X75.998719 Y133.838500

G01 Z-0.125000 F100.0(Penetrate)
G01 X75.872838 Y134.045779 Z-0.125000 F400.000000
G03 X75.379339 Y134.169230 Z-0.125000 I-0.493499 J-0.924664
G02 X74.103090 Y134.658897 Z-0.125000 I0.000000 J1.908017
G02 X73.613429 Y135.758210 Z-0.125000 I0.989176 J1.099313
G01 X73.711878 Y135.844300 Z-0.125000
G01 X73.944159 Y135.713710 Z-0.125000
G03 X75.094618 Y134.674469 Z-0.125000 I3.882179 J3.141234
G03 X75.902859 Y134.433810 Z-0.125000 I0.808241 J1.236888
G01 X76.127954 Y134.548232 Z-0.125000
G03 X76.337119 Y135.029120 Z-0.125000 I-0.970923 J0.708241
G01 X76.412217 Y135.068050 Z-0.125000
G01 X76.483759 Y134.962920 Z-0.125000
G02 X76.432320 Y134.323917 Z-0.125000 I-2.495198 J-0.120713
G02 X76.259249 Y133.904590 Z-0.125000 I-1.222929 J0.259368
G01 X76.080126 Y133.775960 Z-0.125000
G01 X75.998719 Y133.838490 Z-0.125000
G01 X75.998719 Y133.838500 Z-0.125000
G00 Z5.000000

(End cutting path id: path821)


(Start cutting path id: path821)
(ZZZanette)
(Change tool to Default tool)

G00 Z5.000000
G00 X79.391739 Y135.615870

G01 Z-0.125000 F100.0(Penetrate)
G01 X79.287077 Y135.664500 Z-0.125000 F400.000000
G03 X77.846749 Y135.810870 Z-0.125000 I-3.729669 J-29.541255
G02 X74.382220 Y137.162779 Z-0.125000 I0.491595 J6.375025
G02 X73.380249 Y139.328610 Z-0.125000 I1.628940 J2.068276
G01 X73.468067 Y139.361085 Z-0.125000
G01 X73.610479 Y139.079170 Z-0.125000
G03 X75.508190 Y136.878882 Z-0.125000 I2.863488 J0.551193
G03 X81.642779 Y136.259810 Z-0.125000 I4.348846 J12.389789
G03 X87.894195 Y137.835896 Z-0.125000 I-3.973771 J28.947538
G03 X90.014809 Y139.387370 Z-0.125000 I-1.698443 J4.546503
G02 X91.307761 Y140.354078 Z-0.125000 I2.436535 J-1.910813
G02 X92.645109 Y140.432700 Z-0.125000 I0.787475 J-1.981468
G03 X93.608566 Y140.436959 Z-0.125000 I0.473890 J1.775451
G03 X96.125799 Y141.394780 Z-0.125000 I-3.825708 J13.840932
G03 X98.603551 Y142.645874 Z-0.125000 I-60.805834 J123.503089
G03 X100.204050 Y143.505860 Z-0.125000 I-27.133721 J52.417250
G02 X101.796141 Y144.382220 Z-0.125000 I83.780578 J-150.320569
G02 X104.660150 Y145.928130 Z-0.125000 I263.535974 J-484.810355
G03 X107.853726 Y148.506691 Z-0.125000 I-5.208274 J9.717423
G03 X108.457550 Y150.397360 Z-0.125000 I-1.964440 J1.669141
G02 X108.473805 Y151.301507 Z-0.125000 I4.340076 J0.374194
G01 X108.571050 Y151.323400 Z-0.125000
G02 X108.842874 Y148.976018 Z-0.125000 I-2.295795 J-1.455280
G02 X107.009810 Y146.829950 Z-0.125000 I-3.662651 J1.272563
G03 X106.561472 Y146.446411 Z-0.125000 I0.648677 J-1.212082
G01 X106.525010 Y146.188060 Z-0.125000
G01 X106.467852 Y146.030920 Z-0.125000
G01 X106.175360 Y145.994060 Z-0.125000
G01 X105.724417 Y145.972606 Z-0.125000
G03 X104.409210 Y145.347640 Z-0.125000 I2.702396 J-7.383419
G02 X100.249687 Y142.950226 Z-0.125000 I-90.970419 J153.026944
G02 X96.399319 Y140.873790 Z-0.125000 I-72.072449 J129.036961
G02 X94.392684 Y140.077251 Z-0.125000 I-4.898199 J9.413685
G02 X92.796169 Y139.853370 Z-0.125000 I-1.612307 J5.693118
G03 X91.270719 Y139.581203 Z-0.125000 I0.011650 J-4.476319
G03 X90.417819 Y138.983970 Z-0.125000 I0.694416 J-1.899311
G02 X88.011358 Y137.352402 Z-0.125000 I-4.089195 J3.440836
G02 X80.317779 Y135.633360 Z-0.125000 I-12.371214 J37.291562
G02 X79.495525 Y135.576452 Z-0.125000 I-0.975824 J8.130809
G01 X79.391739 Y135.615860 Z-0.125000
G01 X79.391739 Y135.615870 Z-0.125000
G00 Z5.000000

(End cutting path id: path821)


(Start cutting path id: path821)
(ZZZanette)
(Change tool to Default tool)

G00 Z5.000000
G00 X81.473479 Y139.887510

G01 Z-0.125000 F100.0(Penetrate)
G02 X79.027136 Y141.359816 Z-0.125000 I1.739015 J5.658039 F400.000000
G02 X77.988809 Y143.371870 Z-0.125000 I2.631915 J2.632152
G02 X79.187941 Y148.234264 Z-0.125000 I6.206197 J1.048526
G02 X85.978289 Y153.860920 Z-0.125000 I15.525429 J-11.825678
G02 X89.822084 Y155.293076 Z-0.125000 I8.563590 J-17.109705
G02 X93.331949 Y155.732780 Z-0.125000 I3.509865 J-13.788613
G02 X95.932234 Y155.515579 Z-0.125000 I-0.000000 J-15.673602
G02 X97.273369 Y155.069680 Z-0.125000 I-0.762778 J-4.534042
G02 X99.029081 Y153.439862 Z-0.125000 I-2.033131 J-3.950753
G02 X99.674877 Y151.149310 Z-0.125000 I-3.739244 J-2.290552
G02 X99.521069 Y149.417640 Z-0.125000 I-9.825035 J0.000000
G02 X99.169077 Y148.324440 Z-0.125000 I-4.220739 J0.755740
G02 X96.214040 Y144.426046 Z-0.125000 I-10.957824 J5.237007
G02 X91.423516 Y141.272678 Z-0.125000 I-13.810466 J15.765026
G02 X85.969407 Y139.574000 Z-0.125000 I-8.627041 J18.094324
G02 X81.473479 Y139.887510 Z-0.125000 I-1.574150 J9.819674
G01 X81.473479 Y139.887510 Z-0.125000
G00 Z5.000000

(End cutting path id: path821)


(Start cutting path id: path821)
(ZZZanette)
(Change tool to Default tool)

G00 Z5.000000
G00 X81.340809 Y141.082030

G01 Z-0.125000 F100.0(Penetrate)
G02 X79.742717 Y142.512464 Z-0.125000 I1.780586 J3.597202 F400.000000
G02 X79.169679 Y144.467520 Z-0.125000 I3.048552 J1.955056
G02 X79.594322 Y146.637252 Z-0.125000 I5.755488 J-0.000000
G02 X81.035649 Y149.052050 Z-0.125000 I8.625099 J-3.510542
G02 X81.860213 Y149.553038 Z-0.125000 I1.131564 J-0.933354
G01 X82.142159 Y149.288880 Z-0.125000
G03 X82.239242 Y148.616407 Z-0.125000 I1.179136 J-0.173016
G03 X82.752839 Y147.965960 Z-0.125000 I1.609620 J0.742973
G03 X83.993831 Y147.518055 Z-0.125000 I1.295971 J1.647556
G03 X84.970729 Y147.907760 Z-0.125000 I0.034940 J1.331692
G01 X85.207267 Y148.485929 Z-0.125000
G03 X84.950929 Y150.181030 Z-0.125000 I-6.083067 J-0.052968
G02 X84.519030 Y151.920390 Z-0.125000 I17.858172 J5.357654
G01 X84.572209 Y152.095370 Z-0.125000
G01 X84.725856 Y152.120700 Z-0.125000
G02 X85.268949 Y151.751460 Z-0.125000 I-1.053129 J-2.133003
G01 X86.170112 Y151.629212 Z-0.125000
G03 X86.794009 Y152.518300 Z-0.125000 I-0.515479 J1.025172
G02 X86.946855 Y153.137405 Z-0.125000 I2.579942 J-0.308522
G01 X87.058599 Y153.210370 Z-0.125000
G01 X87.198252 Y153.133612 Z-0.125000
G02 X88.041529 Y151.821310 Z-0.125000 I-14.237906 J-10.076283
G03 X89.373134 Y150.800304 Z-0.125000 I1.906898 J1.108145
G03 X90.811329 Y151.072920 Z-0.125000 I0.437801 J1.620296
G03 X91.388656 Y152.042279 Z-0.125000 I-0.873597 J1.176893
G03 X91.218499 Y153.919550 Z-0.125000 I-4.049820 J0.579269
G01 X91.329406 Y154.307072 Z-0.125000
G02 X92.131799 Y154.674010 Z-0.125000 I1.086590 J-1.315299
G02 X96.086078 Y154.266433 Z-0.125000 I1.241017 J-7.345595
G02 X98.219637 Y152.293220 Z-0.125000 I-1.450097 J-3.708008
G02 X98.590991 Y150.567475 Z-0.125000 I-3.357358 J-1.625280
G02 X98.119837 Y148.589000 Z-0.125000 I-4.949594 J0.133360
G02 X96.365287 Y146.395159 Z-0.125000 I-5.480317 J2.584416
G01 X95.683679 Y146.689450 Z-0.125000
G02 X95.655075 Y147.001556 Z-0.125000 I72.958402 J6.843968
G02 X95.614179 Y147.464530 Z-0.125000 I200.932961 J17.982195
G01 X94.988907 Y147.935626 Z-0.125000
G03 X93.323009 Y147.017650 Z-0.125000 I0.594927 J-3.050227
G02 X92.408508 Y146.304149 Z-0.125000 I-2.784548 J2.626168
G01 X91.942149 Y146.244440 Z-0.125000
G01 X91.035541 Y145.976352 Z-0.125000
G03 X90.546799 Y144.716250 Z-0.125000 I1.380060 J-1.260102
G02 X90.466449 Y143.944156 Z-0.125000 I-3.749729 J-0.000000
G02 X90.272079 Y143.410690 Z-0.125000 I-1.962772 J0.412998
G01 X89.912151 Y143.171744 Z-0.125000
G02 X89.197829 Y143.310790 Z-0.125000 I-0.119846 J1.288680
G03 X87.159894 Y143.681506 Z-0.125000 I-1.623933 J-3.140317
G03 X86.181179 Y142.955080 Z-0.125000 I0.143343 J-1.215652
G01 X85.789695 Y142.579831 Z-0.125000
G02 X84.990549 Y142.494870 Z-0.125000 I-0.557408 J1.442110
G03 X83.810547 Y142.194102 Z-0.125000 I-0.240743 J-1.520626
G01 X83.490299 Y141.339720 Z-0.125000
G01 X83.403585 Y140.724890 Z-0.125000
G01 X83.065709 Y140.519400 Z-0.125000
G02 X82.498105 Y140.609734 Z-0.125000 I0.000679 J1.832668
G02 X81.340849 Y141.081990 Z-0.125000 I2.687443 J8.239589
G01 X81.340809 Y141.082030 Z-0.125000
G00 Z5.000000

(End cutting path id: path821)


(Start cutting path id: path821)
(ZZZanette)
(Change tool to Default tool)

G00 Z5.000000
G00 X82.873839 Y141.577570

G01 Z-0.125000 F100.0(Penetrate)
G02 X83.442275 Y142.702599 Z-0.125000 I1.397527 J0.000000 F400.000000
G02 X84.831559 Y143.020320 Z-0.125000 I1.059879 J-1.438194
G03 X85.567341 Y143.081735 Z-0.125000 I0.256384 J1.366610
G01 X85.851869 Y143.395050 Z-0.125000
G01 X86.528017 Y144.053225 Z-0.125000
G02 X88.539429 Y144.021050 Z-0.125000 I0.941318 J-4.041233
G03 X89.653131 Y144.101002 Z-0.125000 I0.441085 J1.652547
G01 X90.017589 Y144.653280 Z-0.125000
G02 X90.288002 Y145.921531 Z-0.125000 I3.109287 J0.000000
G02 X90.917099 Y146.666740 Z-0.125000 I1.605617 J-0.717300
G01 X91.228410 Y146.795225 Z-0.125000
G02 X91.926509 Y146.865180 Z-0.125000 I0.719144 J-3.658320
G03 X92.549935 Y147.026748 Z-0.125000 I-0.008703 J1.317139
G01 X92.939529 Y147.419930 Z-0.125000
G02 X93.987740 Y148.403385 Z-0.125000 I1.979307 J-1.059293
G02 X95.355719 Y148.521250 Z-0.125000 I0.849680 J-1.864128
G01 X95.776099 Y148.289493 Z-0.125000
G02 X96.202759 Y147.729120 Z-0.125000 I-1.437366 J-1.537004
G01 X96.549209 Y147.067900 Z-0.125000
G01 X97.155079 Y147.918780 Z-0.125000
G03 X97.922775 Y149.725010 Z-0.125000 I-3.714752 J2.645129
G03 X97.862639 Y151.699490 Z-0.125000 I-4.540979 J0.849854
G03 X96.541748 Y153.413701 Z-0.125000 I-2.629113 J-0.659859
G03 X93.184109 Y154.277570 Z-0.125000 I-3.357639 J-6.093206
G01 X91.863419 Y154.277570 Z-0.125000
G01 X92.031989 Y153.223390 Z-0.125000
G02 X91.704389 Y151.612251 Z-0.125000 I-2.309385 J-0.369298
G02 X90.195399 Y150.292460 Z-0.125000 I-2.946527 J1.846376
G02 X88.667806 Y149.859954 Z-0.125000 I-2.191807 J4.827414
G01 X88.430089 Y150.069540 Z-0.125000
G01 X88.364740 Y150.338525 Z-0.125000
G03 X87.885419 Y151.124330 Z-0.125000 I-5.759302 J-2.973938
G01 X87.340759 Y151.889240 Z-0.125000
G01 X86.587659 Y151.332450 Z-0.125000
G02 X85.827688 Y150.941254 Z-0.125000 I-1.582430 J2.140371
G01 X85.503539 Y150.980250 Z-0.125000
G01 X85.293361 Y150.853034 Z-0.125000
G03 X85.655579 Y148.852280 Z-0.125000 I9.428173 J0.673720
G02 X85.372575 Y147.724394 Z-0.125000 I-1.098057 J-0.323929
G02 X83.960509 Y147.133820 Z-0.125000 I-1.412066 J1.392843
G02 X82.370861 Y147.689189 Z-0.125000 I-0.000000 J2.552729
G02 X81.815499 Y148.840970 Z-0.125000 I0.916673 J1.151781
G01 X81.147124 Y149.037008 Z-0.125000
G03 X79.697009 Y145.540260 Z-0.125000 I9.021824 J-5.790443
G03 X79.567430 Y144.096193 Z-0.125000 I5.629166 J-1.232962
G03 X79.786509 Y143.098650 Z-0.125000 I2.857609 J0.104755
G03 X81.827702 Y140.926802 Z-0.125000 I3.917775 J1.636965
G01 X82.873799 Y141.577570 Z-0.125000
G01 X82.873839 Y141.577570 Z-0.125000
G00 Z5.000000

(End cutting path id: path821)


(Start cutting path id: path821)
(ZZZanette)
(Change tool to Default tool)

G00 Z5.000000
G00 X88.593529 Y140.749800

G01 Z-0.125000 F100.0(Penetrate)
G03 X95.242504 Y144.247162 Z-0.125000 I-6.620257 J20.655032 F400.000000
G03 X98.715967 Y148.578190 Z-0.125000 I-7.246488 J9.370011
G03 X99.194559 Y152.108093 Z-0.125000 I-5.373846 J2.525994
G03 X97.708099 Y154.453780 Z-0.125000 I-3.556819 J-0.610126
G03 X95.982430 Y155.256672 Z-0.125000 I-3.126271 J-4.463396
G03 X93.408329 Y155.597340 Z-0.125000 I-2.606767 J-9.801494
G03 X87.638751 Y154.439988 Z-0.125000 I-0.047294 J-14.724031
G03 X81.927539 Y150.754820 Z-0.125000 I7.634158 J-18.099444
G03 X79.321244 Y147.534244 Z-0.125000 I9.839697 J-10.627788
G03 X78.455869 Y144.921540 Z-0.125000 I5.492609 J-3.268917
G03 X79.286954 Y141.960932 Z-0.125000 I4.159583 J-0.429298
G03 X82.028379 Y140.223940 Z-0.125000 I3.707472 J2.819519
G03 X84.970072 Y140.033931 Z-0.125000 I2.124112 J10.018776
G03 X88.593529 Y140.749800 Z-0.125000 I-1.283270 J16.023644
G01 X88.593529 Y140.749800 Z-0.125000
G00 Z5.000000

(End cutting path id: path821)


(Start cutting path id: path821)
(ZZZanette)
(Change tool to Default tool)

G00 Z5.000000
G00 X70.350549 Y148.739270

G01 Z-0.125000 F100.0(Penetrate)
G01 X70.467984 Y149.066491 Z-0.125000 F400.000000
G03 X70.143109 Y150.888060 Z-0.125000 I-11.486157 J-1.108792
G02 X69.749917 Y152.739838 Z-0.125000 I19.272060 J5.059707
G01 X69.799929 Y152.991800 Z-0.125000
G02 X70.521362 Y153.603516 Z-0.125000 I1.302761 J-0.805151
G02 X75.465499 Y155.316340 Z-0.125000 I17.790007 J-43.359446
G03 X83.077066 Y157.835100 Z-0.125000 I-26.214401 J91.978866
G03 X90.031479 Y160.823920 Z-0.125000 I-30.150926 J79.740659
G02 X95.452627 Y163.414322 Z-0.125000 I286.969533 J-593.597028
G02 X96.309919 Y163.788880 Z-0.125000 I6.821497 J-14.444732
G03 X97.040120 Y164.160584 Z-0.125000 I-1.736014 J4.313423
G01 X97.028431 Y164.223673 Z-0.125000
G01 X96.809636 Y164.224463 Z-0.125000
G03 X95.554169 Y163.936350 Z-0.125000 I2.962344 J-15.787997
G03 X69.285604 Y155.837732 Z-0.125000 I108.176332 J-397.530762
G03 X66.486809 Y153.901330 Z-0.125000 I2.060887 J-5.969551
G01 X66.477062 Y153.234386 Z-0.125000
G03 X67.502049 Y152.602650 Z-0.125000 I1.364682 J1.066802
G02 X68.211185 Y152.364028 Z-0.125000 I-0.579212 J-2.894321
G02 X68.676759 Y152.032670 Z-0.125000 I-0.750838 J-1.547717
G02 X69.341127 Y150.947775 Z-0.125000 I-1.924229 J-1.924229
G02 X69.643189 Y149.052050 Z-0.125000 I-5.893889 J-1.911052
G01 X69.902199 Y148.655611 Z-0.125000
G01 X70.350549 Y148.739270 Z-0.125000
G01 X70.350549 Y148.739270 Z-0.125000
G00 Z5.000000

(End cutting path id: path821)


(Start cutting path id: path821)
(ZZZanette)
(Change tool to Default tool)

G00 Z5.000000
G00 X70.967589 Y152.564220

G01 Z-0.125000 F100.0(Penetrate)
G02 X76.466856 Y154.723581 Z-0.125000 I9.776186 J-16.814913 F400.000000
G02 X83.069299 Y155.292030 Z-0.125000 I5.381055 J-23.872699
G01 X84.838619 Y155.203630 Z-0.125000
G01 X85.843879 Y156.295100 Z-0.125000
G02 X88.349983 Y158.393292 Z-0.125000 I9.311490 J-8.575995
G02 X93.071095 Y161.038770 Z-0.125000 I25.614212 J-40.175661
G02 X98.092578 Y163.118674 Z-0.125000 I19.469737 J-39.903906
G02 X100.620820 Y163.504990 Z-0.125000 I2.326714 J-6.760976
G01 X101.791550 Y163.471990 Z-0.125000
G01 X100.468630 Y163.268960 Z-0.125000
G03 X96.779153 Y162.232021 Z-0.125000 I2.394159 J-15.600668
G03 X91.606260 Y159.711599 Z-0.125000 I19.233020 J-46.042284
G03 X86.755522 Y156.533020 Z-0.125000 I20.571525 J-36.684187
G03 X85.502669 Y154.876440 Z-0.125000 I2.318159 J-3.055248
G01 X85.157471 Y154.540658 Z-0.125000
G01 X84.584309 Y154.545720 Z-0.125000
G03 X80.647145 Y154.978791 Z-0.125000 I-2.803475 J-7.373690
G03 X72.025929 Y152.722000 Z-0.125000 I5.738830 J-39.518465
G02 X70.761124 Y152.257672 Z-0.125000 I-15.139272 J39.283826
G02 X70.515913 Y152.197170 Z-0.125000 I-0.443711 J1.271163
G01 X70.496767 Y152.240933 Z-0.125000
G02 X70.967589 Y152.564240 Z-0.125000 I2.383713 J-2.966851
G01 X70.967589 Y152.564220 Z-0.125000
G00 Z5.000000

(End cutting path id: path821)


(Start cutting path id: path821)
(ZZZanette)
(Change tool to Default tool)

G00 Z5.000000
G00 X69.973159 Y161.171250

G01 Z-0.125000 F100.0(Penetrate)
G02 X72.193271 Y163.037727 Z-0.125000 I3.905553 J-2.391912 F400.000000
G02 X80.294159 Y165.256229 Z-0.125000 I14.133646 J-35.709687
G03 X81.154913 Y165.525481 Z-0.125000 I-0.488819 J3.073138
G01 X81.284249 Y165.732778 Z-0.125000
G03 X81.253250 Y166.048397 Z-0.125000 I-1.722251 J-0.009824
G03 X80.612239 Y169.226524 Z-0.125000 I-178.448679 J-34.338400
G02 X79.948092 Y172.402684 Z-0.125000 I876.388385 J184.913558
G02 X79.789849 Y173.195274 Z-0.125000 I54.506071 J11.294411
G03 X78.541583 Y177.841875 Z-0.125000 I-32.541424 J-6.250981
G03 X77.348159 Y180.206735 Z-0.125000 I-9.485240 J-3.303156
G02 X75.245709 Y188.021042 Z-0.125000 I10.107958 J6.909548
G02 X78.294859 Y192.983209 Z-0.125000 I6.324975 J-0.468664
G02 X82.538656 Y194.643959 Z-0.125000 I6.966630 J-11.549606
G02 X86.896379 Y194.756097 Z-0.125000 I2.491347 J-12.087258
G02 X91.660825 Y193.648921 Z-0.125000 I-4.838363 J-31.625515
G02 X94.124389 Y192.481752 Z-0.125000 I-2.982657 J-9.479073
G03 X95.447830 Y192.097596 Z-0.125000 I1.288123 J1.965916
G03 X96.917759 Y192.523732 Z-0.125000 I-0.043560 J2.898538
G02 X97.822010 Y192.837590 Z-0.125000 I1.169932 J-1.911132
G02 X101.324210 Y193.126160 Z-0.125000 I5.687915 J-47.634393
G02 X104.821129 Y193.161435 Z-0.125000 I2.245213 J-49.227473
G02 X105.955870 Y192.935950 Z-0.125000 I-0.086470 J-3.403164
G02 X108.070929 Y191.564244 Z-0.125000 I-2.185111 J-5.685740
G02 X109.213520 Y189.688777 Z-0.125000 I-3.263461 J-3.273983
G01 X109.571059 Y189.521831 Z-0.125000
G01 X109.861340 Y189.954895 Z-0.125000
G03 X109.591424 Y191.554761 Z-0.125000 I-4.876375 J-0.000000
G03 X108.008790 Y195.288890 Z-0.125000 I-28.782620 J-9.996473
G03 X106.933876 Y197.347002 Z-0.125000 I-74.893343 J-37.805656
G03 X106.445581 Y197.846461 Z-0.125000 I-1.116071 J-0.602706
G03 X105.781614 Y197.974266 Z-0.125000 I-0.520023 J-0.912984
G03 X103.835470 Y197.665959 Z-0.125000 I6.857803 J-49.585384
G02 X101.257762 Y197.235436 Z-0.125000 I-20.328757 J113.783985
G02 X97.789959 Y196.726376 Z-0.125000 I-31.926902 J205.425345
G01 X94.317539 Y196.246504 Z-0.125000
G01 X91.836839 Y196.845761 Z-0.125000
G02 X88.388317 Y197.763340 Z-0.125000 I18.198571 J75.334427
G02 X80.285909 Y200.205810 Z-0.125000 I121.734741 J418.491092
G01 X79.153189 Y200.559302 Z-0.125000
G01 X78.449169 Y199.048121 Z-0.125000
G02 X75.908804 Y194.463846 Z-0.125000 I-33.940504 J15.812040
G01 X75.439379 Y194.414534 Z-0.125000
G02 X75.132674 Y195.101109 Z-0.125000 I0.744236 J0.744256
G02 X74.643579 Y208.914026 Z-0.125000 I355.041964 J19.486620
G03 X74.249205 Y211.419598 Z-0.125000 I-9.076169 J-0.144754
G01 X73.863929 Y211.468029 Z-0.125000
G03 X72.239031 Y207.455945 Z-0.125000 I11.495377 J-6.990724
G03 X69.920359 Y194.097359 Z-0.125000 I128.718221 J-29.222356
G03 X69.245747 Y186.058317 Z-0.125000 I108.971865 J-13.192409
G03 X68.866540 Y173.830054 Z-0.125000 I382.761057 J-17.989706
G03 X68.960692 Y161.070548 Z-0.125000 I284.617558 J-4.279916
G01 X69.417069 Y160.627570 Z-0.125000
G01 X69.598695 Y160.701600 Z-0.125000
G03 X69.973159 Y161.171250 Z-0.125000 I-1.702786 J1.741786
G01 X69.973159 Y161.171250 Z-0.125000
G00 Z5.000000

(End cutting path id: path821)


(Start cutting path id: path821)
(ZZZanette)
(Change tool to Default tool)

G00 Z5.000000
G00 X77.846749 Y159.412370

G01 Z-0.125000 F100.0(Penetrate)
G03 X78.758819 Y159.569385 Z-0.125000 I-0.589340 J6.150871 F400.000000
G03 X80.889469 Y160.174550 Z-0.125000 I-8.599028 J34.328623
G02 X83.007117 Y160.844860 Z-0.125000 I226.820517 J-712.892432
G02 X85.635059 Y161.668960 Z-0.125000 I346.539814 J-1100.466298
G03 X88.235577 Y162.534760 Z-0.125000 I-21.839935 J69.936839
G01 X88.413179 Y162.651980 Z-0.125000
G01 X88.214951 Y163.065805 Z-0.125000
G03 X79.566549 Y162.060580 Z-0.125000 I5.933151 J-88.751192
G03 X75.317181 Y161.007016 Z-0.125000 I4.583988 J-27.585056
G03 X73.547279 Y160.056540 Z-0.125000 I1.860046 J-5.586756
G02 X72.654121 Y159.483031 Z-0.125000 I-3.506814 J4.479119
G01 X72.555089 Y159.543300 Z-0.125000
G01 X72.878727 Y160.182165 Z-0.125000
G02 X75.200929 Y161.484580 Z-0.125000 I6.478534 J-8.829760
G02 X79.795123 Y162.717394 Z-0.125000 I7.120159 J-17.357176
G02 X87.504049 Y163.156310 Z-0.125000 I6.655975 J-48.985035
G03 X92.117644 Y163.490019 Z-0.125000 I0.527948 J24.759782
G03 X94.495169 Y164.325610 Z-0.125000 I-1.212890 J7.251272
G01 X94.458011 Y164.561328 Z-0.125000
G03 X90.645649 Y165.096008 Z-0.125000 I-6.496230 J-32.460531
G03 X81.346615 Y164.934139 Z-0.125000 I-3.831088 J-47.097949
G03 X74.038539 Y163.161320 Z-0.125000 I3.574846 J-30.685970
G03 X69.829778 Y160.729296 Z-0.125000 I5.244873 J-13.934330
G03 X69.483279 Y159.417390 Z-0.125000 I0.736636 J-0.896271
G01 X69.777665 Y159.200036 Z-0.125000
G03 X73.282679 Y159.160260 Z-0.125000 I2.105868 J31.117527
G03 X76.919410 Y159.342341 Z-0.125000 I-15.769613 J351.377888
G03 X77.846749 Y159.412370 Z-0.125000 I-1.271973 J23.018834
G01 X77.846749 Y159.412370 Z-0.125000
G00 Z5.000000

(End cutting path id: path821)


(Start cutting path id: path821)
(ZZZanette)
(Change tool to Default tool)

G00 Z5.000000
G00 X87.371749 Y172.282372

G01 Z-0.125000 F100.0(Penetrate)
G02 X88.567195 Y174.638858 Z-0.125000 I2.920298 J0.000000 F400.000000
G02 X92.172869 Y175.796589 Z-0.125000 I3.542817 J-4.840182
G02 X95.588139 Y175.332353 Z-0.125000 I-0.145331 J-13.863922
G02 X98.418107 Y174.137072 Z-0.125000 I-2.828526 J-10.644653
G02 X99.424592 Y173.358548 Z-0.125000 I-2.757281 J-4.604504
G01 X99.383276 Y173.107524 Z-0.125000
G02 X98.873212 Y172.985464 Z-0.125000 I-0.533086 J1.100912
G02 X96.089479 Y173.009505 Z-0.125000 I-0.954213 J50.689332
G03 X90.718081 Y172.653639 Z-0.125000 I-0.951580 J-26.352549
G03 X88.389249 Y171.700352 Z-0.125000 I0.965790 J-5.680627
G01 X87.726472 Y171.670813 Z-0.125000
G01 X87.371749 Y172.282372 Z-0.125000
G01 X87.371749 Y172.282372 Z-0.125000
G00 Z5.000000

(End cutting path id: path821)


(Start cutting path id: path821)
(ZZZanette)
(Change tool to Default tool)

G00 Z5.000000
G00 X90.430439 Y172.946907

G01 Z-0.125000 F100.0(Penetrate)
G02 X91.759450 Y173.239162 Z-0.125000 I2.229857 J-6.972208 F400.000000
G02 X94.717339 Y173.478518 Z-0.125000 I4.284465 J-34.550106
G03 X97.697245 Y173.593629 Z-0.125000 I-114.788675 J3010.198478
G03 X97.892349 Y173.602743 Z-0.125000 I-0.503906 J12.879488
G01 X97.932153 Y173.823968 Z-0.125000
G03 X94.804109 Y174.946030 Z-0.125000 I-10.068382 J-23.147113
G03 X91.214773 Y175.452900 Z-0.125000 I-3.616114 J-12.644895
G03 X89.233819 Y174.957380 Z-0.125000 I-0.008498 J-4.173444
G03 X88.325240 Y174.353630 Z-0.125000 I2.739723 J-5.108520
G01 X88.259114 Y174.172366 Z-0.125000
G01 X88.389143 Y174.051527 Z-0.125000
G03 X89.410629 Y174.040306 Z-0.125000 I0.563356 J4.783896
G02 X90.289829 Y173.997864 Z-0.125000 I0.292719 J-3.063898
G01 X90.322568 Y173.900687 Z-0.125000
G01 X90.103457 Y173.755667 Z-0.125000
G02 X88.880099 Y173.446499 Z-0.125000 I-2.535749 J7.458849
G03 X87.867565 Y172.877880 Z-0.125000 I0.286555 J-1.696080
G01 X87.735559 Y172.127733 Z-0.125000
G01 X87.970214 Y171.965899 Z-0.125000
G01 X88.507449 Y172.125333 Z-0.125000
G02 X89.151411 Y172.470404 Z-0.125000 I2.274616 J-3.471415
G02 X90.430439 Y172.946965 Z-0.125000 I5.691924 J-13.321741
G01 X90.430439 Y172.946907 Z-0.125000
G00 Z5.000000

(End cutting path id: path821)


(Start cutting path id: path821)
(ZZZanette)
(Change tool to Default tool)

G00 Z5.000000
G00 X95.838429 Y170.583344

G01 Z-0.125000 F100.0(Penetrate)
G03 X94.560942 Y170.914197 Z-0.125000 I-1.244076 J-2.171877 F400.000000
G03 X92.795719 Y170.542724 Z-0.125000 I0.062431 J-4.676532
G01 X92.623195 Y170.586268 Z-0.125000
G01 X92.623869 Y170.757486 Z-0.125000
G02 X93.759034 Y171.381090 Z-0.125000 I1.335413 J-1.085903
G02 X95.663359 Y171.113530 Z-0.125000 I0.441456 J-3.768676
G02 X96.524988 Y170.637349 Z-0.125000 I-1.742780 J-4.171114
G01 X96.632179 Y170.430651 Z-0.125000
G01 X96.601987 Y170.196809 Z-0.125000
G01 X96.565979 Y170.178509 Z-0.125000
G01 X96.501862 Y170.208740 Z-0.125000
G02 X95.838379 Y170.583345 Z-0.125000 I29.820687 J53.591785
G01 X95.838429 Y170.583344 Z-0.125000
G00 Z5.000000

(End cutting path id: path821)


(Start cutting path id: path821)
(ZZZanette)
(Change tool to Default tool)

G00 Z5.000000
G00 X98.167857 Y165.216258

G01 Z-0.125000 F100.0(Penetrate)
G02 X103.153304 Y166.448279 Z-0.125000 I31.914716 J-118.441865 F400.000000
G02 X105.406500 Y166.845121 Z-0.125000 I5.345278 J-23.754458
G01 X106.640190 Y167.003069 Z-0.125000
G01 X106.823890 Y168.379381 Z-0.125000
G02 X107.461235 Y171.979499 Z-0.125000 I42.618752 J-5.688514
G02 X108.930230 Y177.899288 Z-0.125000 I116.834902 J-25.850408
G03 X109.630035 Y181.311644 Z-0.125000 I-25.288661 J6.964129
G03 X109.861340 Y184.712309 Z-0.125000 I-24.882802 J3.400665
G03 X109.793101 Y187.118627 Z-0.125000 I-42.460983 J-0.000000
G03 X109.688116 Y187.871073 Z-0.125000 I-4.634360 J-0.263058
G01 X109.511042 Y187.936533 Z-0.125000
G01 X109.232330 Y187.517850 Z-0.125000
G02 X107.384054 Y185.351233 Z-0.125000 I-3.108643 J0.780228
G02 X103.226040 Y184.948963 Z-0.125000 I-2.711897 J6.340646
G02 X101.147216 Y185.697411 Z-0.125000 I1.729701 J8.065471
G02 X99.218817 Y187.034721 Z-0.125000 I4.296596 J8.254714
G01 X98.132897 Y188.011942 Z-0.125000
G01 X98.309207 Y187.085902 Z-0.125000
G03 X98.506826 Y186.164583 Z-0.125000 I20.038193 J3.816252
G03 X99.225337 Y183.249441 Z-0.125000 I200.962272 J47.986157
G01 X99.965147 Y180.339024 Z-0.125000
G01 X101.275210 Y180.174133 Z-0.125000
G02 X106.592563 Y178.343130 Z-0.125000 I-1.713200 J-13.611722
G02 X107.744360 Y176.313439 Z-0.125000 I-1.210690 J-2.028688
G02 X107.017794 Y170.714438 Z-0.125000 I-22.002754 J0.008590
G02 X105.634330 Y168.306798 Z-0.125000 I-5.148005 J1.356818
G01 X104.967771 Y168.054777 Z-0.125000
G02 X101.130090 Y168.588405 Z-0.125000 I1.597872 J25.557865
G03 X98.328181 Y168.988211 Z-0.125000 I-4.166639 J-19.182507
G03 X90.324409 Y169.341475 Z-0.125000 I-10.935054 J-156.905418
G02 X83.847644 Y169.515172 Z-0.125000 I7.385900 J396.241319
G02 X82.326325 Y169.810880 Z-0.125000 I0.173361 J4.953077
G02 X81.513755 Y170.699822 Z-0.125000 I0.444814 J1.222450
G02 X81.161679 Y172.675524 Z-0.125000 I11.710176 J3.106007
G02 X81.042439 Y174.664794 Z-0.125000 I29.559740 J2.770073
G01 X81.105179 Y174.822131 Z-0.125000
G01 X81.181105 Y174.797946 Z-0.125000
G02 X81.426229 Y172.940105 Z-0.125000 I-24.476550 J-4.174530
G03 X81.778468 Y170.954641 Z-0.125000 I12.233748 J1.146396
G03 X82.588750 Y170.076336 Z-0.125000 I1.233633 J0.325175
G03 X84.106058 Y169.800763 Z-0.125000 I1.620176 J4.605762
G03 X90.589539 Y169.716710 Z-0.125000 I8.425447 J399.806287
G02 X98.595630 Y169.481685 Z-0.125000 I-0.794332 J-163.539633
G02 X101.130060 Y169.148678 Z-0.125000 I-0.896327 J-16.632649
G03 X103.630538 Y168.666476 Z-0.125000 I15.477738 J73.536212
G01 X103.723240 Y168.694032 Z-0.125000
G01 X103.767433 Y168.785040 Z-0.125000
G03 X103.952880 Y171.397674 Z-0.125000 I-94.062680 J7.989553
G03 X103.790992 Y174.306148 Z-0.125000 I-12.942131 J0.738371
G03 X103.022737 Y175.577779 Z-0.125000 I-1.998137 J-0.339286
G03 X101.521718 Y176.230531 Z-0.125000 I-2.073527 J-2.715934
G03 X96.896729 Y176.784813 Z-0.125000 I-7.956396 J-46.816208
G02 X93.327721 Y177.066950 Z-0.125000 I14.470944 J205.771323
G02 X91.045899 Y177.298454 Z-0.125000 I7.404830 J84.346815
G03 X84.873222 Y177.596602 Z-0.125000 I-5.328401 J-46.269188
G03 X82.259479 Y177.139156 Z-0.125000 I0.155652 J-8.585246
G03 X81.281810 Y176.531256 Z-0.125000 I0.821774 J-2.411767
G01 X81.021719 Y175.904430 Z-0.125000
G02 X80.930024 Y175.338109 Z-0.125000 I-1.794689 J0.000000
G01 X80.854274 Y175.340819 Z-0.125000
G02 X80.743569 Y175.922349 Z-0.125000 I4.673557 J1.191000
G02 X80.573909 Y177.661655 Z-0.125000 I29.415394 J3.747244
G01 X80.419389 Y179.938580 Z-0.125000
G01 X81.394509 Y180.346009 Z-0.125000
G02 X82.400470 Y180.625318 Z-0.125000 I1.614860 J-3.864903
G02 X86.127449 Y181.041411 Z-0.125000 I7.856547 J-53.472214
G03 X89.833872 Y181.765387 Z-0.125000 I-1.242033 J16.208205
G01 X90.278089 Y182.367873 Z-0.125000
G02 X90.342079 Y182.799256 Z-0.125000 I1.573470 J-0.012964
G02 X91.426479 Y186.270477 Z-0.125000 I105.678963 J-31.108845
G03 X92.470593 Y189.659306 Z-0.125000 I-82.417081 J27.248361
G01 X92.415969 Y189.731734 Z-0.125000
G01 X92.278375 Y189.686769 Z-0.125000
G03 X91.602349 Y189.136421 Z-0.125000 I4.993199 J-6.823822
G02 X86.714230 Y186.540250 Z-0.125000 I-7.600368 J8.410306
G02 X80.630419 Y186.432688 Z-0.125000 I-3.278044 J13.302512
G02 X78.890620 Y186.956054 Z-0.125000 I2.166808 J10.356455
G02 X78.165259 Y187.412067 Z-0.125000 I0.868872 J2.186986
G02 X77.054895 Y189.030119 Z-0.125000 I2.978557 J3.234001
G02 X76.960089 Y190.461566 Z-0.125000 I2.185189 J0.863590
G01 X76.667716 Y190.611956 Z-0.125000
G03 X75.846939 Y189.156154 Z-0.125000 I3.320146 J-2.831165
G03 X75.637548 Y185.114600 Z-0.125000 I7.227652 J-2.400662
G03 X77.736389 Y180.592823 Z-0.125000 I11.284215 J2.489723
G02 X78.792201 Y178.461354 Z-0.125000 I-4.952946 J-3.780645
G02 X81.166089 Y168.096737 Z-0.125000 I-120.071334 J-32.955027
G03 X81.680692 Y165.691642 Z-0.125000 I42.674367 J7.873159
G01 X81.783179 Y165.565529 Z-0.125000
G01 X81.955761 Y165.529788 Z-0.125000
G03 X84.196729 Y165.654229 Z-0.125000 I-2.237528 J60.534321
G02 X89.272874 Y165.675795 Z-0.125000 I2.691968 J-36.213709
G02 X93.854019 Y165.018809 Z-0.125000 I-1.981774 J-30.119473
G03 X95.442579 Y164.670683 Z-0.125000 I51.423462 J230.855490
G03 X95.654289 Y164.630770 Z-0.125000 I0.874421 J4.056780
G01 X95.864908 Y164.638010 Z-0.125000
G03 X98.167827 Y165.216299 Z-0.125000 I-15.680824 J67.320288
G01 X98.167857 Y165.216258 Z-0.125000
G00 Z5.000000

(End cutting path id: path821)


(Start cutting path id: path821)
(ZZZanette)
(Change tool to Default tool)

G00 Z5.000000
G00 X104.995770 Y168.502971

G01 Z-0.125000 F100.0(Penetrate)
G03 X106.380041 Y170.465785 Z-0.125000 I-1.822718 J2.755003 F400.000000
G03 X106.906460 Y176.237982 Z-0.125000 I-18.675972 J4.613334
G03 X106.493406 Y177.483303 Z-0.125000 I-2.547364 J-0.153759
G03 X105.495720 Y178.390074 Z-0.125000 I-2.253529 J-1.477230
G03 X104.125254 Y178.952618 Z-0.125000 I-3.626699 J-6.884709
G03 X101.357740 Y179.643731 Z-0.125000 I-8.365556 J-27.612577
G02 X98.572611 Y180.296576 Z-0.125000 I7.933406 J40.112325
G02 X97.256699 Y180.757709 Z-0.125000 I2.546758 J9.375699
G03 X95.925822 Y181.061068 Z-0.125000 I-1.476997 J-3.408735
G03 X90.811339 Y181.011415 Z-0.125000 I-2.051510 J-52.117426
G03 X81.711399 Y180.183567 Z-0.125000 I8.394873 J-142.707266
G03 X81.016609 Y179.803648 Z-0.125000 I0.131391 J-1.065557
G03 X80.430632 Y177.865729 Z-0.125000 I2.004603 J-1.663692
G01 X81.286339 Y177.255300 Z-0.125000
G02 X85.595910 Y177.775455 Z-0.125000 I4.600501 J-20.003080
G02 X95.882429 Y177.462207 Z-0.125000 I1.635222 J-115.354402
G02 X100.767738 Y176.883262 Z-0.125000 I-4.301418 J-57.197974
G02 X102.275870 Y176.424839 Z-0.125000 I-0.943148 J-5.812746
G02 X103.625358 Y175.646997 Z-0.125000 I-3.470514 J-7.580580
G02 X104.044920 Y175.171405 Z-0.125000 I-0.799110 J-1.127829
G02 X104.224056 Y174.551532 Z-0.125000 I-1.364181 J-0.730052
G02 X104.296980 Y171.640646 Z-0.125000 I-31.428243 J-2.243705
G03 X104.592383 Y168.665768 Z-0.125000 I12.466459 J-0.264196
G01 X104.995770 Y168.502971 Z-0.125000
G01 X104.995770 Y168.502971 Z-0.125000
G00 Z5.000000

(End cutting path id: path821)


(Start cutting path id: path821)
(ZZZanette)
(Change tool to Default tool)

G00 Z5.000000
G00 X110.125920 Y173.241960

G01 Z-0.125000 F100.0(Penetrate)
G03 X110.055460 Y177.461979 Z-0.125000 I-126.408265 J0.000000 F400.000000
G03 X109.945632 Y178.790393 Z-0.125000 I-13.572352 J-0.453353
G01 X109.748992 Y178.856984 Z-0.125000
G03 X109.457860 Y178.289628 Z-0.125000 I0.738419 J-0.737285
G02 X109.238004 Y177.171044 Z-0.125000 I-18.442411 J3.043930
G02 X108.354600 Y173.459857 Z-0.125000 I-203.996332 J46.598168
G03 X107.475916 Y169.747757 Z-0.125000 I178.529489 J-44.219390
G03 X107.231230 Y168.484389 Z-0.125000 I20.413660 J-4.609054
G01 X107.025350 Y167.213085 Z-0.125000
G01 X108.575630 Y167.289915 Z-0.125000
G01 X110.125920 Y167.366745 Z-0.125000
G01 X110.125920 Y173.241960 Z-0.125000
G00 Z5.000000

(End cutting path id: path821)


(Start cutting path id: path821)
(ZZZanette)
(Change tool to Default tool)

G00 Z5.000000
G00 X107.271410 Y160.895840

G01 Z-0.125000 F100.0(Penetrate)
G02 X107.267535 Y161.679236 Z-0.125000 I2.760696 J0.405365 F400.000000
G02 X107.491730 Y162.507780 Z-0.125000 I3.321707 J-0.454215
G03 X107.627892 Y163.258503 Z-0.125000 I-1.665049 J0.689708
G01 X107.456130 Y163.558370 Z-0.125000
G01 X107.438233 Y163.692844 Z-0.125000
G01 X107.676200 Y163.798520 Z-0.125000
G03 X108.224879 Y163.932183 Z-0.125000 I-0.007504 J1.223785
G03 X109.447000 Y164.701580 Z-0.125000 I-3.647304 J7.148744
G02 X110.681342 Y165.501423 Z-0.125000 I5.800323 J-7.598877
G02 X112.488740 Y166.355229 Z-0.125000 I8.433359 J-15.512419
G03 X114.108584 Y167.149570 Z-0.125000 I-4.755740 J11.746835
G01 X114.061776 Y167.348707 Z-0.125000
G03 X113.124103 Y167.326289 Z-0.125000 I-0.343708 J-5.244899
G03 X107.744640 Y166.666119 Z-0.125000 I34.547779 J-303.763747
G03 X103.666471 Y166.055832 Z-0.125000 I15.324394 J-116.334410
G03 X103.254650 Y165.913319 Z-0.125000 I0.216701 J-1.292483
G01 X103.237182 Y165.716543 Z-0.125000
G03 X104.312980 Y165.062559 Z-0.125000 I3.019065 J3.754505
G02 X105.757597 Y164.418509 Z-0.125000 I-78.239985 J-177.435864
G02 X106.421720 Y164.112080 Z-0.125000 I-17.001425 J-37.720120
G01 X106.535504 Y163.987979 Z-0.125000
G01 X106.487820 Y163.933460 Z-0.125000
G02 X105.894556 Y164.075223 Z-0.125000 I4.861294 J21.656239
G02 X105.344280 Y164.223320 Z-0.125000 I4.794796 J18.912168
G01 X105.185976 Y164.063621 Z-0.125000
G03 X105.928420 Y162.238950 Z-0.125000 I9.450393 J2.781907
G03 X107.102278 Y160.167314 Z-0.125000 I36.363576 J19.236424
G01 X107.224570 Y160.098400 Z-0.125000
G01 X107.302890 Y160.172264 Z-0.125000
G03 X107.271370 Y160.895840 Z-0.125000 I-3.547615 J0.207934
G01 X107.271410 Y160.895840 Z-0.125000
G00 Z5.000000

(End cutting path id: path821)


(Start cutting path id: path821)
(ZZZanette)
(Change tool to Default tool)

G00 Z5.000000
G00 X117.541520 Y149.685600

G01 Z-0.125000 F100.0(Penetrate)
G03 X118.164077 Y150.160150 Z-0.125000 I-3.370088 J5.066820 F400.000000
G03 X119.650920 Y151.519550 Z-0.125000 I-26.452998 J30.425768
G02 X121.721271 Y152.929194 Z-0.125000 I5.194262 J-5.403650
G02 X125.997840 Y154.429630 Z-0.125000 I10.228271 J-22.307997
G03 X130.567600 Y155.854129 Z-0.125000 I-10.150030 J40.603144
G03 X134.138560 Y157.488170 Z-0.125000 I-9.907997 J26.371429
G03 X145.446322 Y164.103186 Z-0.125000 I-103.074947 J189.169445
G01 X145.844670 Y164.822860 Z-0.125000
G01 X145.752505 Y164.999697 Z-0.125000
G03 X145.006710 Y165.408377 Z-0.125000 I-2.247105 J-3.215875
G02 X142.382152 Y167.163206 Z-0.125000 I3.091844 J7.464311
G02 X140.200630 Y170.220280 Z-0.125000 I8.088955 J8.079165
G02 X139.408634 Y172.205508 Z-0.125000 I12.779450 J6.248885
G02 X138.379450 Y176.017185 Z-0.125000 I46.308670 J14.548507
G01 X138.039460 Y177.516176 Z-0.125000
G01 X133.276960 Y174.348603 Z-0.125000
G02 X125.241233 Y169.499332 Z-0.125000 I-59.138727 J88.916139
G02 X122.887350 Y168.686181 Z-0.125000 I-3.597901 J6.601543
G03 X121.905981 Y168.493991 Z-0.125000 I3.045943 J-18.154986
G03 X121.106130 Y168.286827 Z-0.125000 I2.749381 J-12.262909
G02 X120.306824 Y168.077229 Z-0.125000 I-3.909587 J13.280386
G02 X119.505820 Y167.917855 Z-0.125000 I-3.038357 J13.178032
G03 X115.432558 Y166.920644 Z-0.125000 I4.698001 J-28.007259
G03 X111.698320 Y165.382438 Z-0.125000 I8.135102 J-25.051068
G03 X110.223762 Y164.508394 Z-0.125000 I5.718726 J-11.328638
G03 X109.082800 Y163.582820 Z-0.125000 I5.283892 J-7.679519
G03 X108.299262 Y162.437191 Z-0.125000 I2.289092 J-2.406356
G03 X108.009250 Y160.966380 Z-0.125000 I3.584647 J-1.470811
G03 X108.587157 Y157.875657 Z-0.125000 I8.553747 J0.000000
G03 X111.062620 Y153.086940 Z-0.125000 I23.443441 J9.084584
G03 X113.952980 Y149.905484 Z-0.125000 I11.762376 J7.782467
G03 X115.803690 Y149.250480 Z-0.125000 I1.850710 J2.287084
G03 X116.848429 Y149.379286 Z-0.125000 I0.000000 J4.301324
G03 X117.541520 Y149.685600 Z-0.125000 I-0.541417 J2.162333
G01 X117.541520 Y149.685600 Z-0.125000
G00 Z5.000000

(End cutting path id: path821)


(Start cutting path id: path821)
(ZZZanette)
(Change tool to Default tool)

G00 Z5.000000
G00 X114.055420 Y131.565220

G01 Z-0.125000 F100.0(Penetrate)
G01 X114.480977 Y131.884358 Z-0.125000 F400.000000
G01 X114.523660 Y132.196580 Z-0.125000
G01 X114.564986 Y132.517900 Z-0.125000
G02 X115.025920 Y132.896830 Z-0.125000 I0.941022 J-0.674859
G01 X115.423325 Y133.384963 Z-0.125000
G03 X115.396190 Y134.527070 Z-0.125000 I-2.277450 J0.517266
G01 X114.780568 Y135.053973 Z-0.125000
G03 X111.895740 Y134.934430 Z-0.125000 I-1.065491 J-9.155764
G01 X110.093670 Y134.571600 Z-0.125000
G01 X110.148670 Y132.981350 Z-0.125000
G03 X110.243727 Y131.402030 Z-0.125000 I31.024399 J1.074785
G01 X110.300660 Y131.212160 Z-0.125000
G01 X110.960323 Y130.860101 Z-0.125000
G03 X114.055390 Y131.565220 Z-0.125000 I-1.143749 J12.165745
G01 X114.055420 Y131.565220 Z-0.125000
G00 Z5.000000

(End cutting path id: path821)


(Start cutting path id: path821)
(ZZZanette)
(Change tool to Default tool)

G00 Z5.000000
G00 X112.612480 Y99.274620

G01 Z-0.125000 F100.0(Penetrate)
G03 X123.987948 Y104.375503 Z-0.125000 I-614.643769 J1385.950305 F400.000000
G01 X124.254040 Y104.552430 Z-0.125000
G01 X124.311832 Y104.805374 Z-0.125000
G03 X122.995210 Y107.763180 Z-0.125000 I-33.393484 J-13.092653
G02 X121.565723 Y110.769165 Z-0.125000 I74.229076 J37.142294
G01 X121.500940 Y111.075020 Z-0.125000
G01 X121.400729 Y111.335665 Z-0.125000
G03 X120.925160 Y111.705690 Z-0.125000 I-1.316762 J-1.201728
G03 X120.295255 Y111.834160 Z-0.125000 I-0.530050 J-0.990414
G03 X113.168630 Y111.013450 Z-0.125000 I12.433681 J-139.320039
G02 X110.522368 Y110.642807 Z-0.125000 I-163.196785 J1155.535434
G02 X107.480090 Y110.223310 Z-0.125000 I-213.832426 J1539.515943
G03 X104.437384 Y109.806802 Z-0.125000 R66346.771727
G03 X102.585300 Y109.553180 Z-0.125000 R33946.424838
G02 X100.732071 Y109.308682 Z-0.125000 I-25.592815 J186.840575
G02 X99.277997 Y109.133490 Z-0.125000 I-14.604302 J115.092441
