%
(Header)
(Generated by gcodetools from Inkscape.)
(Using default header. To add your own header create file "header" in the output dir.)
M3
(Header end.)
G21 (All units in mm)

(Start cutting path id: path16102)
(Change tool to Default tool)

G00 Z5.000000
G00 X43.378282 Y12.128901

G01 Z-0.125000 F100.0(Penetrate)
G03 X43.431683 Y12.430693 Z-0.125000 I-20.938146 J3.860540 F400.000000
G03 X43.448488 Y12.543014 Z-0.125000 I-2.882534 J0.488683
G02 X43.463345 Y12.658698 Z-0.125000 I31.925990 J-4.041363
G02 X43.495294 Y12.902320 Z-0.125000 I141.621213 J-18.448923
G02 X44.342235 Y13.054512 Z-0.125000 I2.073506 J-9.106247
G02 X44.943314 Y13.094154 Z-0.125000 I0.601080 J-4.537107
G02 X45.285383 Y13.071994 Z-0.125000 I0.000000 J-2.651147
G02 X45.575176 Y13.011940 Z-0.125000 I-0.254980 J-1.959663
G02 X45.841688 Y12.900244 Z-0.125000 I-0.302628 J-1.095883
G01 X46.022747 Y12.753117 Z-0.125000
G01 X46.135316 Y12.554992 Z-0.125000
G02 X46.183636 Y12.238519 Z-0.125000 I-1.012228 J-0.316473
G02 X46.178770 Y12.068182 Z-0.125000 I-2.983746 J-0.000000
G02 X46.139759 Y11.471190 Z-0.125000 I-36.716895 J2.099532
G03 X46.104973 Y10.873931 Z-0.125000 I19.608739 J-1.441702
G03 X46.072477 Y9.906073 Z-0.125000 I51.467754 J-2.212513
G03 X45.785782 Y9.910632 Z-0.125000 I-0.576443 J-27.234674
G03 X45.502047 Y9.912141 Z-0.125000 I-0.283736 J-26.673946
G03 X45.227083 Y9.910715 Z-0.125000 I0.000000 J-26.513675
G03 X44.916986 Y9.906073 Z-0.125000 I0.349789 J-33.726964
G03 X44.948500 Y10.241821 Z-0.125000 I-5.960191 J0.728790
G03 X45.007669 Y11.288491 Z-0.125000 I-57.905734 J3.798493
G02 X44.895661 Y11.235634 Z-0.125000 I-1.594141 J3.233018
G02 X44.832153 Y11.209322 Z-0.125000 I-0.456605 J1.012290
G02 X44.770108 Y11.186709 Z-0.125000 I-0.435306 J1.097949
G02 X44.612756 Y11.136241 Z-0.125000 I-2.337277 J7.016705
G03 X44.455325 Y11.085943 Z-0.125000 I2.417134 J-7.837098
G03 X44.364107 Y11.054029 Z-0.125000 I0.880278 J-2.662410
G01 X44.279523 Y11.014857 Z-0.125000
G01 X44.209065 Y10.968767 Z-0.125000
G01 X44.150231 Y10.912431 Z-0.125000
G01 X44.115458 Y10.862197 Z-0.125000
G01 X44.096114 Y10.805793 Z-0.125000
G01 X44.089126 Y10.740396 Z-0.125000
G01 X44.109336 Y10.645703 Z-0.125000
G01 X44.168109 Y10.563790 Z-0.125000
G01 X44.256204 Y10.513972 Z-0.125000
G01 X44.419685 Y10.490708 Z-0.125000
G01 X44.480976 Y10.492828 Z-0.125000
G03 X44.551322 Y10.499824 Z-0.125000 I-0.081438 J1.176011
G01 X44.620597 Y10.515627 Z-0.125000
G03 X44.744390 Y10.554634 Z-0.125000 I-0.618861 J2.179922
G03 X44.666781 Y10.317934 Z-0.125000 I3.862818 J-1.397602
G03 X44.542545 Y9.869514 Z-0.125000 I13.749520 J-4.050790
G02 X44.290130 Y9.836898 Z-0.125000 I-0.540503 J3.189915
G02 X44.065725 Y9.826888 Z-0.125000 I-0.224405 J2.510175
G02 X43.709169 Y9.857148 Z-0.125000 I-0.000000 J2.115763
G02 X43.460188 Y9.930415 Z-0.125000 I0.187566 J1.097082
G01 X43.249231 Y10.068741 Z-0.125000
G01 X43.088677 Y10.271452 Z-0.125000
G02 X42.990502 Y10.513745 Z-0.125000 I0.980889 J0.538481
G01 X42.959964 Y10.740376 Z-0.125000
G01 X42.971675 Y10.881543 Z-0.125000
G01 X43.006767 Y11.020513 Z-0.125000
G01 X43.067236 Y11.151588 Z-0.125000
G02 X43.158882 Y11.288471 Z-0.125000 I0.973269 J-0.552506
G01 X43.270310 Y11.409636 Z-0.125000
G01 X43.398757 Y11.510752 Z-0.125000
G01 X43.542301 Y11.593166 Z-0.125000
G02 X43.773196 Y11.687361 Z-0.125000 I0.997013 J-2.113821
G02 X44.015686 Y11.759887 Z-0.125000 I1.037120 J-3.025986
G02 X44.378732 Y11.842654 Z-0.125000 I1.719857 J-6.706272
G03 X44.530340 Y11.875264 Z-0.125000 I-1.064211 J5.316419
G03 X44.656633 Y11.906600 Z-0.125000 I-0.856018 J3.720153
G03 X44.784241 Y11.946113 Z-0.125000 I-0.770826 J2.715247
G01 X44.838000 Y11.967498 Z-0.125000
G01 X44.890852 Y11.998631 Z-0.125000
G01 X44.925760 Y12.028396 Z-0.125000
G01 X44.957273 Y12.067251 Z-0.125000
G01 X44.975490 Y12.101474 Z-0.125000
G01 X44.986429 Y12.141726 Z-0.125000
G01 X44.990138 Y12.183689 Z-0.125000
G01 X44.964788 Y12.285647 Z-0.125000
G01 X44.896530 Y12.360300 Z-0.125000
G01 X44.796712 Y12.404144 Z-0.125000
G01 X44.621553 Y12.424241 Z-0.125000
G03 X44.129480 Y12.366592 Z-0.125000 I0.000000 J-2.128921
G03 X43.378302 Y12.128881 Z-0.125000 I1.244470 J-5.238319
G01 X43.378282 Y12.128901 Z-0.125000
G00 Z5.000000

(End cutting path id: path16102)


(Start cutting path id: path16100)
(Change tool to Default tool)

G00 Z5.000000
G00 X41.397858 Y13.401695

G01 Z-0.125000 F100.0(Penetrate)
G03 X41.412170 Y13.764126 Z-0.125000 I-20.441554 J0.988699 F400.000000
G03 X41.415384 Y13.974149 Z-0.125000 I-6.859996 J0.210023
G03 X41.414841 Y14.035042 Z-0.125000 I-3.411900 J-0.000000
G03 X41.412449 Y14.138580 Z-0.125000 I-9.867097 J-0.176129
G03 X41.766423 Y14.133715 Z-0.125000 I0.876433 J50.889911
G03 X42.006284 Y14.132484 Z-0.125000 I0.239861 J23.365828
G03 X42.336824 Y14.134223 Z-0.125000 I0.000000 J31.407929
G03 X42.585494 Y14.138580 Z-0.125000 I-0.187131 J17.780206
G03 X42.577610 Y14.044123 Z-0.125000 I4.998298 J-0.464756
G03 X42.573782 Y13.980239 Z-0.125000 I2.282257 J-0.168815
G01 X42.556228 Y13.602665 Z-0.125000
G03 X42.552046 Y13.517348 Z-0.125000 I2.155279 J-0.148394
G03 X42.550358 Y13.401695 Z-0.125000 I3.959449 J-0.115653
G03 X42.260737 Y13.406331 Z-0.125000 I-0.604811 J-28.733003
G03 X41.994552 Y13.407791 Z-0.125000 I-0.266185 J-24.269550
G03 X41.719588 Y13.406386 Z-0.125000 I0.000000 J-26.918625
G03 X41.397793 Y13.401695 Z-0.125000 I0.376671 J-36.873654
G01 X41.397858 Y13.401695 Z-0.125000
G00 Z5.000000

(End cutting path id: path16100)


(Start cutting path id: path16098)
(Change tool to Default tool)

G00 Z5.000000
G00 X39.525669 Y12.256787

G01 Z-0.125000 F100.0(Penetrate)
G03 X39.369643 Y12.284834 Z-0.125000 I-0.339420 J-1.440183 F400.000000
G03 X39.233140 Y12.293326 Z-0.125000 I-0.136503 J-1.092825
G03 X38.958153 Y12.260827 Z-0.125000 I-0.000000 J-1.179621
G01 X38.750470 Y12.177621 Z-0.125000
G01 X38.580838 Y12.038383 Z-0.125000
G01 X38.443313 Y11.821358 Z-0.125000
G03 X38.363105 Y11.575551 Z-0.125000 I1.219827 J-0.534028
G03 X38.338002 Y11.346347 Z-0.125000 I1.033838 J-0.229205
G01 X38.353747 Y11.172829 Z-0.125000
G01 X38.396507 Y11.026623 Z-0.125000
G01 X38.474410 Y10.900349 Z-0.125000
G01 X38.580800 Y10.804342 Z-0.125000
G01 X38.712879 Y10.743245 Z-0.125000
G01 X38.858705 Y10.722127 Z-0.125000
G01 X39.011850 Y10.746224 Z-0.125000
G01 X39.151234 Y10.816520 Z-0.125000
G01 X39.266978 Y10.926455 Z-0.125000
G01 X39.367707 Y11.093611 Z-0.125000
G03 X39.435389 Y11.281161 Z-0.125000 I-1.024652 J0.475763
G03 X39.481792 Y11.525998 Z-0.125000 I-1.706219 J0.450187
G03 X39.505501 Y11.779369 Z-0.125000 I-3.787433 J0.482195
G03 X39.525669 Y12.256787 Z-0.125000 I-13.437778 J0.806814
G01 X39.525669 Y12.256787 Z-0.125000
G00 Z5.000000

(End cutting path id: path16098)


(Start cutting path id: path16098)
(Change tool to Default tool)

G00 Z5.000000
G00 X40.569999 Y9.906073

G01 Z-0.125000 F100.0(Penetrate)
G03 X40.256983 Y9.910931 Z-0.125000 I-0.784883 J-40.487908 F400.000000
G03 X40.049299 Y9.912141 Z-0.125000 I-0.207684 J-17.822191
G03 X39.815289 Y9.910890 Z-0.125000 I0.000000 J-21.887727
G03 X39.481792 Y9.906073 Z-0.125000 I0.475364 J-44.459769
G01 X39.499318 Y10.292786 Z-0.125000
G02 X39.383391 Y10.179047 Z-0.125000 I-3.484685 J3.435814
G02 X39.300399 Y10.103999 Z-0.125000 I-1.599072 J1.684891
G01 X39.211612 Y10.040050 Z-0.125000
G02 X39.081003 Y9.966977 Z-0.125000 I-0.823063 J1.317873
G02 X38.946208 Y9.908606 Z-0.125000 I-0.536817 J1.054840
G02 X38.794324 Y9.863447 Z-0.125000 I-0.467823 J1.295415
G02 X38.641096 Y9.836285 Z-0.125000 I-0.301575 J1.255497
G02 X38.478393 Y9.826907 Z-0.125000 I-0.162703 J1.406780
G02 X38.203285 Y9.854468 Z-0.125000 I0.000000 J1.386815
G02 X37.951840 Y9.933480 Z-0.125000 I0.249999 J1.235193
G02 X37.725828 Y10.063093 Z-0.125000 I0.489940 J1.116186
G02 X37.536446 Y10.234930 Z-0.125000 I0.689719 J0.950424
G02 X37.388236 Y10.446552 Z-0.125000 I0.918820 J0.801208
G02 X37.279022 Y10.700814 Z-0.125000 I1.224107 J0.676378
G02 X37.215717 Y10.975106 Z-0.125000 I1.756431 J0.549827
G02 X37.194189 Y11.261084 Z-0.125000 I1.888710 J0.285979
G02 X37.232767 Y11.664817 Z-0.125000 I2.131879 J0.000000
G02 X37.349231 Y12.064955 Z-0.125000 I2.210199 J-0.426279
G02 X37.539680 Y12.433259 Z-0.125000 I1.906821 J-0.752620
G02 X37.752919 Y12.683086 Z-0.125000 I1.077084 J-0.703420
G02 X38.022556 Y12.875906 Z-0.125000 I1.010828 J-1.128599
G02 X38.317498 Y12.999762 Z-0.125000 I0.690251 J-1.230601
G02 X38.637079 Y13.069206 Z-0.125000 I0.613627 J-2.053833
G02 X38.999093 Y13.094154 Z-0.125000 I0.362014 J-2.614064
G02 X39.241214 Y13.084427 Z-0.125000 I0.000000 J-3.018058
G02 X39.566600 Y13.048480 Z-0.125000 I-0.441910 J-5.490699
G03 X39.584054 Y13.411065 Z-0.125000 I-11.060572 J0.714152
G03 X39.598779 Y14.062453 Z-0.125000 I-35.689348 J1.132620
G03 X39.958600 Y14.057563 Z-0.125000 I0.927357 J54.990998
G03 X40.186763 Y14.056385 Z-0.125000 I0.228164 J22.109721
G03 X40.482201 Y14.057887 Z-0.125000 I0.000000 J29.057454
G03 X40.783522 Y14.062453 Z-0.125000 I-0.307385 J30.230911
G03 X40.710492 Y13.157253 Z-0.125000 I34.704031 J-3.255415
G03 X40.634334 Y11.854855 Z-0.125000 I71.772154 J-4.850323
G03 X40.580626 Y10.551346 Z-0.125000 I79.790754 J-3.940465
G03 X40.569973 Y9.906073 Z-0.125000 I19.538217 J-0.645272
G01 X40.569999 Y9.906073 Z-0.125000
G00 Z5.000000

(End cutting path id: path16098)


(Start cutting path id: path16100)
(Change tool to Default tool)

G00 Z5.000000
G00 X41.213567 Y9.906073

G01 Z-0.125000 F100.0(Penetrate)
G03 X41.252704 Y10.277740 Z-0.125000 I-38.037822 J4.193321 F400.000000
G03 X41.274995 Y10.518115 Z-0.125000 I-15.887768 J1.594601
G03 X41.292673 Y10.758848 Z-0.125000 I-10.409361 J0.885420
G03 X41.313025 Y11.133195 Z-0.125000 I-25.152841 J1.555159
G03 X41.331196 Y11.507826 Z-0.125000 I-30.648978 J1.674391
G03 X41.348128 Y11.961427 Z-0.125000 I-44.915698 J1.903654
G03 X41.360490 Y12.415181 Z-0.125000 I-45.054642 J1.454551
G03 X41.371524 Y13.014985 Z-0.125000 I-78.715707 J1.748029
G03 X41.751822 Y13.010032 Z-0.125000 I1.014266 J63.273325
G03 X41.979984 Y13.008889 Z-0.125000 I0.228162 J22.773512
G03 X42.187674 Y13.009950 Z-0.125000 I-0.000000 J20.332596
G03 X42.576743 Y13.014985 Z-0.125000 I-0.728950 J71.359437
G03 X42.531043 Y12.439204 Z-0.125000 I41.160985 J-3.556626
G03 X42.503613 Y12.004057 Z-0.125000 I23.481181 J-1.698602
G03 X42.487166 Y11.568509 Z-0.125000 I23.630929 J-1.110433
G03 X42.477282 Y11.081430 Z-0.125000 I29.544042 J-0.843173
G03 X42.467117 Y10.216651 Z-0.125000 I241.657882 J-3.272959
G03 X42.465570 Y9.906073 Z-0.125000 I31.167428 J-0.310578
G03 X42.117449 Y9.910869 Z-0.125000 I-0.829938 J-47.613720
G03 X41.865884 Y9.912141 Z-0.125000 I-0.251565 J-24.862424
G03 X41.617244 Y9.910985 Z-0.125000 I0.000000 J-26.732079
G03 X41.213547 Y9.906073 Z-0.125000 I0.655531 J-70.475077
G01 X41.213567 Y9.906073 Z-0.125000
G00 Z5.000000

(End cutting path id: path16100)


(Start cutting path id: path16096)
(Change tool to Default tool)

G00 Z5.000000
G00 X33.174862 Y9.906073

G01 Z-0.125000 F100.0(Penetrate)
G03 X33.246532 Y10.598436 Z-0.125000 I-18.207358 J2.234614 F400.000000
G03 X33.303575 Y11.431603 Z-0.125000 I-26.311883 J2.220005
G03 X33.341683 Y12.269262 Z-0.125000 I-40.352881 J2.255488
G03 X33.359156 Y13.014985 Z-0.125000 I-31.962938 J1.121982
G03 X33.710204 Y13.010170 Z-0.125000 I0.835370 J48.104556
G03 X33.964692 Y13.008889 Z-0.125000 I0.254488 J25.279182
G03 X34.260130 Y13.010476 Z-0.125000 I0.000000 J27.505346
G03 X34.532199 Y13.014985 Z-0.125000 I-0.250610 J23.330484
G01 X34.502946 Y12.600870 Z-0.125000
G02 X34.602049 Y12.711043 Z-0.125000 I2.333762 J-1.999607
G02 X34.669686 Y12.777479 Z-0.125000 I0.914674 J-0.863560
G01 X34.743538 Y12.839662 Z-0.125000
G02 X34.842279 Y12.905368 Z-0.125000 I0.698626 J-0.942833
G02 X34.950451 Y12.963169 Z-0.125000 I0.579587 J-0.954552
G02 X35.064602 Y13.008895 Z-0.125000 I0.473894 J-1.017678
G02 X35.182953 Y13.042998 Z-0.125000 I0.432300 J-1.277853
G02 X35.319099 Y13.069796 Z-0.125000 I0.398467 J-1.665146
G02 X35.460058 Y13.087853 Z-0.125000 I0.273969 J-1.579497
G02 X35.611631 Y13.094152 Z-0.125000 I0.151573 J-1.820506
G02 X35.820755 Y13.081756 Z-0.125000 I-0.000000 J-1.770293
G02 X36.021172 Y13.045432 Z-0.125000 I-0.197688 J-1.661772
G02 X36.216662 Y12.984796 Z-0.125000 I-0.288972 J-1.277096
G01 X36.357581 Y12.911455 Z-0.125000
G01 X36.481069 Y12.814657 Z-0.125000
G01 X36.582828 Y12.695262 Z-0.125000
G01 X36.658445 Y12.560910 Z-0.125000
G01 X36.702764 Y12.418167 Z-0.125000
G02 X36.724537 Y12.268239 Z-0.125000 I-1.505840 J-0.295232
G02 X36.732016 Y12.110630 Z-0.125000 I-1.656984 J-0.157609
G02 X36.729309 Y11.995001 Z-0.125000 I-2.470716 J-0.000000
G02 X36.708620 Y11.611254 Z-0.125000 I-27.247557 J1.276575
G01 X36.658890 Y10.508973 Z-0.125000
G03 X36.647607 Y10.183089 Z-0.125000 I15.785281 J-0.709657
G03 X36.644242 Y9.906071 Z-0.125000 I11.402440 J-0.277019
G03 X36.348772 Y9.910726 Z-0.125000 I-0.634700 J-30.905149
G03 X36.091361 Y9.912138 Z-0.125000 I-0.257412 J-23.454753
G03 X35.743268 Y9.910475 Z-0.125000 I0.000000 J-36.417776
G03 X35.456572 Y9.906071 Z-0.125000 I0.236179 J-24.708201
G03 X35.479123 Y10.183446 Z-0.125000 I-10.170776 J0.966495
G03 X35.512153 Y10.728212 Z-0.125000 I-39.204305 J2.650405
G03 X35.537189 Y11.276420 Z-0.125000 I-35.661017 J1.903260
G03 X35.541405 Y11.498589 Z-0.125000 I-5.850933 J0.222169
G03 X35.498197 Y11.825279 Z-0.125000 I-1.256610 J0.000000
G01 X35.412695 Y11.976648 Z-0.125000
G01 X35.270895 Y12.077239 Z-0.125000
G01 X35.093838 Y12.113672 Z-0.125000
G01 X34.933589 Y12.085736 Z-0.125000
G01 X34.772056 Y11.997964 Z-0.125000
G01 X34.646667 Y11.864823 Z-0.125000
G01 X34.540959 Y11.659972 Z-0.125000
G03 X34.481618 Y11.435843 Z-0.125000 I1.101580 J-0.411579
G03 X34.423944 Y10.935273 Z-0.125000 I5.483314 J-0.885375
G03 X34.397072 Y10.429579 Z-0.125000 I24.107267 J-1.534583
G03 X34.380067 Y9.906071 Z-0.125000 I25.818923 J-1.100716
G03 X34.087522 Y9.910660 Z-0.125000 I-0.600584 J-28.954295
G03 X33.809633 Y9.912138 Z-0.125000 I-0.277889 J-26.124400
G03 X33.517117 Y9.910740 Z-0.125000 I-0.000000 J-30.603395
G03 X33.174845 Y9.906071 Z-0.125000 I0.400555 J-41.904609
G01 X33.174862 Y9.906073 Z-0.125000
G00 Z5.000000

(End cutting path id: path16096)


(Start cutting path id: path16094)
(Change tool to Default tool)

G00 Z5.000000
G00 X29.851732 Y12.128901

G01 Z-0.125000 F100.0(Penetrate)
G03 X29.905131 Y12.430693 Z-0.125000 I-20.951329 J3.862774 F400.000000
G03 X29.921938 Y12.543014 Z-0.125000 I-2.884373 J0.488995
G02 X29.936794 Y12.658698 Z-0.125000 I31.994171 J-4.049994
G02 X29.968741 Y12.902320 Z-0.125000 I141.923373 J-18.487173
G02 X30.815682 Y13.054512 Z-0.125000 I2.073500 J-9.106222
G02 X31.416764 Y13.094154 Z-0.125000 I0.601083 J-4.537137
G02 X31.758833 Y13.071994 Z-0.125000 I0.000000 J-2.651147
G02 X32.048626 Y13.011940 Z-0.125000 I-0.254980 J-1.959663
G02 X32.315138 Y12.900243 Z-0.125000 I-0.302624 J-1.095870
G01 X32.496194 Y12.753117 Z-0.125000
G01 X32.608766 Y12.554991 Z-0.125000
G02 X32.657086 Y12.238519 Z-0.125000 I-1.012208 J-0.316473
G02 X32.652219 Y12.068182 Z-0.125000 I-2.983554 J0.000000
G02 X32.613206 Y11.471190 Z-0.125000 I-36.714557 J2.099533
G03 X32.578422 Y10.873931 Z-0.125000 I19.610611 J-1.441747
G03 X32.545927 Y9.906073 Z-0.125000 I51.472688 J-2.212633
G03 X32.259232 Y9.910632 Z-0.125000 I-0.576441 J-27.234537
G03 X31.975494 Y9.912141 Z-0.125000 I-0.283739 J-26.674343
G03 X31.700530 Y9.910715 Z-0.125000 I0.000000 J-26.513675
G03 X31.390433 Y9.906073 Z-0.125000 I0.349789 J-33.726964
G03 X31.421947 Y10.241821 Z-0.125000 I-5.960407 J0.728817
G03 X31.481119 Y11.288491 Z-0.125000 I-57.907836 J3.798749
G02 X31.369106 Y11.235634 Z-0.125000 I-1.594797 J3.234512
G02 X31.305600 Y11.209322 Z-0.125000 I-0.456734 J1.012590
G02 X31.243558 Y11.186709 Z-0.125000 I-0.435183 J1.097589
G02 X31.086203 Y11.136241 Z-0.125000 I-2.336788 J7.015238
G03 X30.928772 Y11.085943 Z-0.125000 I2.417134 J-7.837098
G03 X30.837554 Y11.054029 Z-0.125000 I0.880278 J-2.662410
G01 X30.752970 Y11.014857 Z-0.125000
G01 X30.682515 Y10.968767 Z-0.125000
G01 X30.623679 Y10.912430 Z-0.125000
G01 X30.588905 Y10.862197 Z-0.125000
G01 X30.569562 Y10.805793 Z-0.125000
G01 X30.562574 Y10.740396 Z-0.125000
G01 X30.582783 Y10.645702 Z-0.125000
G01 X30.641553 Y10.563790 Z-0.125000
G01 X30.729648 Y10.513972 Z-0.125000
G01 X30.893129 Y10.490708 Z-0.125000
G01 X30.954423 Y10.492828 Z-0.125000
G03 X31.024766 Y10.499824 Z-0.125000 I-0.081428 J1.175864
G01 X31.094039 Y10.515626 Z-0.125000
G03 X31.217837 Y10.554634 Z-0.125000 I-0.618990 J2.180410
G03 X31.140227 Y10.317933 Z-0.125000 I3.862139 J-1.397403
G03 X31.015992 Y9.869514 Z-0.125000 I13.747011 J-4.050051
G02 X30.763574 Y9.836898 Z-0.125000 I-0.540512 J3.190004
G02 X30.539169 Y9.826888 Z-0.125000 I-0.224405 J2.510190
G02 X30.182614 Y9.857148 Z-0.125000 I0.000000 J2.115763
G02 X29.933633 Y9.930415 Z-0.125000 I0.187566 J1.097082
G01 X29.722674 Y10.068742 Z-0.125000
G01 X29.562121 Y10.271452 Z-0.125000
G02 X29.463947 Y10.513745 Z-0.125000 I0.980889 J0.538481
G01 X29.433408 Y10.740376 Z-0.125000
G01 X29.445120 Y10.881543 Z-0.125000
G01 X29.480215 Y11.020513 Z-0.125000
G01 X29.540681 Y11.151588 Z-0.125000
G02 X29.632327 Y11.288471 Z-0.125000 I0.973220 J-0.552468
G01 X29.743754 Y11.409636 Z-0.125000
G01 X29.872202 Y11.510752 Z-0.125000
G01 X30.015745 Y11.593166 Z-0.125000
G02 X30.246640 Y11.687361 Z-0.125000 I0.997013 J-2.113821
G02 X30.489128 Y11.759887 Z-0.125000 I1.037072 J-3.025812
G02 X30.852176 Y11.842654 Z-0.125000 I1.719823 J-6.706136
G03 X31.003787 Y11.875264 Z-0.125000 I-1.064161 J5.316266
G03 X31.130080 Y11.906600 Z-0.125000 I-0.855954 J3.719912
G03 X31.257688 Y11.946113 Z-0.125000 I-0.770749 J2.714976
G01 X31.311445 Y11.967498 Z-0.125000
G01 X31.364296 Y11.998631 Z-0.125000
G01 X31.399204 Y12.028396 Z-0.125000
G01 X31.430720 Y12.067252 Z-0.125000
G01 X31.448935 Y12.101474 Z-0.125000
G01 X31.459873 Y12.141726 Z-0.125000
G01 X31.463582 Y12.183689 Z-0.125000
G01 X31.438231 Y12.285646 Z-0.125000
G01 X31.369969 Y12.360300 Z-0.125000
G01 X31.270153 Y12.404144 Z-0.125000
G01 X31.094991 Y12.424241 Z-0.125000
G03 X30.602924 Y12.366592 Z-0.125000 I0.000000 J-2.128888
G03 X29.851746 Y12.128881 Z-0.125000 I1.244484 J-5.238355
G01 X29.851732 Y12.128901 Z-0.125000
G00 Z5.000000

(End cutting path id: path16094)


(Start cutting path id: path16094)
(Change tool to Default tool)

G00 Z5.000000
G00 X30.392910 Y13.447373

G01 Z-0.125000 F100.0(Penetrate)
G03 X30.548833 Y13.769412 Z-0.125000 I-10.434891 J5.251066 F400.000000
G03 X30.711768 Y14.132490 Z-0.125000 I-13.101771 J6.097641
G03 X30.998464 Y14.128052 Z-0.125000 I0.526916 J24.779425
G03 X31.340703 Y14.126394 Z-0.125000 I0.342239 J35.309390
G03 X31.580566 Y14.127662 Z-0.125000 I0.000000 J22.676678
G03 X31.916986 Y14.132490 Z-0.125000 I-0.471931 J44.613823
G03 X31.990819 Y13.942090 Z-0.125000 I5.024847 J1.839011
G03 X32.197814 Y13.447373 Z-0.125000 I34.143188 J13.995222
G03 X32.001802 Y13.452137 Z-0.125000 I-0.448751 J-14.427761
G03 X31.849704 Y13.453469 Z-0.125000 I-0.152097 J-8.685447
G03 X31.741483 Y13.452479 Z-0.125000 I-0.000000 J-5.921265
G03 X31.516222 Y13.447373 Z-0.125000 I0.469076 J-25.660839
G01 X31.323151 Y13.745777 Z-0.125000
G01 X31.109605 Y13.447373 Z-0.125000
G03 X30.939911 Y13.451932 Z-0.125000 I-0.336671 J-9.370377
G03 X30.767346 Y13.453469 Z-0.125000 I-0.172565 J-9.688669
G03 X30.568455 Y13.451850 Z-0.125000 I0.000000 J-12.218105
G03 X30.392910 Y13.447373 Z-0.125000 I0.155030 J-9.522436
G01 X30.392910 Y13.447373 Z-0.125000
G00 Z5.000000

(End cutting path id: path16094)


(Start cutting path id: path16092)
(Change tool to Default tool)

G00 Z5.000000
G00 X27.710416 Y9.909121

G01 Z-0.125000 F100.0(Penetrate)
G01 X27.763073 Y10.563790 Z-0.125000 F400.000000
G01 X27.877161 Y12.838379 Z-0.125000
G01 X27.909338 Y14.062453 Z-0.125000
G03 X28.315960 Y14.057402 Z-0.125000 I1.214199 J81.366001
G03 X28.520724 Y14.056385 Z-0.125000 I0.204764 J20.631966
G03 X28.786912 Y14.057759 Z-0.125000 I0.000000 J25.795563
G03 X29.108706 Y14.062453 Z-0.125000 I-0.389090 J37.703698
G01 X29.041427 Y13.127649 Z-0.125000
G01 X28.933192 Y10.825655 Z-0.125000
G01 X28.909796 Y9.906073 Z-0.125000
G03 X28.596773 Y9.910789 Z-0.125000 I-0.702603 J-36.244205
G03 X28.345213 Y9.912141 Z-0.125000 I-0.251560 J-23.406644
G01 X27.710416 Y9.909121 Z-0.125000
G00 Z5.000000

(End cutting path id: path16092)


(Start cutting path id: path16090)
(Change tool to Default tool)

G00 Z5.000000
G00 X23.928016 Y8.514526

G01 Z-0.125000 F100.0(Penetrate)
G03 X23.833322 Y9.241658 Z-0.125000 I-65.796751 J-8.198880 F400.000000
G03 X23.805154 Y9.418882 Z-0.125000 I-3.934841 J-0.534571
G03 X23.992712 Y9.336555 Z-0.125000 I0.977189 J1.971433
G03 X24.129861 Y9.294038 Z-0.125000 I0.388034 J1.009243
G03 X24.273995 Y9.267436 Z-0.125000 I0.354624 J1.517627
G01 X24.375585 Y9.260544 Z-0.125000
G01 X24.482550 Y9.268566 Z-0.125000
G01 X24.577431 Y9.290993 Z-0.125000
G01 X24.670124 Y9.328529 Z-0.125000
G01 X24.729547 Y9.367116 Z-0.125000
G01 X24.780417 Y9.414267 Z-0.125000
G01 X24.849481 Y9.501093 Z-0.125000
G03 X24.913164 Y9.594610 Z-0.125000 I-1.232118 J0.907475
G01 X24.948943 Y9.659434 Z-0.125000
G01 X24.976680 Y9.725062 Z-0.125000
G03 X25.013299 Y9.845176 Z-0.125000 I-1.577534 J0.546583
G01 X24.463344 Y11.577760 Z-0.125000
G01 X23.992372 Y13.014985 Z-0.125000
G03 X24.428247 Y13.009764 Z-0.125000 I1.518469 J108.571548
G03 X24.603760 Y13.008889 Z-0.125000 I0.175513 J17.602719
G03 X24.808518 Y13.010006 Z-0.125000 I-0.000000 J18.768275
G03 X25.162488 Y13.014985 Z-0.125000 I-0.612018 J56.094488
G03 X25.219808 Y12.780955 Z-0.125000 I15.769200 J3.738202
G03 X25.367260 Y12.205025 Z-0.125000 I95.652533 J24.182599
G02 X25.513685 Y11.628188 Z-0.125000 I-29.315115 J-7.748378
G02 X25.586657 Y11.303717 Z-0.125000 I-9.200461 J-2.239580
G02 X25.620175 Y11.123298 Z-0.125000 I-3.603144 J-0.762706
G02 X25.659789 Y10.846971 Z-0.125000 I-8.415565 J-1.347466
G01 X25.721221 Y11.090569 Z-0.125000
G02 X25.750583 Y11.187973 Z-0.125000 I43.243879 J-12.982560
G02 X25.788500 Y11.312850 Z-0.125000 I71.116015 J-21.525049
G02 X25.827599 Y11.437351 Z-0.125000 I7.268896 J-2.214387
G02 X25.885037 Y11.611257 Z-0.125000 I14.240376 J-4.606860
G01 X26.075178 Y12.165440 Z-0.125000
G01 X26.391112 Y13.014985 Z-0.125000
G03 X26.756782 Y13.009922 Z-0.125000 I1.080026 J64.784050
G03 X26.943994 Y13.008889 Z-0.125000 I0.187212 J16.979346
G03 X27.107801 Y13.009743 Z-0.125000 I-0.000000 J15.722068
G03 X27.529052 Y13.014985 Z-0.125000 I-1.083441 J103.982261
G01 X26.964469 Y11.687381 Z-0.125000
G01 X25.943541 Y9.224004 Z-0.125000
G02 X25.836560 Y9.021494 Z-0.125000 I-2.701308 J1.297525
G02 X25.753397 Y8.895148 Z-0.125000 I-1.131552 J0.654262
G02 X25.663244 Y8.790682 Z-0.125000 I-1.022937 J0.791650
G02 X25.569106 Y8.703316 Z-0.125000 I-0.808056 J0.776291
G01 X25.471683 Y8.633210 Z-0.125000
G01 X25.367260 Y8.575424 Z-0.125000
G02 X25.217847 Y8.514455 Z-0.125000 I-0.589907 J1.232092
G02 X25.045479 Y8.465806 Z-0.125000 I-0.542588 J1.592756
G02 X24.851239 Y8.433900 Z-0.125000 I-0.389606 J1.764654
G02 X24.653487 Y8.423179 Z-0.125000 I-0.197751 J1.818499
G02 X24.562949 Y8.426052 Z-0.125000 I-0.000000 J1.427916
G02 X24.413614 Y8.438419 Z-0.125000 I0.247755 J3.899592
G02 X24.264704 Y8.452904 Z-0.125000 I0.395019 J4.833732
G02 X24.170815 Y8.465823 Z-0.125000 I0.218260 J1.933799
G02 X24.080672 Y8.480910 Z-0.125000 I0.189178 J1.407101
G02 X23.928016 Y8.514543 Z-0.125000 I0.817060 J4.071871
G01 X23.928016 Y8.514526 Z-0.125000
G00 Z5.000000

(End cutting path id: path16090)


(Start cutting path id: path16088)
(Change tool to Default tool)

G00 Z5.000000
G00 X23.521400 Y10.825655

G01 Z-0.125000 F100.0(Penetrate)
G03 X23.487143 Y10.642275 Z-0.125000 I4.446800 J-0.925609 F400.000000
G03 X23.375136 Y9.942613 Z-0.125000 I64.646613 J-10.707872
G02 X23.034661 Y9.880251 Z-0.125000 I-1.564151 J7.579106
G02 X22.804704 Y9.851266 Z-0.125000 I-0.548660 J3.426206
G02 X22.573283 Y9.833063 Z-0.125000 I-0.459000 J4.355183
G02 X22.336657 Y9.826910 Z-0.125000 I-0.236625 J4.547238
G02 X21.989776 Y9.840902 Z-0.125000 I-0.000000 J4.306949
G02 X21.696018 Y9.878675 Z-0.125000 I0.252472 J3.124562
G02 X21.412260 Y9.951249 Z-0.125000 I0.282152 J1.694224
G02 X21.189943 Y10.055282 Z-0.125000 I0.397440 J1.138888
G02 X20.994561 Y10.200078 Z-0.125000 I0.686325 J1.130314
G02 X20.835982 Y10.371957 Z-0.125000 I0.815354 J0.911352
G02 X20.713185 Y10.574026 Z-0.125000 I0.991735 J0.741026
G02 X20.616585 Y10.825658 Z-0.125000 I1.448216 J0.700317
G02 X20.561996 Y11.090064 Z-0.125000 I1.893088 J0.528688
G02 X20.543454 Y11.364618 Z-0.125000 I2.023375 J0.274554
G02 X20.580589 Y11.747194 Z-0.125000 I1.989232 J0.000000
G02 X20.692643 Y12.125858 Z-0.125000 I2.060431 J-0.403808
G02 X20.875311 Y12.477035 Z-0.125000 I1.831329 J-0.729486
G02 X21.075857 Y12.710490 Z-0.125000 I0.996617 J-0.653261
G02 X21.329946 Y12.889417 Z-0.125000 I0.923281 J-1.041250
G02 X21.619961 Y13.008898 Z-0.125000 I0.681724 J-1.243028
G02 X21.930253 Y13.074942 Z-0.125000 I0.624603 J-2.172598
G02 X22.248898 Y13.097202 Z-0.125000 I0.318646 J-2.269514
G02 X22.579525 Y13.075881 Z-0.125000 I0.000000 J-2.574140
G02 X22.883687 Y13.014988 Z-0.125000 I-0.289825 J-2.237786
G02 X23.169157 Y12.902143 Z-0.125000 I-0.317964 J-1.221872
G02 X23.398538 Y12.734852 Z-0.125000 I-0.516179 J-0.948665
G02 X23.581201 Y12.515904 Z-0.125000 I-0.868595 J-0.910316
G02 X23.696918 Y12.281151 Z-0.125000 I-0.885689 J-0.582481
G02 X23.763793 Y12.024276 Z-0.125000 I-1.392684 J-0.499714
G02 X23.787602 Y11.736104 Z-0.125000 I-1.732033 J-0.288172
G02 X23.779125 Y11.563290 Z-0.125000 I-1.765802 J0.000000
G02 X23.749573 Y11.349392 Z-0.125000 I-2.737035 J0.269157
G01 X21.698944 Y11.346344 Z-0.125000
G03 X21.696672 Y11.297607 Z-0.125000 I1.812455 J-0.108882
G03 X21.696017 Y11.258039 Z-0.125000 I1.193859 J-0.039568
G01 X21.761198 Y10.963418 Z-0.125000
G01 X21.921264 Y10.773893 Z-0.125000
G01 X22.159932 Y10.661705 Z-0.125000
G03 X22.471219 Y10.618597 Z-0.125000 I0.311287 J1.102375
G03 X22.663369 Y10.628571 Z-0.125000 I-0.000000 J1.855940
G03 X22.910013 Y10.664272 Z-0.125000 I-0.322357 J3.096849
G03 X23.156660 Y10.720926 Z-0.125000 I-0.753517 J3.845687
G03 X23.521399 Y10.825655 Z-0.125000 I-2.248858 J8.519602
G01 X23.521400 Y10.825655 Z-0.125000
G00 Z5.000000

(End cutting path id: path16088)


(Start cutting path id: path16088)
(Change tool to Default tool)

G00 Z5.000000
G00 X21.722346 Y11.812225

G01 Z-0.125000 F100.0(Penetrate)
G01 X22.687692 Y11.812225 Z-0.125000 F400.000000
G03 X22.690014 Y11.864004 Z-0.125000 I-2.216337 J0.125312
G03 X22.690619 Y11.900529 Z-0.125000 I-1.102056 J0.036525
G01 X22.674921 Y12.055206 Z-0.125000
G01 X22.635038 Y12.171530 Z-0.125000
G01 X22.567995 Y12.270244 Z-0.125000
G01 X22.479998 Y12.335959 Z-0.125000
G01 X22.377142 Y12.373839 Z-0.125000
G01 X22.254751 Y12.387721 Z-0.125000
G01 X22.168375 Y12.380032 Z-0.125000
G01 X22.085083 Y12.357272 Z-0.125000
G01 X22.007375 Y12.322475 Z-0.125000
G01 X21.935894 Y12.272016 Z-0.125000
G01 X21.876804 Y12.212742 Z-0.125000
G01 X21.827658 Y12.144124 Z-0.125000
G01 X21.788400 Y12.069022 Z-0.125000
G01 X21.763302 Y12.001012 Z-0.125000
G01 X21.745655 Y11.933356 Z-0.125000
G03 X21.722347 Y11.812225 Z-0.125000 I2.561491 J-0.555672
G01 X21.722346 Y11.812225 Z-0.125000
G00 Z5.000000

(End cutting path id: path16088)


(Start cutting path id: path16086)
(Change tool to Default tool)

G00 Z5.000000
G00 X16.524102 Y9.906073

G01 Z-0.125000 F100.0(Penetrate)
G03 X16.595772 Y10.598436 Z-0.125000 I-18.207077 J2.234587 F400.000000
G03 X16.652815 Y11.431603 Z-0.125000 I-26.311474 J2.219966
G03 X16.690924 Y12.269262 Z-0.125000 I-40.350574 J2.255399
G03 X16.708396 Y13.014985 Z-0.125000 I-31.961108 J1.121912
G03 X17.059442 Y13.010170 Z-0.125000 I0.835363 J48.103965
G03 X17.313931 Y13.008889 Z-0.125000 I0.254489 J25.279243
G03 X17.609368 Y13.010476 Z-0.125000 I-0.000000 J27.505227
G03 X17.881438 Y13.014985 Z-0.125000 I-0.250612 J23.330706
G01 X17.852185 Y12.600870 Z-0.125000
G02 X17.951289 Y12.711043 Z-0.125000 I2.333685 J-1.999559
G02 X18.018926 Y12.777479 Z-0.125000 I0.914652 J-0.863549
G01 X18.092780 Y12.839663 Z-0.125000
G02 X18.191518 Y12.905368 Z-0.125000 I0.698675 J-0.942894
G02 X18.299690 Y12.963169 Z-0.125000 I0.579585 J-0.954543
G02 X18.413841 Y13.008895 Z-0.125000 I0.473892 J-1.017669
G02 X18.532194 Y13.042998 Z-0.125000 I0.432315 J-1.277924
G02 X18.668341 Y13.069796 Z-0.125000 I0.398475 J-1.665205
G02 X18.809298 Y13.087853 Z-0.125000 I0.273961 J-1.579419
G02 X18.960870 Y13.094152 Z-0.125000 I0.151573 J-1.820488
G02 X19.169996 Y13.081756 Z-0.125000 I0.000000 J-1.770304
G02 X19.370412 Y13.045432 Z-0.125000 I-0.197684 J-1.661738
G02 X19.565901 Y12.984796 Z-0.125000 I-0.288971 J-1.277092
G01 X19.706820 Y12.911455 Z-0.125000
G01 X19.830308 Y12.814657 Z-0.125000
G01 X19.932067 Y12.695262 Z-0.125000
G01 X20.007685 Y12.560910 Z-0.125000
G01 X20.052004 Y12.418167 Z-0.125000
G02 X20.073778 Y12.268239 Z-0.125000 I-1.505812 J-0.295232
G02 X20.081257 Y12.110630 Z-0.125000 I-1.656952 J-0.157609
G02 X20.078550 Y11.995001 Z-0.125000 I-2.470121 J-0.000000
G02 X20.057855 Y11.611254 Z-0.125000 I-27.241031 J1.276577
G01 X20.008125 Y10.508973 Z-0.125000
G03 X19.996858 Y10.183089 Z-0.125000 I15.806555 J-0.709655
G03 X19.993498 Y9.906071 Z-0.125000 I11.417848 J-0.277019
G03 X19.698029 Y9.910726 Z-0.125000 I-0.634698 J-30.904961
G03 X19.440617 Y9.912138 Z-0.125000 I-0.257411 J-23.454642
G03 X19.092525 Y9.910475 Z-0.125000 I-0.000000 J-36.417731
G03 X18.805829 Y9.906071 Z-0.125000 I0.236180 J-24.708210
G03 X18.828379 Y10.183446 Z-0.125000 I-10.174292 J0.966725
G03 X18.861410 Y10.728212 Z-0.125000 I-39.217911 J2.651298
G03 X18.886446 Y11.276420 Z-0.125000 I-35.659989 J1.903260
G03 X18.890663 Y11.498589 Z-0.125000 I-5.850763 J0.222169
G03 X18.847453 Y11.825278 Z-0.125000 I-1.256582 J-0.000000
G01 X18.761950 Y11.976648 Z-0.125000
G01 X18.620151 Y12.077239 Z-0.125000
G01 X18.443093 Y12.113672 Z-0.125000
G01 X18.282843 Y12.085736 Z-0.125000
G01 X18.121311 Y11.997964 Z-0.125000
G01 X17.995922 Y11.864823 Z-0.125000
G01 X17.890213 Y11.659972 Z-0.125000
G03 X17.830874 Y11.435844 Z-0.125000 I1.101644 J-0.411583
G03 X17.773201 Y10.935273 Z-0.125000 I5.483664 J-0.885406
G03 X17.746328 Y10.429579 Z-0.125000 I24.104345 J-1.534518
G03 X17.729322 Y9.906071 Z-0.125000 I25.815782 J-1.100645
G03 X17.436777 Y9.910660 Z-0.125000 I-0.600586 J-28.954371
G03 X17.158890 Y9.912138 Z-0.125000 I-0.277887 J-26.124203
G03 X16.866373 Y9.910740 Z-0.125000 I-0.000000 J-30.603425
G03 X16.524102 Y9.906071 Z-0.125000 I0.400554 J-41.904499
G01 X16.524102 Y9.906073 Z-0.125000
G00 Z5.000000

(End cutting path id: path16086)


(Start cutting path id: path16084)
(Change tool to Default tool)

G00 Z5.000000
G00 X13.639764 Y9.963929

G01 Z-0.125000 F100.0(Penetrate)
G02 X13.628316 Y10.097929 Z-0.125000 I35.547593 J3.104508 F400.000000
G02 X13.616362 Y10.244066 Z-0.125000 I42.265879 J3.530779
G03 X13.603568 Y10.393172 Z-0.125000 I-10.169253 J-0.797490
G03 X13.578333 Y10.652091 Z-0.125000 I-30.689839 J-2.860339
G01 X13.554932 Y10.871330 Z-0.125000
G03 X13.840969 Y10.762263 Z-0.125000 I2.522908 J6.186968
G03 X14.043455 Y10.697766 Z-0.125000 I1.077950 J3.034064
G03 X14.249850 Y10.655309 Z-0.125000 I0.464753 J1.736397
G03 X14.420818 Y10.642958 Z-0.125000 I0.170968 J1.177153
G03 X14.562877 Y10.651352 Z-0.125000 I0.000000 J1.206389
G01 X14.651916 Y10.670362 Z-0.125000
G01 X14.735901 Y10.707612 Z-0.125000
G01 X14.783554 Y10.749531 Z-0.125000
G01 X14.814955 Y10.804616 Z-0.125000
G01 X14.824508 Y10.856107 Z-0.125000
G01 X14.816836 Y10.902393 Z-0.125000
G01 X14.792330 Y10.950499 Z-0.125000
G01 X14.757393 Y10.994122 Z-0.125000
G03 X14.654841 Y11.081430 Z-0.125000 I-0.834317 J-0.876100
G02 X14.416183 Y11.265678 Z-0.125000 I13.992958 J18.371962
G02 X14.230674 Y11.413335 Z-0.125000 I8.800946 J11.247429
G02 X14.055849 Y11.569027 Z-0.125000 I1.898605 J2.307914
G02 X13.955696 Y11.678246 Z-0.125000 I0.830798 J0.862369
G01 X13.874813 Y11.799439 Z-0.125000
G01 X13.815282 Y11.927933 Z-0.125000
G01 X13.780311 Y12.063920 Z-0.125000
G01 X13.768478 Y12.205025 Z-0.125000
G01 X13.803118 Y12.447794 Z-0.125000
G01 X13.905966 Y12.676996 Z-0.125000
G01 X14.074453 Y12.861107 Z-0.125000
G01 X14.315508 Y12.993672 Z-0.125000
G02 X14.592745 Y13.065150 Z-0.125000 I0.489557 J-1.325418
G02 X14.976624 Y13.094157 Z-0.125000 I0.383878 J-2.525625
G02 X15.381404 Y13.072852 Z-0.125000 I0.000000 J-3.855946
G02 X16.015102 Y12.984537 Z-0.125000 I-1.008549 J-9.554358
G01 X16.061907 Y12.128901 Z-0.125000
G03 X15.701199 Y12.241040 Z-0.125000 I-0.800424 J-1.938448
G03 X15.380314 Y12.275058 Z-0.125000 I-0.320886 J-1.496426
G03 X15.152823 Y12.258670 Z-0.125000 I-0.000000 J-1.587198
G01 X15.043905 Y12.226338 Z-0.125000
G01 X14.967578 Y12.161163 Z-0.125000
G01 X14.941520 Y12.077136 Z-0.125000
G01 X14.944509 Y12.044199 Z-0.125000
G01 X14.953221 Y12.013190 Z-0.125000
G01 X14.967757 Y11.984450 Z-0.125000
G01 X14.994175 Y11.949249 Z-0.125000
G01 X15.027323 Y11.916794 Z-0.125000
G03 X15.070232 Y11.879213 Z-0.125000 I0.775516 J0.842193
G02 X15.116923 Y11.845561 Z-0.125000 I-4.948272 J-6.914739
G02 X15.292555 Y11.717830 Z-0.125000 I-71.115772 J-97.969462
G02 X15.466556 Y11.587991 Z-0.125000 I-5.617025 J-7.709086
G02 X15.567532 Y11.507730 Z-0.125000 I-2.044187 J-2.675415
G02 X15.723504 Y11.366307 Z-0.125000 I-1.308237 J-1.599544
G01 X15.816182 Y11.258042 Z-0.125000
G01 X15.893449 Y11.139745 Z-0.125000
G01 X15.947820 Y11.014442 Z-0.125000
G01 X15.982540 Y10.884414 Z-0.125000
G01 X15.994625 Y10.743441 Z-0.125000
G01 X15.968193 Y10.534149 Z-0.125000
G01 X15.892239 Y10.344551 Z-0.125000
G01 X15.771731 Y10.185306 Z-0.125000
G01 X15.588009 Y10.043098 Z-0.125000
G02 X15.378609 Y9.940973 Z-0.125000 I-0.675887 J1.120108
G02 X15.149215 Y9.875624 Z-0.125000 I-0.488955 J1.281100
G02 X14.911000 Y9.839357 Z-0.125000 I-0.469604 J2.284041
G02 X14.660692 Y9.826907 Z-0.125000 I-0.250309 J2.510031
G02 X14.491380 Y9.832935 Z-0.125000 I0.000000 J2.380879
G02 X14.233599 Y9.857356 Z-0.125000 I0.395498 J5.547462
G02 X13.980366 Y9.895195 Z-0.125000 I0.520026 J4.346518
G02 X13.639765 Y9.963929 Z-0.125000 I1.424045 J7.934925
G01 X13.639764 Y9.963929 Z-0.125000
G00 Z5.000000

(End cutting path id: path16084)


(Start cutting path id: path16082)
(Change tool to Default tool)

G00 Z5.000000
G00 X11.773428 Y9.906073

G01 Z-0.125000 F100.0(Penetrate)
G03 X11.812566 Y10.277740 Z-0.125000 I-38.045056 J4.194205 F400.000000
G03 X11.834859 Y10.518115 Z-0.125000 I-15.890799 J1.594971
G03 X11.852546 Y10.758848 Z-0.125000 I-10.377553 J0.883445
G03 X11.872888 Y11.133195 Z-0.125000 I-25.075737 J1.550369
G03 X11.891068 Y11.507827 Z-0.125000 I-30.538015 J1.669710
G03 X11.907991 Y11.961427 Z-0.125000 I-44.752871 J1.896783
G03 X11.920345 Y12.415181 Z-0.125000 I-45.274299 J1.459671
G03 X11.931393 Y13.014985 Z-0.125000 I-79.099667 J1.756979
G03 X12.311690 Y13.010032 Z-0.125000 I1.014257 J63.272613
G03 X12.539854 Y13.008889 Z-0.125000 I0.228164 J22.773751
G03 X12.747541 Y13.009950 Z-0.125000 I0.000000 J20.332312
G03 X13.136614 Y13.014985 Z-0.125000 I-0.728974 J71.361917
G03 X13.090912 Y12.439204 Z-0.125000 I41.157081 J-3.556471
G03 X13.063481 Y12.004057 Z-0.125000 I23.478943 J-1.698512
G03 X13.047026 Y11.568509 Z-0.125000 I23.577351 J-1.108832
G03 X13.037153 Y11.081430 Z-0.125000 I29.476980 J-0.841169
G03 X13.026998 Y10.216651 Z-0.125000 I241.890970 J-3.272957
G03 X13.025452 Y9.906073 Z-0.125000 I31.197500 J-0.310578
G03 X12.677331 Y9.910869 Z-0.125000 I-0.829939 J-47.613813
G03 X12.425767 Y9.912141 Z-0.125000 I-0.251564 J-24.862305
G03 X12.177126 Y9.910985 Z-0.125000 I-0.000000 J-26.732308
G03 X11.773427 Y9.906073 Z-0.125000 I0.655537 J-70.476090
G01 X11.773428 Y9.906073 Z-0.125000
G00 Z5.000000

(End cutting path id: path16082)


(Start cutting path id: path16080)
(Change tool to Default tool)

G00 Z5.000000
G00 X8.461998 Y10.822610

G01 Z-0.125000 F100.0(Penetrate)
G03 X8.623076 Y10.811339 Z-0.125000 I0.309712 J3.269678 F400.000000
G03 X8.798406 Y10.807370 Z-0.125000 I0.175330 J3.870246
G03 X9.095026 Y10.822599 Z-0.125000 I-0.000000 J2.896312
G03 X9.330809 Y10.862183 Z-0.125000 I-0.192199 J1.866840
G01 X9.547612 Y10.947522 Z-0.125000
G01 X9.740350 Y11.096642 Z-0.125000
G01 X9.890209 Y11.293354 Z-0.125000
G03 X10.003626 Y11.556433 Z-0.125000 I-1.102510 J0.631297
G03 X10.067148 Y11.842738 Z-0.125000 I-1.932915 J0.579048
G03 X10.088460 Y12.134977 Z-0.125000 I-1.993000 J0.292239
G03 X10.052316 Y12.488643 Z-0.125000 I-1.748402 J0.000000
G01 X9.962673 Y12.743970 Z-0.125000
G01 X9.807042 Y12.962802 Z-0.125000
G01 X9.626264 Y13.091095 Z-0.125000
G01 X9.411860 Y13.158440 Z-0.125000
G03 X9.058757 Y13.188532 Z-0.125000 I-0.353103 J-2.056587
G03 X8.848259 Y13.184669 Z-0.125000 I-0.000000 J-5.736720
G03 X8.561457 Y13.170273 Z-0.125000 I0.391617 J-10.665586
G01 X8.461998 Y10.822610 Z-0.125000
G00 Z5.000000

(End cutting path id: path16080)


(Start cutting path id: path16080)
(Change tool to Default tool)

G00 Z5.000000
G00 X7.198272 Y9.906073

G01 Z-0.125000 F100.0(Penetrate)
G03 X7.257887 Y10.600681 Z-0.125000 I-50.906925 J4.718983 F400.000000
G03 X7.286030 Y11.017490 Z-0.125000 I-18.300670 J1.445041
G03 X7.317153 Y11.638844 Z-0.125000 I-48.484149 J2.739916
G03 X7.356237 Y12.625231 Z-0.125000 I-122.148219 J5.333961
G03 X7.378599 Y13.380451 Z-0.125000 I-71.918000 J2.507439
G03 X7.382566 Y13.706193 Z-0.125000 I-13.373906 J0.325742
G01 X7.382566 Y14.062453 Z-0.125000
G03 X7.724850 Y14.055255 Z-0.125000 I0.813693 J30.550742
G03 X7.973475 Y14.053337 Z-0.125000 I0.248624 J16.116494
G03 X8.213312 Y14.055662 Z-0.125000 I0.000000 J12.374609
G03 X8.602413 Y14.065529 Z-0.125000 I-0.631604 J32.581969
G02 X8.991546 Y14.077204 Z-0.125000 I0.832002 J-21.240259
G02 X9.333735 Y14.080769 Z-0.125000 I0.342189 J-16.420656
G02 X9.724592 Y14.066937 Z-0.125000 I-0.000000 J-5.528851
G02 X10.021179 Y14.032049 Z-0.125000 I-0.227884 J-3.215460
G02 X10.306974 Y13.956974 Z-0.125000 I-0.257549 J-1.561955
G02 X10.571134 Y13.831082 Z-0.125000 I-0.532854 J-1.458174
G02 X10.806754 Y13.655294 Z-0.125000 I-0.701364 J-1.185891
G02 X11.001152 Y13.432192 Z-0.125000 I-0.949419 J-1.023509
G02 X11.148692 Y13.173797 Z-0.125000 I-1.330345 J-0.930931
G02 X11.264428 Y12.853647 Z-0.125000 I-1.934497 J-0.880325
G02 X11.332040 Y12.521668 Z-0.125000 I-2.397995 J-0.661260
G02 X11.355112 Y12.174618 Z-0.125000 I-2.598666 J-0.347050
G02 X11.337070 Y11.832499 Z-0.125000 I-3.252761 J-0.000000
G02 X11.284905 Y11.510817 Z-0.125000 I-2.926849 J0.309558
G02 X11.197580 Y11.200151 Z-0.125000 I-2.822155 J0.625674
G02 X11.088911 Y10.938363 Z-0.125000 I-2.109869 J0.722369
G02 X10.947468 Y10.693264 Z-0.125000 I-1.915246 J0.941888
G02 X10.793456 Y10.496844 Z-0.125000 I-1.379989 J0.923456
G02 X10.615304 Y10.328043 Z-0.125000 I-1.249962 J1.140803
G02 X10.410243 Y10.183213 Z-0.125000 I-1.121527 J1.370352
G02 X10.245153 Y10.094839 Z-0.125000 I-0.914632 J1.510218
G02 X10.085535 Y10.030965 Z-0.125000 I-0.631830 J1.347539
G02 X9.919303 Y9.986950 Z-0.125000 I-0.426314 J1.274162
G02 X9.637966 Y9.942658 Z-0.125000 I-0.713405 J3.615766
G02 X9.321447 Y9.916315 Z-0.125000 I-0.568439 J4.915297
G02 X8.921269 Y9.906121 Z-0.125000 I-0.400178 J7.849850
G01 X7.739451 Y9.915237 Z-0.125000
G03 X7.572727 Y9.913833 Z-0.125000 I-0.000000 J-9.899389
G03 X7.198273 Y9.906121 Z-0.125000 I0.841301 J-49.945738
G01 X7.198272 Y9.906073 Z-0.125000
G00 Z5.000000

(End cutting path id: path16080)


(Start cutting path id: path16082)
(Change tool to Default tool)

G00 Z5.000000
G00 X11.957721 Y13.401695

G01 Z-0.125000 F100.0(Penetrate)
G03 X11.972054 Y13.764126 Z-0.125000 I-20.412056 J0.988703 F400.000000
G03 X11.975273 Y13.974149 Z-0.125000 I-6.850061 J0.210022
G03 X11.974731 Y14.035042 Z-0.125000 I-3.421770 J-0.000000
G03 X11.972346 Y14.138580 Z-0.125000 I-9.895600 J-0.176128
G03 X12.326317 Y14.133715 Z-0.125000 I0.876417 J50.888608
G03 X12.566180 Y14.132484 Z-0.125000 I0.239863 J23.365987
G03 X12.896717 Y14.134223 Z-0.125000 I0.000000 J31.407470
G03 X13.145388 Y14.138580 Z-0.125000 I-0.187134 J17.780431
G03 X13.137507 Y14.044123 Z-0.125000 I4.979593 J-0.463017
G03 X13.133687 Y13.980239 Z-0.125000 I2.273689 J-0.168019
G01 X13.116136 Y13.602665 Z-0.125000
G03 X13.111968 Y13.517348 Z-0.125000 I2.162526 J-0.148392
G03 X13.110285 Y13.401695 Z-0.125000 I3.972832 J-0.115653
G03 X12.820666 Y13.406331 Z-0.125000 I-0.604806 J-28.732658
G03 X12.554480 Y13.407791 Z-0.125000 I-0.266186 J-24.269653
G03 X12.279516 Y13.406386 Z-0.125000 I0.000000 J-26.918650
G03 X11.957720 Y13.401695 Z-0.125000 I0.376672 J-36.873819
G01 X11.957721 Y13.401695 Z-0.125000
G00 Z5.000000

(End cutting path id: path16082)


(Start cutting path id: path16072)
(Change tool to Default tool)

G00 Z5.000000
G00 X20.496648 Y17.701190

G01 Z-0.125000 F100.0(Penetrate)
G03 X20.565524 Y18.420168 Z-0.125000 I-60.749289 J6.182386 F400.000000
G03 X20.601959 Y18.873498 Z-0.125000 I-24.113466 J2.166157
G03 X20.655536 Y19.702162 Z-0.125000 I-43.722807 J3.242977
G03 X20.692643 Y20.517781 Z-0.125000 I-42.319886 J2.333986
G03 X20.718570 Y21.337001 Z-0.125000 I-53.698387 J2.109537
G03 X20.724821 Y21.857567 Z-0.125000 I-21.674551 J0.520566
G03 X21.122671 Y21.852821 Z-0.125000 I0.913253 J59.878330
G03 X21.429816 Y21.851499 Z-0.125000 I0.307146 J35.686251
G03 X21.637504 Y21.852555 Z-0.125000 I-0.000000 J20.426916
G03 X22.026576 Y21.857567 Z-0.125000 I-0.728972 J71.693621
G01 X21.956369 Y20.755288 Z-0.125000
G01 X21.868610 Y19.031839 Z-0.125000
G01 X21.856909 Y18.608588 Z-0.125000
G03 X22.360069 Y18.600530 Z-0.125000 I2.167941 J119.660648
G03 X22.512175 Y18.599472 Z-0.125000 I0.152106 J10.933745
G03 X23.281336 Y18.606510 Z-0.125000 I0.000000 J42.034369
G03 X23.676441 Y18.620780 Z-0.125000 I-0.203205 J11.103227
G01 X23.612084 Y17.701201 Z-0.125000
G03 X22.842727 Y17.705827 Z-0.125000 I-1.619570 J-205.350064
G03 X22.146513 Y17.707269 Z-0.125000 I-0.696214 J-168.158855
G03 X21.204576 Y17.705537 Z-0.125000 I0.000001 J-256.119864
G03 X20.496648 Y17.701201 Z-0.125000 I0.532073 J-144.673826
G01 X20.496648 Y17.701190 Z-0.125000
G00 Z5.000000

(End cutting path id: path16072)


(Start cutting path id: path16074)
(Change tool to Default tool)

G00 Z5.000000
G00 X25.721235 Y19.994048

G01 Z-0.125000 F100.0(Penetrate)
G01 X25.542208 Y19.967661 Z-0.125000 F400.000000
G01 X25.387753 Y19.893562 Z-0.125000
G01 X25.264098 Y19.775149 Z-0.125000
G01 X25.165429 Y19.598203 Z-0.125000
G03 X25.111715 Y19.402793 Z-0.125000 I0.988320 J-0.376757
G03 X25.092300 Y19.177996 Z-0.125000 I1.291694 J-0.224796
G03 X25.140619 Y18.861523 Z-0.125000 I1.060547 J0.000000
G01 X25.253189 Y18.663398 Z-0.125000
G01 X25.434618 Y18.533280 Z-0.125000
G01 X25.656880 Y18.486789 Z-0.125000
G01 X25.833046 Y18.512973 Z-0.125000
G01 X25.987438 Y18.587271 Z-0.125000
G01 X26.110431 Y18.708652 Z-0.125000
G01 X26.206835 Y18.888724 Z-0.125000
G03 X26.263137 Y19.093305 Z-0.125000 I-1.065824 J0.403360
G03 X26.282891 Y19.318066 Z-0.125000 I-1.268793 J0.224761
G03 X26.267065 Y19.503917 Z-0.125000 I-1.099185 J-0.000000
G01 X26.224386 Y19.659101 Z-0.125000
G01 X26.146351 Y19.795855 Z-0.125000
G01 X26.031315 Y19.902698 Z-0.125000
G01 X25.891973 Y19.969421 Z-0.125000
G01 X25.721235 Y19.994048 Z-0.125000
G01 X25.721235 Y19.994048 Z-0.125000
G00 Z5.000000

(End cutting path id: path16074)


(Start cutting path id: path16074)
(Change tool to Default tool)

G00 Z5.000000
G00 X25.741696 Y20.889268

G01 Z-0.125000 F100.0(Penetrate)
G02 X26.099456 Y20.859741 Z-0.125000 I0.000000 J-2.182127 F400.000000
G02 X26.437916 Y20.773557 Z-0.125000 I-0.338654 J-2.037642
G02 X26.755612 Y20.626995 Z-0.125000 I-0.564552 J-1.641371
G02 X27.005422 Y20.438610 Z-0.125000 I-0.705544 J-1.195416
G02 X27.206039 Y20.202155 Z-0.125000 I-0.922020 J-0.985608
G02 X27.344758 Y19.930102 Z-0.125000 I-1.088759 J-0.726546
G02 X27.426803 Y19.635431 Z-0.125000 I-1.499928 J-0.576384
G02 X27.455917 Y19.305885 Z-0.125000 I-1.850575 J-0.329546
G02 X27.430332 Y18.984266 Z-0.125000 I-2.034290 J-0.000000
G02 X27.356459 Y18.684711 Z-0.125000 I-1.836892 J0.294110
G02 X27.230405 Y18.409573 Z-0.125000 I-1.301275 J0.429730
G02 X27.025900 Y18.133574 Z-0.125000 I-1.514059 J0.908094
G02 X26.767067 Y17.915304 Z-0.125000 I-0.969403 J0.886956
G02 X26.429141 Y17.749907 Z-0.125000 I-0.877391 J1.364701
G02 X26.063620 Y17.655119 Z-0.125000 I-0.721345 J2.029493
G02 X25.665640 Y17.622018 Z-0.125000 I-0.397980 J2.375955
G02 X25.298743 Y17.650795 Z-0.125000 I0.000000 J2.353240
G02 X24.951867 Y17.734681 Z-0.125000 I0.345003 J2.185756
G02 X24.628325 Y17.878926 Z-0.125000 I0.547255 J1.662466
G02 X24.378511 Y18.063537 Z-0.125000 I0.669570 J1.167385
G02 X24.179708 Y18.299454 Z-0.125000 I0.948330 J1.000865
G02 X24.033326 Y18.581184 Z-0.125000 I1.214866 J0.810115
G02 X23.948417 Y18.887973 Z-0.125000 I1.624030 J0.614622
G02 X23.919240 Y19.214536 Z-0.125000 I1.812916 J0.326563
G02 X23.947703 Y19.541357 Z-0.125000 I1.890559 J0.000000
G02 X24.030401 Y19.847887 Z-0.125000 I1.744059 J-0.306104
G02 X24.174391 Y20.129922 Z-0.125000 I1.345881 J-0.509355
G02 X24.387286 Y20.389892 Z-0.125000 I1.353297 J-0.891084
G02 X24.653851 Y20.597068 Z-0.125000 I1.037426 J-1.059738
G02 X24.992821 Y20.758334 Z-0.125000 I0.952987 J-1.566239
G02 X25.358494 Y20.856020 Z-0.125000 I0.736729 J-2.024558
G02 X25.741696 Y20.889268 Z-0.125000 I0.383202 J-2.191714
G01 X25.741696 Y20.889268 Z-0.125000
G00 Z5.000000

(End cutting path id: path16074)


(Start cutting path id: path16076)
(Change tool to Default tool)

G00 Z5.000000
G00 X28.052675 Y21.205944

G01 Z-0.125000 F100.0(Penetrate)
G03 X28.077140 Y21.650688 Z-0.125000 I-20.653942 J1.359167 F400.000000
G03 X28.084857 Y21.933690 Z-0.125000 I-8.353857 J0.369417
G03 X28.324752 Y21.929380 Z-0.125000 I0.409551 J16.115434
G03 X28.664065 Y21.927594 Z-0.125000 I0.339313 J32.239591
G03 X28.968276 Y21.929212 Z-0.125000 I0.000000 J28.614127
G03 X29.237422 Y21.933690 Z-0.125000 I-0.238181 J22.401979
G03 X29.211172 Y21.488977 Z-0.125000 I32.938236 J-2.167319
G03 X29.199392 Y21.205944 Z-0.125000 I13.329198 J-0.696536
G03 X28.912678 Y21.212781 Z-0.125000 I-0.573647 J-18.040395
G03 X28.626035 Y21.215059 Z-0.125000 I-0.286642 J-18.029002
G03 X28.330618 Y21.212711 Z-0.125000 I-0.000000 J-18.583353
G03 X28.052675 Y21.205944 Z-0.125000 I0.261640 J-16.456538
G01 X28.052675 Y21.205944 Z-0.125000
G00 Z5.000000

(End cutting path id: path16076)


(Start cutting path id: path16076)
(Change tool to Default tool)

G00 Z5.000000
G00 X29.205243 Y20.810099

G01 Z-0.125000 F100.0(Penetrate)
G01 X29.143809 Y19.260211 Z-0.125000 F400.000000
G01 X29.114556 Y17.822985 Z-0.125000
G03 X29.109120 Y17.524576 Z-0.125000 I102.644839 J-2.019230
G03 X29.108686 Y17.472815 Z-0.125000 I3.087639 J-0.051761
G02 X29.093263 Y17.124293 Z-0.125000 I-3.945615 J0.000000
G02 X29.056032 Y16.879048 Z-0.125000 I-1.987008 J0.176204
G01 X28.974998 Y16.649789 Z-0.125000
G01 X28.851260 Y16.486245 Z-0.125000
G01 X28.684614 Y16.362902 Z-0.125000
G01 X28.470974 Y16.279187 Z-0.125000
G02 X28.243478 Y16.235225 Z-0.125000 I-0.413681 J1.530110
G02 X27.956122 Y16.218290 Z-0.125000 I-0.287356 J2.429410
G02 X27.783718 Y16.222647 Z-0.125000 I0.000000 J3.412655
G02 X27.534882 Y16.239597 Z-0.125000 I0.360588 J7.128553
G02 X27.284265 Y16.267943 Z-0.125000 I0.378420 J4.467914
G02 X26.976150 Y16.318763 Z-0.125000 I0.964310 J6.805825
G03 X26.952870 Y16.650208 Z-0.125000 I-9.599002 J-0.507685
G03 X26.897167 Y17.220074 Z-0.125000 I-28.437217 J-2.491981
G03 X27.160203 Y17.155285 Z-0.125000 I0.634077 J2.007949
G03 X27.356439 Y17.137860 Z-0.125000 I0.196236 J1.096227
G01 X27.513314 Y17.154973 Z-0.125000
G01 X27.646041 Y17.201806 Z-0.125000
G01 X27.740171 Y17.260540 Z-0.125000
G01 X27.806933 Y17.329692 Z-0.125000
G01 X27.854979 Y17.413737 Z-0.125000
G01 X27.897617 Y17.542840 Z-0.125000
G01 X27.919663 Y17.662731 Z-0.125000
G03 X27.947347 Y17.947821 Z-0.125000 I-5.601139 J0.687803
G03 X27.976297 Y18.508367 Z-0.125000 I-25.531292 J1.599604
G03 X28.002925 Y19.315010 Z-0.125000 I-52.846868 J2.148295
G03 X28.014485 Y20.000162 Z-0.125000 I-76.031277 J1.625490
G03 X28.017573 Y20.499505 Z-0.125000 I-40.380628 J0.499342
G01 X28.017573 Y20.810090 Z-0.125000
G03 X28.365697 Y20.805281 Z-0.125000 I0.824414 J47.078248
G03 X28.620185 Y20.803994 Z-0.125000 I0.254488 J25.157108
G03 X28.889298 Y20.805396 Z-0.125000 I-0.000000 J25.829329
G03 X29.205243 Y20.810090 Z-0.125000 I-0.370996 J35.606035
G01 X29.205243 Y20.810099 Z-0.125000
G00 Z5.000000

(End cutting path id: path16076)


(Start cutting path id: path16078)
(Change tool to Default tool)

G00 Z5.000000
G00 X30.044803 Y19.924011

G01 Z-0.125000 F100.0(Penetrate)
G03 X30.098202 Y20.225806 Z-0.125000 I-20.950685 J3.862619 F400.000000
G03 X30.115009 Y20.338130 Z-0.125000 I-2.884375 J0.488988
G02 X30.129865 Y20.453811 Z-0.125000 I32.020295 J-4.053399
G02 X30.161812 Y20.697436 Z-0.125000 I142.049367 J-18.503590
G02 X31.008753 Y20.849626 Z-0.125000 I2.073504 J-9.106373
G02 X31.609833 Y20.889268 Z-0.125000 I0.601080 J-4.537175
G02 X31.951901 Y20.867107 Z-0.125000 I0.000000 J-2.651147
G02 X32.241694 Y20.807054 Z-0.125000 I-0.254980 J-1.959663
G02 X32.508207 Y20.695355 Z-0.125000 I-0.302650 J-1.095924
G01 X32.689265 Y20.548230 Z-0.125000
G01 X32.801837 Y20.350105 Z-0.125000
G02 X32.850157 Y20.033629 Z-0.125000 I-1.012223 J-0.316475
G02 X32.845290 Y19.863292 Z-0.125000 I-2.983363 J0.000000
G02 X32.806274 Y19.266301 Z-0.125000 I-36.712220 J2.099535
G03 X32.771490 Y18.669044 Z-0.125000 I19.610395 J-1.441738
G03 X32.738995 Y17.701190 Z-0.125000 I51.472306 J-2.212624
G03 X32.452301 Y17.705748 Z-0.125000 I-0.576441 J-27.234537
G03 X32.168562 Y17.707257 Z-0.125000 I-0.283739 J-26.674343
G03 X31.893598 Y17.705832 Z-0.125000 I0.000000 J-26.513547
G03 X31.583504 Y17.701190 Z-0.125000 I0.349782 J-33.726187
G03 X31.615017 Y18.036934 Z-0.125000 I-5.960944 J0.728838
G03 X31.674188 Y19.083601 Z-0.125000 I-57.913761 J3.799035
G02 X31.562180 Y19.030745 Z-0.125000 I-1.594141 J3.233018
G02 X31.498671 Y19.004433 Z-0.125000 I-0.456605 J1.012290
G02 X31.436629 Y18.981820 Z-0.125000 I-0.435093 J1.097362
G02 X31.279274 Y18.931354 Z-0.125000 I-2.336200 J7.013743
G03 X31.121841 Y18.881056 Z-0.125000 I2.413211 J-7.824972
G03 X31.030625 Y18.849140 Z-0.125000 I0.878904 J-2.658164
G01 X30.946041 Y18.809968 Z-0.125000
G01 X30.875586 Y18.763880 Z-0.125000
G01 X30.816747 Y18.707541 Z-0.125000
G01 X30.781973 Y18.657308 Z-0.125000
G01 X30.762630 Y18.600906 Z-0.125000
G01 X30.755642 Y18.535506 Z-0.125000
G01 X30.775851 Y18.440813 Z-0.125000
G01 X30.834622 Y18.358900 Z-0.125000
G01 X30.922718 Y18.309085 Z-0.125000
G01 X31.086197 Y18.285821 Z-0.125000
G01 X31.147494 Y18.287948 Z-0.125000
G03 X31.217837 Y18.294965 Z-0.125000 I-0.081432 J1.172313
G01 X31.287110 Y18.310753 Z-0.125000
G03 X31.410908 Y18.349773 Z-0.125000 I-0.616770 J2.172702
G03 X31.333296 Y18.113072 Z-0.125000 I3.861532 J-1.397230
G03 X31.209063 Y17.664656 Z-0.125000 I13.744591 J-4.049354
G02 X30.956645 Y17.632038 Z-0.125000 I-0.540514 J3.189799
G02 X30.732240 Y17.622026 Z-0.125000 I-0.224405 J2.510023
G02 X30.375685 Y17.652287 Z-0.125000 I-0.000000 J2.115705
G02 X30.126704 Y17.725557 Z-0.125000 I0.187568 J1.097060
G01 X29.915744 Y17.863885 Z-0.125000
G01 X29.755192 Y18.066591 Z-0.125000
G02 X29.657018 Y18.308884 Z-0.125000 I0.980889 J0.538481
G01 X29.626479 Y18.535515 Z-0.125000
G01 X29.638191 Y18.676684 Z-0.125000
G01 X29.673283 Y18.815651 Z-0.125000
G01 X29.733753 Y18.946728 Z-0.125000
G02 X29.825398 Y19.083610 Z-0.125000 I0.973349 J-0.552551
G01 X29.936823 Y19.204777 Z-0.125000
G01 X30.065273 Y19.305894 Z-0.125000
G01 X30.208813 Y19.388305 Z-0.125000
G02 X30.439711 Y19.482500 Z-0.125000 I0.997034 J-2.113899
G02 X30.682199 Y19.555025 Z-0.125000 I1.037087 J-3.025855
G02 X31.045244 Y19.637793 Z-0.125000 I1.719829 J-6.706130
G03 X31.196859 Y19.670405 Z-0.125000 I-1.064791 J5.319019
G03 X31.323148 Y19.701739 Z-0.125000 I-0.856317 J3.721493
G03 X31.450759 Y19.741252 Z-0.125000 I-0.770732 J2.714975
G01 X31.504516 Y19.762637 Z-0.125000
G01 X31.557367 Y19.793771 Z-0.125000
G01 X31.592275 Y19.823537 Z-0.125000
G01 X31.623788 Y19.862393 Z-0.125000
G01 X31.642003 Y19.896619 Z-0.125000
G01 X31.652941 Y19.936865 Z-0.125000
G01 X31.656650 Y19.978830 Z-0.125000
G01 X31.631300 Y20.080790 Z-0.125000
G01 X31.563043 Y20.155439 Z-0.125000
G01 X31.463223 Y20.199287 Z-0.125000
G01 X31.288065 Y20.219385 Z-0.125000
G03 X30.795993 Y20.161735 Z-0.125000 I-0.000000 J-2.128876
G03 X30.044817 Y19.924020 Z-0.125000 I1.244467 J-5.238197
G01 X30.044803 Y19.924011 Z-0.125000
G00 Z5.000000

(End cutting path id: path16078)


(Start cutting path id: path16066)
(Change tool to Default tool)

G00 Z5.000000
G00 X33.259695 Y25.496300

G01 Z-0.125000 F100.0(Penetrate)
G01 X33.350379 Y26.848263 Z-0.125000 F400.000000
G01 X33.379634 Y27.624733 Z-0.125000
G03 X33.381820 Y27.834838 Z-0.125000 I-29.454646 J0.411483
G03 X33.382569 Y28.054072 Z-0.125000 I-32.068795 J0.219233
G03 X33.381391 Y28.276345 Z-0.125000 I-20.970580 J-0.000000
G03 X33.376727 Y28.605209 Z-0.125000 I-45.911296 J-0.486655
G03 X33.730700 Y28.600240 Z-0.125000 I0.957381 J55.590142
G03 X33.938383 Y28.599113 Z-0.125000 I0.207683 J19.134937
G03 X34.181169 Y28.600438 Z-0.125000 I-0.000000 J22.253882
G03 X34.497113 Y28.605209 Z-0.125000 I-0.411227 J37.691080
G01 X34.485400 Y28.261130 Z-0.125000
G02 X34.602763 Y28.391877 Z-0.125000 I2.560921 J-2.180718
G01 X34.672621 Y28.459049 Z-0.125000
G01 X34.749310 Y28.521096 Z-0.125000
G01 X34.839364 Y28.577805 Z-0.125000
G01 X34.935922 Y28.625260 Z-0.125000
G01 X35.035356 Y28.656974 Z-0.125000
G01 X35.138669 Y28.677334 Z-0.125000
G01 X35.248902 Y28.684378 Z-0.125000
G01 X35.353423 Y28.677607 Z-0.125000
G02 X35.482926 Y28.653929 Z-0.125000 I-0.165127 J-1.269130
G03 X35.488826 Y28.322121 Z-0.125000 I18.565557 J0.164181
G03 X35.497573 Y28.105834 Z-0.125000 I7.896379 J0.211023
G01 X35.518035 Y27.636913 Z-0.125000
G03 X35.355492 Y27.674485 Z-0.125000 I-0.361830 J-1.194969
G01 X35.216731 Y27.685630 Z-0.125000
G01 X35.044355 Y27.670227 Z-0.125000
G01 X34.912501 Y27.630823 Z-0.125000
G01 X34.795782 Y27.566140 Z-0.125000
G01 X34.687251 Y27.469440 Z-0.125000
G01 X34.603772 Y27.355007 Z-0.125000
G01 X34.532213 Y27.201481 Z-0.125000
G01 X34.489576 Y27.036761 Z-0.125000
G03 X34.450303 Y26.689928 Z-0.125000 I3.745967 J-0.599800
G03 X34.433485 Y26.339535 Z-0.125000 I9.332458 J-0.623533
G03 X34.426907 Y25.889103 Z-0.125000 I15.417792 J-0.450433
G03 X34.429266 Y25.730821 Z-0.125000 I5.310791 J0.000000
G03 X34.438619 Y25.496300 Z-0.125000 I11.669699 J0.347956
G03 X34.154851 Y25.500843 Z-0.125000 I-0.564736 J-26.409136
G03 X33.868189 Y25.502368 Z-0.125000 I-0.286662 J-26.949048
G03 X33.584447 Y25.500953 Z-0.125000 I-0.000000 J-28.454350
G03 X33.259726 Y25.496300 Z-0.125000 I0.371687 J-37.271856
G01 X33.259695 Y25.496300 Z-0.125000
G00 Z5.000000

(End cutting path id: path16066)


(Start cutting path id: path16068)
(Change tool to Default tool)

G00 Z5.000000
G00 X35.819327 Y25.496300

G01 Z-0.125000 F100.0(Penetrate)
G03 X35.858464 Y25.867964 Z-0.125000 I-38.055671 J4.195320 F400.000000
G03 X35.880758 Y26.108336 Z-0.125000 I-15.895117 J1.595427
G03 X35.898436 Y26.349074 Z-0.125000 I-10.410244 J0.885474
G03 X35.918787 Y26.723422 Z-0.125000 I-25.153798 J1.555204
G03 X35.936959 Y27.098050 Z-0.125000 I-30.656613 J1.674821
G03 X35.953893 Y27.551651 Z-0.125000 I-44.927575 J1.904317
G03 X35.966255 Y28.005405 Z-0.125000 I-45.054642 J1.454551
G03 X35.977289 Y28.605209 Z-0.125000 I-78.715707 J1.748029
G03 X36.357584 Y28.600256 Z-0.125000 I1.014246 J63.271604
G03 X36.585749 Y28.599113 Z-0.125000 I0.228165 J22.773793
G03 X36.793437 Y28.600174 Z-0.125000 I-0.000000 J20.332320
G03 X37.182508 Y28.605209 Z-0.125000 I-0.728970 J71.361442
G03 X37.136806 Y28.029428 Z-0.125000 I41.154830 J-3.556296
G03 X37.109376 Y27.594281 Z-0.125000 I23.477655 J-1.698413
G03 X37.092928 Y27.158730 Z-0.125000 I23.631584 J-1.110456
G03 X37.083044 Y26.671657 Z-0.125000 I29.543794 J-0.843169
G03 X37.072879 Y25.806875 Z-0.125000 I241.661655 J-3.272998
G03 X37.071332 Y25.496300 Z-0.125000 I31.167145 J-0.310575
G03 X36.723211 Y25.501095 Z-0.125000 I-0.829943 J-47.614030
G03 X36.471649 Y25.502368 Z-0.125000 I-0.251562 J-24.862028
G03 X36.223006 Y25.501211 Z-0.125000 I-0.000000 J-26.732613
G03 X35.819307 Y25.496300 Z-0.125000 I0.655533 J-70.475872
G01 X35.819327 Y25.496300 Z-0.125000
G00 Z5.000000

(End cutting path id: path16068)


(Start cutting path id: path16068)
(Change tool to Default tool)

G00 Z5.000000
G00 X36.003621 Y28.991921

G01 Z-0.125000 F100.0(Penetrate)
G03 X36.017955 Y29.354347 Z-0.125000 I-20.407600 J0.988662 F400.000000
G03 X36.021175 Y29.564375 Z-0.125000 I-6.849143 J0.210028
G03 X36.020631 Y29.625266 Z-0.125000 I-3.411625 J-0.000000
G03 X36.018240 Y29.728801 Z-0.125000 I-9.866678 J-0.176127
G03 X36.372211 Y29.723936 Z-0.125000 I0.876422 J50.888858
G03 X36.612072 Y29.722705 Z-0.125000 I0.239861 J23.365716
G03 X36.942609 Y29.724444 Z-0.125000 I-0.000000 J31.407508
G03 X37.191279 Y29.728801 Z-0.125000 I-0.187132 J17.780271
G03 X37.183395 Y29.634344 Z-0.125000 I4.998993 J-0.464821
G03 X37.179567 Y29.570466 Z-0.125000 I2.282172 J-0.168815
G01 X37.162041 Y29.192886 Z-0.125000
G03 X37.157860 Y29.107572 Z-0.125000 I2.155128 J-0.148388
G03 X37.156171 Y28.991921 Z-0.125000 I3.959241 J-0.115650
G03 X36.866553 Y28.996536 Z-0.125000 I-0.604797 J-28.865716
G03 X36.600365 Y28.997989 Z-0.125000 I-0.266188 J-24.382703
G03 X36.325401 Y28.996591 Z-0.125000 I-0.000000 J-27.043827
G03 X36.003606 Y28.991921 Z-0.125000 I0.376670 J-37.045051
G01 X36.003621 Y28.991921 Z-0.125000
G00 Z5.000000

(End cutting path id: path16068)


(Start cutting path id: path16070)
(Change tool to Default tool)

G00 Z5.000000
G00 X39.016673 Y29.040641

G01 Z-0.125000 F100.0(Penetrate)
G01 X39.124908 Y29.293371 Z-0.125000 F400.000000
G03 X39.164666 Y29.382197 Z-0.125000 I-3.295738 J1.528475
G03 X39.215592 Y29.503475 Z-0.125000 I-6.093551 J2.630067
G01 X39.306275 Y29.716623 Z-0.125000
G03 X39.604670 Y29.712013 Z-0.125000 I0.612268 J29.968514
G03 X39.888409 Y29.710527 Z-0.125000 I0.283740 J27.095547
G03 X40.125347 Y29.711749 Z-0.125000 I-0.000000 J22.968484
G03 X40.479318 Y29.716623 Z-0.125000 I-0.528898 J51.268062
G01 X40.224818 Y29.421260 Z-0.125000
G03 X40.196138 Y29.387286 Z-0.125000 I0.993761 J-0.867992
G03 X40.093179 Y29.259880 Z-0.125000 I13.878074 J-11.320501
G02 X39.990281 Y29.132407 Z-0.125000 I-15.816826 J12.662256
G02 X39.914738 Y29.040641 Z-0.125000 I-8.272140 J6.732780
G03 X39.633897 Y29.045542 Z-0.125000 I-0.715852 J-32.977557
G03 X39.452540 Y29.046737 Z-0.125000 I-0.181357 J-13.750481
G03 X39.312136 Y29.045756 Z-0.125000 I0.000000 J-10.039925
G03 X39.016673 Y29.040641 Z-0.125000 I0.621922 J-44.467689
G01 X39.016673 Y29.040641 Z-0.125000
G00 Z5.000000

(End cutting path id: path16070)


(Start cutting path id: path16070)
(Change tool to Default tool)

G00 Z5.000000
G00 X40.985393 Y25.496300

G01 Z-0.125000 F100.0(Penetrate)
G03 X40.651897 Y25.501154 Z-0.125000 I-0.833879 J-45.829996 F400.000000
G03 X40.429587 Y25.502368 Z-0.125000 I-0.222310 J-20.363448
G03 X40.154626 Y25.500859 Z-0.125000 I0.000000 J-25.055198
G03 X39.876709 Y25.496300 Z-0.125000 I0.280974 J-25.601527
G01 X39.873773 Y25.913461 Z-0.125000
G02 X39.764854 Y25.779673 Z-0.125000 I-2.441423 J1.876374
G02 X39.695330 Y25.706403 Z-0.125000 I-0.799539 J0.689046
G01 X39.619075 Y25.643633 Z-0.125000
G01 X39.534441 Y25.587650 Z-0.125000
G01 X39.447317 Y25.540629 Z-0.125000
G02 X39.341370 Y25.496300 Z-0.125000 I-0.538098 J1.137290
G02 X39.234684 Y25.465321 Z-0.125000 I-0.354636 J1.022109
G02 X39.095647 Y25.438444 Z-0.125000 I-0.402892 J1.711151
G02 X38.957740 Y25.422551 Z-0.125000 I-0.272551 J1.758658
G02 X38.814819 Y25.417137 Z-0.125000 I-0.142921 J1.883639
G02 X38.585773 Y25.432171 Z-0.125000 I-0.000000 J1.752280
G02 X38.376023 Y25.474989 Z-0.125000 I0.199227 J1.511080
G01 X38.182037 Y25.550390 Z-0.125000
G01 X38.013288 Y25.663779 Z-0.125000
G01 X37.879332 Y25.812004 Z-0.125000
G01 X37.799742 Y25.968274 Z-0.125000
G01 X37.759730 Y26.141269 Z-0.125000
G02 X37.744161 Y26.364119 Z-0.125000 I1.587131 J0.222850
G02 X37.745570 Y26.418876 Z-0.125000 I1.065209 J-0.000000
G02 X37.752938 Y26.534638 Z-0.125000 I4.770662 J-0.245560
G01 X37.799745 Y27.225848 Z-0.125000
G03 X37.818559 Y27.606543 Z-0.125000 I-44.009220 J2.365824
G03 X37.837774 Y28.069300 Z-0.125000 I-65.008772 J2.931106
G03 X37.846726 Y28.352542 Z-0.125000 I-14.532024 J0.601030
G03 X37.849487 Y28.605215 Z-0.125000 I-11.561522 J0.252673
G03 X38.212234 Y28.600376 Z-0.125000 I0.879887 J52.356968
G03 X38.466723 Y28.599119 Z-0.125000 I0.254489 J25.767716
G03 X38.724136 Y28.600501 Z-0.125000 I-0.000000 J23.965184
G03 X39.034230 Y28.605215 Z-0.125000 I-0.373633 J34.783284
G01 X38.943544 Y27.445081 Z-0.125000
G03 X38.924755 Y27.180081 Z-0.125000 I21.012369 J-1.622948
G03 X38.920147 Y27.082733 Z-0.125000 I2.830178 J-0.182740
G01 X38.920147 Y26.954844 Z-0.125000
G03 X38.962119 Y26.653582 Z-0.125000 I1.102188 J0.000000
G01 X39.043010 Y26.522460 Z-0.125000
G01 X39.180055 Y26.439239 Z-0.125000
G01 X39.341389 Y26.409794 Z-0.125000
G01 X39.410820 Y26.415032 Z-0.125000
G01 X39.481803 Y26.431102 Z-0.125000
G01 X39.550046 Y26.456775 Z-0.125000
G01 X39.616367 Y26.492003 Z-0.125000
G01 X39.668711 Y26.532212 Z-0.125000
G01 X39.718752 Y26.583349 Z-0.125000
G01 X39.763655 Y26.644310 Z-0.125000
G01 X39.806514 Y26.723419 Z-0.125000
G01 X39.846893 Y26.826015 Z-0.125000
G01 X39.876720 Y26.939613 Z-0.125000
G03 X39.902738 Y27.101826 Z-0.125000 I-2.134095 J0.425490
G03 X39.926450 Y27.347635 Z-0.125000 I-4.880858 J0.594886
G03 X39.936963 Y27.527357 Z-0.125000 I-13.458487 J0.877401
G03 X39.958626 Y27.968809 Z-0.125000 I-81.183362 J4.205213
G01 X39.982023 Y28.605206 Z-0.125000
G03 X40.359397 Y28.600304 Z-0.125000 I0.964032 J59.677130
G03 X40.602183 Y28.599110 Z-0.125000 I0.242786 J24.699219
G03 X40.874220 Y28.600626 Z-0.125000 I0.000000 J24.413054
G03 X41.149215 Y28.605206 Z-0.125000 I-0.278052 J24.951344
G03 X41.087854 Y27.831366 Z-0.125000 I50.576968 J-4.399811
G03 X41.043903 Y27.134487 Z-0.125000 I40.972550 J-2.933850
G03 X41.012430 Y26.436942 Z-0.125000 I37.120793 J-2.024363
G03 X40.985399 Y25.496297 Z-0.125000 I67.478880 J-2.409873
G01 X40.985393 Y25.496300 Z-0.125000
G00 Z5.000000

(End cutting path id: path16070)


(Start cutting path id: path16052)
(Change tool to Default tool)

G00 Z5.000000
G00 X35.825177 Y33.291410

G01 Z-0.125000 F100.0(Penetrate)
G03 X35.864314 Y33.663074 Z-0.125000 I-38.034310 J4.192966 F400.000000
G03 X35.886606 Y33.903452 Z-0.125000 I-15.886911 J1.594515
G03 X35.904284 Y34.144185 Z-0.125000 I-10.411421 J0.885595
G03 X35.924638 Y34.518532 Z-0.125000 I-25.157829 J1.555583
G03 X35.942809 Y34.893163 Z-0.125000 I-30.648978 J1.674391
G03 X35.959741 Y35.346764 Z-0.125000 I-44.915698 J1.903654
G03 X35.972103 Y35.800518 Z-0.125000 I-45.054642 J1.454551
G03 X35.983137 Y36.400323 Z-0.125000 I-78.715707 J1.748029
G03 X36.363435 Y36.395369 Z-0.125000 I1.014267 J63.273325
G03 X36.591597 Y36.394227 Z-0.125000 I0.228162 J22.773512
G03 X36.799287 Y36.395287 Z-0.125000 I0.000000 J20.332692
G03 X37.188358 Y36.400323 Z-0.125000 I-0.728960 J71.360810
G03 X37.142657 Y35.824541 Z-0.125000 I41.154830 J-3.556296
G03 X37.115226 Y35.389394 Z-0.125000 I23.477655 J-1.698413
G03 X37.098779 Y34.953846 Z-0.125000 I23.630929 J-1.110433
G03 X37.088895 Y34.466767 Z-0.125000 I29.544042 J-0.843173
G03 X37.078730 Y33.601988 Z-0.125000 I241.657882 J-3.272959
G03 X37.077183 Y33.291410 Z-0.125000 I31.167428 J-0.310578
G03 X36.729062 Y33.296206 Z-0.125000 I-0.829943 J-47.614030
G03 X36.477500 Y33.297478 Z-0.125000 I-0.251562 J-24.862028
G03 X36.228857 Y33.296322 Z-0.125000 I-0.000000 J-26.732613
G03 X35.825157 Y33.291410 Z-0.125000 I0.655533 J-70.475872
G01 X35.825177 Y33.291410 Z-0.125000
G00 Z5.000000

(End cutting path id: path16052)


(Start cutting path id: path16050)
(Change tool to Default tool)

G00 Z5.000000
G00 X33.265546 Y33.291410

G01 Z-0.125000 F100.0(Penetrate)
G01 X33.356229 Y34.643376 Z-0.125000 F400.000000
G01 X33.385484 Y35.419843 Z-0.125000
G03 X33.387670 Y35.629951 Z-0.125000 I-29.455631 J0.411491
G03 X33.388420 Y35.849185 Z-0.125000 I-32.069006 J0.219233
G03 X33.387236 Y36.071455 Z-0.125000 I-20.869497 J0.000000
G03 X33.382549 Y36.400323 Z-0.125000 I-45.692058 J-0.486671
G03 X33.736517 Y36.395354 Z-0.125000 I0.957340 J55.586858
G03 X33.944205 Y36.394227 Z-0.125000 I0.207689 J19.135457
G03 X34.186988 Y36.395551 Z-0.125000 I0.000000 J22.253623
G03 X34.502935 Y36.400323 Z-0.125000 I-0.411239 J37.692191
G01 X34.491223 Y36.056240 Z-0.125000
G02 X34.608582 Y36.186988 Z-0.125000 I2.561391 J-2.181064
G01 X34.678440 Y36.254165 Z-0.125000
G01 X34.755126 Y36.316207 Z-0.125000
G01 X34.845183 Y36.372919 Z-0.125000
G01 X34.941741 Y36.420373 Z-0.125000
G01 X35.041178 Y36.452088 Z-0.125000
G01 X35.144489 Y36.472447 Z-0.125000
G01 X35.254721 Y36.479492 Z-0.125000
G01 X35.359245 Y36.472720 Z-0.125000
G02 X35.488746 Y36.449040 Z-0.125000 I-0.165117 J-1.268937
G03 X35.494646 Y36.117234 Z-0.125000 I18.565335 J0.164180
G03 X35.503393 Y35.900947 Z-0.125000 I7.896418 J0.211025
G01 X35.523854 Y35.432024 Z-0.125000
G03 X35.361314 Y35.469597 Z-0.125000 I-0.361818 J-1.194841
G01 X35.222551 Y35.480744 Z-0.125000
G01 X35.050177 Y35.465340 Z-0.125000
G01 X34.918321 Y35.425933 Z-0.125000
G01 X34.801604 Y35.361251 Z-0.125000
G01 X34.693071 Y35.264550 Z-0.125000
G01 X34.609590 Y35.150119 Z-0.125000
G01 X34.538032 Y34.996594 Z-0.125000
G01 X34.495397 Y34.831874 Z-0.125000
G03 X34.456123 Y34.485038 Z-0.125000 I3.746343 J-0.599857
G03 X34.439305 Y34.134649 Z-0.125000 I9.332249 J-0.623524
G03 X34.432726 Y33.684213 Z-0.125000 I15.417889 J-0.450436
G03 X34.435086 Y33.525931 Z-0.125000 I5.310791 J0.000000
G03 X34.444439 Y33.291410 Z-0.125000 I11.669699 J0.347956
G03 X34.160668 Y33.295954 Z-0.125000 I-0.564744 J-26.409792
G03 X33.874005 Y33.297478 Z-0.125000 I-0.286662 J-26.949181
G03 X33.590267 Y33.296064 Z-0.125000 I-0.000000 J-28.453935
G03 X33.265546 Y33.291410 Z-0.125000 I0.371690 J-37.272054
G01 X33.265546 Y33.291410 Z-0.125000
G00 Z5.000000

(End cutting path id: path16050)


(Start cutting path id: path16048)
(Change tool to Default tool)

G00 Z5.000000
G00 X29.916087 Y35.514238

G01 Z-0.125000 F100.0(Penetrate)
G03 X29.969488 Y35.816030 Z-0.125000 I-20.938146 J3.860540 F400.000000
G03 X29.986293 Y35.928351 Z-0.125000 I-2.882534 J0.488683
G02 X30.001150 Y36.044032 Z-0.125000 I31.883998 J-4.036146
G02 X30.033102 Y36.287657 Z-0.125000 I141.445292 J-18.427120
G02 X30.880042 Y36.439847 Z-0.125000 I2.073510 J-9.106398
G02 X31.481119 Y36.479489 Z-0.125000 I0.601077 J-4.537145
G02 X31.823188 Y36.457329 Z-0.125000 I-0.000000 J-2.651238
G02 X32.112981 Y36.397277 Z-0.125000 I-0.254979 J-1.959722
G02 X32.379495 Y36.285577 Z-0.125000 I-0.302672 J-1.095965
G01 X32.560552 Y36.138454 Z-0.125000
G01 X32.673124 Y35.940328 Z-0.125000
G02 X32.721444 Y35.623856 Z-0.125000 I-1.012208 J-0.316473
G02 X32.716577 Y35.453516 Z-0.125000 I-2.983625 J-0.000000
G02 X32.677564 Y34.856522 Z-0.125000 I-36.714565 J2.099518
G03 X32.642778 Y34.259265 Z-0.125000 I19.608523 J-1.441693
G03 X32.610282 Y33.291410 Z-0.125000 I51.467372 J-2.212505
G03 X32.323588 Y33.295969 Z-0.125000 I-0.576443 J-27.234674
G03 X32.039852 Y33.297478 Z-0.125000 I-0.283736 J-26.673946
G03 X31.764888 Y33.296052 Z-0.125000 I0.000000 J-26.513547
G03 X31.454794 Y33.291410 Z-0.125000 I0.349782 J-33.726187
G03 X31.486306 Y33.627158 Z-0.125000 I-5.960857 J0.728822
G03 X31.545475 Y34.673828 Z-0.125000 I-57.912261 J3.798803
G02 X31.433467 Y34.620971 Z-0.125000 I-1.594141 J3.233018
G02 X31.369958 Y34.594659 Z-0.125000 I-0.456605 J1.012290
G02 X31.307913 Y34.572046 Z-0.125000 I-0.435336 J1.098025
G02 X31.150564 Y34.521578 Z-0.125000 I-2.337389 J7.016951
G03 X30.993130 Y34.471280 Z-0.125000 I2.416936 J-7.836597
G03 X30.901912 Y34.439366 Z-0.125000 I0.880182 J-2.662151
G01 X30.817328 Y34.400194 Z-0.125000
G01 X30.746870 Y34.354104 Z-0.125000
G01 X30.688037 Y34.297767 Z-0.125000
G01 X30.653263 Y34.247531 Z-0.125000
G01 X30.633920 Y34.191129 Z-0.125000
G01 X30.626932 Y34.125733 Z-0.125000
G01 X30.647141 Y34.031039 Z-0.125000
G01 X30.705914 Y33.949124 Z-0.125000
G01 X30.794008 Y33.899309 Z-0.125000
G01 X30.957490 Y33.876045 Z-0.125000
G01 X31.018784 Y33.878165 Z-0.125000
G03 X31.089127 Y33.885161 Z-0.125000 I-0.081428 J1.175864
G01 X31.158402 Y33.900964 Z-0.125000
G03 X31.282195 Y33.939971 Z-0.125000 I-0.618861 J2.179922
G03 X31.204587 Y33.703271 Z-0.125000 I3.862818 J-1.397602
G03 X31.080350 Y33.254851 Z-0.125000 I13.749520 J-4.050790
G02 X30.827932 Y33.222235 Z-0.125000 I-0.540516 J3.190025
G02 X30.603530 Y33.212225 Z-0.125000 I-0.224402 J2.510144
G02 X30.246974 Y33.242485 Z-0.125000 I-0.000000 J2.115773
G02 X29.997991 Y33.315752 Z-0.125000 I0.187570 J1.097109
G01 X29.787036 Y33.454077 Z-0.125000
G01 X29.626482 Y33.656787 Z-0.125000
G02 X29.528307 Y33.899082 Z-0.125000 I0.980916 J0.538489
G01 X29.497769 Y34.125713 Z-0.125000
G01 X29.509480 Y34.266880 Z-0.125000
G01 X29.544573 Y34.405850 Z-0.125000
G01 X29.605041 Y34.536925 Z-0.125000
G02 X29.696688 Y34.673808 Z-0.125000 I0.973269 J-0.552506
G01 X29.808115 Y34.794973 Z-0.125000
G01 X29.936562 Y34.896089 Z-0.125000
G01 X30.080106 Y34.978503 Z-0.125000
G02 X30.311001 Y35.072698 Z-0.125000 I0.997013 J-2.113821
G02 X30.553488 Y35.145222 Z-0.125000 I1.037175 J-3.026216
G02 X30.916537 Y35.227991 Z-0.125000 I1.720063 J-6.707074
G03 X31.068146 Y35.260600 Z-0.125000 I-1.064570 J5.318213
G03 X31.194438 Y35.291934 Z-0.125000 I-0.856261 J3.721375
G03 X31.322049 Y35.331450 Z-0.125000 I-0.770895 J2.715337
G01 X31.375805 Y35.352835 Z-0.125000
G01 X31.428659 Y35.383969 Z-0.125000
G01 X31.463565 Y35.413733 Z-0.125000
G01 X31.495079 Y35.452588 Z-0.125000
G01 X31.513296 Y35.486812 Z-0.125000
G01 X31.524234 Y35.527063 Z-0.125000
G01 X31.527943 Y35.569026 Z-0.125000
G01 X31.502593 Y35.670983 Z-0.125000
G01 X31.434335 Y35.745632 Z-0.125000
G01 X31.334516 Y35.789479 Z-0.125000
G01 X31.159358 Y35.809578 Z-0.125000
G03 X30.667285 Y35.751929 Z-0.125000 I0.000000 J-2.128921
G03 X29.916107 Y35.514218 Z-0.125000 I1.244470 J-5.238319
G01 X29.916087 Y35.514238 Z-0.125000
G00 Z5.000000

(End cutting path id: path16048)


(Start cutting path id: path16046)
(Change tool to Default tool)

G00 Z5.000000
G00 X28.991696 Y34.210992

G01 Z-0.125000 F100.0(Penetrate)
G03 X28.957438 Y34.027612 Z-0.125000 I4.446656 J-0.925600 F400.000000
G03 X28.845429 Y33.327950 Z-0.125000 I64.644480 J-10.707725
G02 X28.504955 Y33.265588 Z-0.125000 I-1.564145 J7.579047
G02 X28.274999 Y33.236603 Z-0.125000 I-0.548658 J3.426185
G02 X28.043578 Y33.218400 Z-0.125000 I-0.458999 J4.355173
G02 X27.806953 Y33.212247 Z-0.125000 I-0.236625 J4.547227
G02 X27.460072 Y33.226239 Z-0.125000 I-0.000000 J4.306947
G02 X27.166314 Y33.264012 Z-0.125000 I0.252472 J3.124555
G02 X26.882556 Y33.336586 Z-0.125000 I0.282153 J1.694224
G02 X26.660239 Y33.440619 Z-0.125000 I0.397442 J1.138892
G02 X26.464858 Y33.585415 Z-0.125000 I0.686338 J1.130325
G02 X26.306279 Y33.757294 Z-0.125000 I0.815380 J0.911380
G02 X26.183482 Y33.959360 Z-0.125000 I0.991732 J0.741027
G02 X26.086879 Y34.210995 Z-0.125000 I1.448290 J0.700361
G02 X26.032291 Y34.475401 Z-0.125000 I1.893149 J0.528687
G02 X26.013750 Y34.749955 Z-0.125000 I2.023447 J0.274554
G02 X26.050886 Y35.132531 Z-0.125000 I1.989213 J0.000000
G02 X26.162941 Y35.511196 Z-0.125000 I2.060416 J-0.403809
G02 X26.345607 Y35.862372 Z-0.125000 I1.831340 J-0.729483
G02 X26.546151 Y36.095827 Z-0.125000 I0.996616 J-0.653254
G02 X26.800242 Y36.274754 Z-0.125000 I0.923302 J-1.041285
G02 X27.090255 Y36.394235 Z-0.125000 I0.681727 J-1.243033
G02 X27.400548 Y36.460279 Z-0.125000 I0.624607 J-2.172621
G02 X27.719193 Y36.482540 Z-0.125000 I0.318645 J-2.269510
G02 X28.049819 Y36.461218 Z-0.125000 I0.000000 J-2.574145
G02 X28.353984 Y36.400325 Z-0.125000 I-0.289833 J-2.237853
G02 X28.639454 Y36.287480 Z-0.125000 I-0.317962 J-1.221863
G02 X28.868834 Y36.120189 Z-0.125000 I-0.516176 J-0.948654
G02 X29.051496 Y35.901241 Z-0.125000 I-0.868604 J-0.910321
G02 X29.167213 Y35.666488 Z-0.125000 I-0.885703 J-0.582489
G02 X29.234088 Y35.409613 Z-0.125000 I-1.392688 J-0.499713
G02 X29.257897 Y35.121441 Z-0.125000 I-1.732038 J-0.288172
G02 X29.249421 Y34.948627 Z-0.125000 I-1.765907 J0.000000
G02 X29.219870 Y34.734729 Z-0.125000 I-2.737189 J0.269156
G01 X27.169238 Y34.731681 Z-0.125000
G03 X27.166960 Y34.682941 Z-0.125000 I1.807585 J-0.108897
G03 X27.166303 Y34.643376 Z-0.125000 I1.190327 J-0.039565
G01 X27.231484 Y34.348755 Z-0.125000
G01 X27.391550 Y34.159230 Z-0.125000
G01 X27.630217 Y34.047042 Z-0.125000
G03 X27.941505 Y34.003934 Z-0.125000 I0.311288 J1.102378
G03 X28.133654 Y34.013908 Z-0.125000 I-0.000000 J1.855931
G03 X28.380299 Y34.049609 Z-0.125000 I-0.322360 J3.096874
G03 X28.626947 Y34.106262 Z-0.125000 I-0.753331 J3.844990
G03 X28.991685 Y34.210992 Z-0.125000 I-2.248412 J8.517922
G01 X28.991696 Y34.210992 Z-0.125000
G00 Z5.000000

(End cutting path id: path16046)


(Start cutting path id: path16046)
(Change tool to Default tool)

G00 Z5.000000
G00 X27.192640 Y35.197562

G01 Z-0.125000 F100.0(Penetrate)
G01 X28.157989 Y35.197562 Z-0.125000 F400.000000
G03 X28.160318 Y35.249342 Z-0.125000 I-2.210067 J0.125319
G03 X28.160925 Y35.285864 Z-0.125000 I-1.098754 J0.036522
G01 X28.145226 Y35.440543 Z-0.125000
G01 X28.105344 Y35.556868 Z-0.125000
G01 X28.038299 Y35.655580 Z-0.125000
G01 X27.950302 Y35.721293 Z-0.125000
G01 X27.847448 Y35.759175 Z-0.125000
G01 X27.725055 Y35.773058 Z-0.125000
G01 X27.638681 Y35.765369 Z-0.125000
G01 X27.555389 Y35.742609 Z-0.125000
G01 X27.477679 Y35.707812 Z-0.125000
G01 X27.406197 Y35.657353 Z-0.125000
G01 X27.347109 Y35.598077 Z-0.125000
G01 X27.297965 Y35.529461 Z-0.125000
G01 X27.258706 Y35.454360 Z-0.125000
G01 X27.233607 Y35.386349 Z-0.125000
G01 X27.215969 Y35.318695 Z-0.125000
G03 X27.192651 Y35.197562 Z-0.125000 I2.569264 J-0.557385
G01 X27.192640 Y35.197562 Z-0.125000
G00 Z5.000000

(End cutting path id: path16046)


(Start cutting path id: path16048)
(Change tool to Default tool)

G00 Z5.000000
G00 X30.863885 Y36.835752

G01 Z-0.125000 F100.0(Penetrate)
G01 X30.972118 Y37.088482 Z-0.125000 F400.000000
G03 X31.011877 Y37.177308 Z-0.125000 I-3.291904 J1.526802
G03 X31.062801 Y37.298588 Z-0.125000 I-6.086545 J2.627008
G01 X31.153488 Y37.511733 Z-0.125000
G03 X31.451882 Y37.507123 Z-0.125000 I0.612268 J29.968514
G03 X31.735622 Y37.505637 Z-0.125000 I0.283740 J27.095547
G03 X31.972557 Y37.506860 Z-0.125000 I0.000000 J22.968211
G03 X32.326530 Y37.511733 Z-0.125000 I-0.528912 J51.269490
G01 X32.072028 Y37.216374 Z-0.125000
G03 X32.043349 Y37.182397 Z-0.125000 I0.996239 J-0.869999
G03 X31.940388 Y37.054991 Z-0.125000 I13.911810 J-11.347821
G02 X31.837491 Y36.927518 Z-0.125000 I-15.816826 J12.662256
G02 X31.761947 Y36.835752 Z-0.125000 I-8.272140 J6.732780
G03 X31.481106 Y36.840652 Z-0.125000 I-0.715858 J-32.977869
G03 X31.299752 Y36.841848 Z-0.125000 I-0.181354 J-13.750183
G03 X31.159348 Y36.840866 Z-0.125000 I-0.000000 J-10.039925
G03 X30.863885 Y36.835752 Z-0.125000 I0.621922 J-44.467689
G01 X30.863885 Y36.835752 Z-0.125000
G00 Z5.000000

(End cutting path id: path16048)


(Start cutting path id: path16052)
(Change tool to Default tool)

G00 Z5.000000
G00 X36.009471 Y36.787032

G01 Z-0.125000 F100.0(Penetrate)
G03 X36.023783 Y37.149463 Z-0.125000 I-20.441554 J0.988699 F400.000000
G03 X36.026997 Y37.359486 Z-0.125000 I-6.859996 J0.210023
G03 X36.026454 Y37.420379 Z-0.125000 I-3.411841 J-0.000000
G03 X36.024062 Y37.523914 Z-0.125000 I-9.866390 J-0.176119
G03 X36.378033 Y37.519049 Z-0.125000 I0.876416 J50.888501
G03 X36.617897 Y37.517818 Z-0.125000 I0.239864 J23.366102
G03 X36.948434 Y37.519557 Z-0.125000 I-0.000000 J31.407508
G03 X37.197104 Y37.523914 Z-0.125000 I-0.187132 J17.780271
G03 X37.189220 Y37.429460 Z-0.125000 I4.997766 J-0.464721
G03 X37.185392 Y37.365576 Z-0.125000 I2.282150 J-0.168810
G01 X37.167838 Y36.988002 Z-0.125000
G03 X37.163677 Y36.902683 Z-0.125000 I2.165843 J-0.148399
G03 X37.161996 Y36.787032 Z-0.125000 I3.978499 J-0.115651
G03 X36.872376 Y36.791647 Z-0.125000 I-0.604810 J-28.866584
G03 X36.606190 Y36.793100 Z-0.125000 I-0.266185 J-24.382445
G03 X36.331226 Y36.791702 Z-0.125000 I-0.000000 J-27.043827
G03 X36.009431 Y36.787032 Z-0.125000 I0.376670 J-37.045051
G01 X36.009471 Y36.787032 Z-0.125000
G00 Z5.000000

(End cutting path id: path16052)


(Start cutting path id: path16054)
(Change tool to Default tool)

G00 Z5.000000
G00 X39.455464 Y36.479489

G01 Z-0.125000 F100.0(Penetrate)
G02 X39.813224 Y36.449963 Z-0.125000 I-0.000000 J-2.182243 F400.000000
G02 X40.151686 Y36.363783 Z-0.125000 I-0.338656 J-2.037762
G02 X40.469381 Y36.217222 Z-0.125000 I-0.564559 J-1.641379
G02 X40.719193 Y36.028836 Z-0.125000 I-0.705568 J-1.195457
G02 X40.919807 Y35.792382 Z-0.125000 I-0.922029 J-0.985606
G02 X41.058525 Y35.520328 Z-0.125000 I-1.088780 J-0.726555
G02 X41.140571 Y35.225652 Z-0.125000 I-1.500004 J-0.576402
G02 X41.169684 Y34.896109 Z-0.125000 I-1.850569 J-0.329543
G02 X41.144099 Y34.574490 Z-0.125000 I-2.034290 J0.000000
G02 X41.070226 Y34.274935 Z-0.125000 I-1.836892 J0.294110
G02 X40.944173 Y33.999799 Z-0.125000 I-1.301280 J0.429735
G02 X40.739668 Y33.723798 Z-0.125000 I-1.514111 J0.908126
G02 X40.480834 Y33.505528 Z-0.125000 I-0.969403 J0.886956
G02 X40.142909 Y33.340131 Z-0.125000 I-0.877391 J1.364701
G02 X39.777388 Y33.245345 Z-0.125000 I-0.721344 J2.029533
G02 X39.379408 Y33.212244 Z-0.125000 I-0.397980 J2.376008
G02 X39.012510 Y33.241022 Z-0.125000 I-0.000000 J2.353243
G02 X38.665634 Y33.324907 Z-0.125000 I0.345006 J2.185773
G02 X38.342095 Y33.469150 Z-0.125000 I0.547230 J1.662416
G02 X38.092277 Y33.653764 Z-0.125000 I0.669584 J1.167411
G02 X37.893478 Y33.889675 Z-0.125000 I0.948297 J1.000835
G02 X37.747093 Y34.171408 Z-0.125000 I1.214914 J0.810148
G02 X37.662185 Y34.478194 Z-0.125000 I1.623997 J0.614611
G02 X37.633008 Y34.804759 Z-0.125000 I1.812945 J0.326565
G02 X37.661471 Y35.131581 Z-0.125000 I1.890558 J-0.000000
G02 X37.744170 Y35.438114 Z-0.125000 I1.744090 J-0.306110
G02 X37.888159 Y35.720146 Z-0.125000 I1.345869 J-0.509352
G02 X38.101054 Y35.980116 Z-0.125000 I1.353307 J-0.891092
G02 X38.367618 Y36.187291 Z-0.125000 I1.037416 J-1.059726
G02 X38.706590 Y36.348557 Z-0.125000 I0.952987 J-1.566242
G02 X39.072262 Y36.446242 Z-0.125000 I0.736724 J-2.024581
G02 X39.455464 Y36.479489 Z-0.125000 I0.383202 J-2.191759
G01 X39.455464 Y36.479489 Z-0.125000
G00 Z5.000000

(End cutting path id: path16054)


(Start cutting path id: path16054)
(Change tool to Default tool)

G00 Z5.000000
G00 X39.435002 Y35.584271

G01 Z-0.125000 F100.0(Penetrate)
G01 X39.255972 Y35.557885 Z-0.125000 F400.000000
G01 X39.101517 Y35.483789 Z-0.125000
G01 X38.977863 Y35.365373 Z-0.125000
G01 X38.879197 Y35.188426 Z-0.125000
G03 X38.825481 Y34.993019 Z-0.125000 I0.988246 J-0.376750
G03 X38.806065 Y34.768220 Z-0.125000 I1.291658 J-0.224799
G03 X38.854383 Y34.451749 Z-0.125000 I1.060545 J-0.000000
G01 X38.966954 Y34.253619 Z-0.125000
G01 X39.148383 Y34.123503 Z-0.125000
G01 X39.370645 Y34.077013 Z-0.125000
G01 X39.546811 Y34.103197 Z-0.125000
G01 X39.701203 Y34.177498 Z-0.125000
G01 X39.824196 Y34.298879 Z-0.125000
G01 X39.920600 Y34.478948 Z-0.125000
G03 X39.976902 Y34.683529 Z-0.125000 I-1.065824 J0.403360
G03 X39.996656 Y34.908290 Z-0.125000 I-1.268793 J0.224761
G03 X39.980830 Y35.094141 Z-0.125000 I-1.099185 J0.000000
G01 X39.938151 Y35.249324 Z-0.125000
G01 X39.860116 Y35.386081 Z-0.125000
G01 X39.745083 Y35.492922 Z-0.125000
G01 X39.605738 Y35.559645 Z-0.125000
G01 X39.435002 Y35.584271 Z-0.125000
G01 X39.435002 Y35.584271 Z-0.125000
G00 Z5.000000

(End cutting path id: path16054)


(Start cutting path id: path16034)
(Change tool to Default tool)

G00 Z5.000000
G00 X38.369112 Y40.506925

G01 Z-0.125000 F100.0(Penetrate)
G03 X38.414620 Y41.139679 Z-0.125000 I-36.765836 J2.962214 F400.000000
G03 X38.498460 Y42.550941 Z-0.125000 I-182.817492 J11.568882
G03 X38.569172 Y43.962869 Z-0.125000 I-129.897537 J7.213263
G03 X38.588605 Y44.570484 Z-0.125000 I-24.033946 J1.072793
G03 X38.444184 Y44.475742 Z-0.125000 I7.473084 J-11.549010
G03 X38.306401 Y44.382808 Z-0.125000 I7.052529 J-10.604726
G03 X38.171498 Y44.289792 Z-0.125000 I1.850090 J-2.827551
G03 X37.710633 Y43.950342 Z-0.125000 I24.219846 J-33.365344
G03 X37.731609 Y44.297269 Z-0.125000 I-23.646033 J1.603768
G03 X37.753749 Y44.762237 Z-0.125000 I-42.453385 J2.254495
G03 X37.770241 Y45.231487 Z-0.125000 I-35.143952 J1.470043
G03 X37.773375 Y45.451735 Z-0.125000 I-7.737876 J0.220248
G03 X37.971809 Y45.572403 Z-0.125000 I-4.963973 J8.386511
G03 X38.224121 Y45.733247 Z-0.125000 I-8.569292 J13.720813
G03 X38.477787 Y45.898040 Z-0.125000 I-12.710243 J19.842434
G03 X38.533763 Y45.937243 Z-0.125000 I-0.661669 J1.004334
G03 X38.591972 Y45.982855 Z-0.125000 I-1.763150 J2.310058
G03 X38.706223 Y46.075957 Z-0.125000 I-7.234482 J8.994439
G03 X39.055086 Y46.070100 Z-0.125000 I0.616631 J26.335302
G03 X39.509723 Y46.067790 Z-0.125000 I0.454637 J44.724034
G03 X39.940852 Y46.069786 Z-0.125000 I0.000000 J46.551540
G03 X40.391620 Y46.075957 Z-0.125000 I-0.471380 J50.895499
G01 X40.313227 Y45.166142 Z-0.125000
G01 X40.144689 Y42.147036 Z-0.125000
G01 X40.105494 Y41.037312 Z-0.125000
G01 X40.105494 Y40.506925 Z-0.125000
G03 X39.772302 Y40.512660 Z-0.125000 I-0.565434 J-23.170965
G03 X39.294151 Y40.515055 Z-0.125000 I-0.478151 J-47.717258
G03 X38.737605 Y40.512609 Z-0.125000 I-0.000000 J-63.324194
G03 X38.369142 Y40.506925 Z-0.125000 I0.243995 J-27.760847
G01 X38.369112 Y40.506925 Z-0.125000
G00 Z5.000000

(End cutting path id: path16034)


(Start cutting path id: path16036)
(Change tool to Default tool)

G00 Z5.000000
G00 X42.790338 Y40.506925

G01 Z-0.125000 F100.0(Penetrate)
G03 X43.131965 Y40.941937 Z-0.125000 I-28.758676 J22.936632 F400.000000
G03 X43.437060 Y41.343301 Z-0.125000 I-24.176273 J18.694146
G03 X43.736529 Y41.751665 Z-0.125000 I-13.317533 J10.080225
G03 X44.048505 Y42.204154 Z-0.125000 I-16.040110 J11.392943
G03 X44.349700 Y42.666259 Z-0.125000 I-12.739524 J8.632704
G03 X44.518851 Y42.954851 Z-0.125000 I-4.795984 J3.004901
G03 X44.669754 Y43.253090 Z-0.125000 I-4.559203 J2.494175
G03 X44.777538 Y43.509715 Z-0.125000 I-3.266336 J1.522824
G03 X44.870307 Y43.773464 Z-0.125000 I-3.842951 J1.499870
G03 X44.910803 Y43.934021 Z-0.125000 I-1.380477 J0.433577
G03 X44.937452 Y44.098139 Z-0.125000 I-1.565087 J0.338352
G03 X44.946084 Y44.256331 Z-0.125000 I-1.445180 J0.158192
G03 X44.925700 Y44.468232 Z-0.125000 I-1.111618 J0.000000
G01 X44.871612 Y44.639840 Z-0.125000
G01 X44.778793 Y44.791678 Z-0.125000
G01 X44.652116 Y44.896871 Z-0.125000
G01 X44.497217 Y44.960237 Z-0.125000
G01 X44.322874 Y44.982550 Z-0.125000
G01 X44.039177 Y44.928022 Z-0.125000
G01 X43.801582 Y44.774473 Z-0.125000
G01 X43.648914 Y44.545410 Z-0.125000
G01 X43.589924 Y44.231850 Z-0.125000
G01 X43.612655 Y44.042100 Z-0.125000
G01 X43.672235 Y43.893223 Z-0.125000
G01 X43.771439 Y43.772924 Z-0.125000
G01 X43.915244 Y43.676990 Z-0.125000
G01 X44.079847 Y43.621466 Z-0.125000
G01 X44.240568 Y43.603551 Z-0.125000
G01 X44.341529 Y43.611420 Z-0.125000
G03 X44.526693 Y43.648429 Z-0.125000 I-0.351029 J2.238031
G03 X44.156505 Y43.093671 Z-0.125000 I25.268692 J-17.262617
G03 X43.766305 Y42.481583 Z-0.125000 I30.372033 J-19.792270
G02 X43.632720 Y42.465365 Z-0.125000 I-0.326349 J2.129849
G01 X43.538970 Y42.461163 Z-0.125000
G02 X43.283994 Y42.484017 Z-0.125000 I0.000000 J1.433736
G02 X42.974561 Y42.563163 Z-0.125000 I0.396900 J2.196205
G02 X42.688014 Y42.691788 Z-0.125000 I0.524411 J1.551768
G02 X42.437584 Y42.869152 Z-0.125000 I0.774131 J1.358515
G02 X42.238717 Y43.099347 Z-0.125000 I0.812173 J0.902637
G02 X42.084826 Y43.399535 Z-0.125000 I1.243301 J0.826920
G02 X41.994405 Y43.731524 Z-0.125000 I1.784727 J0.664398
G02 X41.963321 Y44.084953 Z-0.125000 I1.993722 J0.353429
G02 X42.015499 Y44.554496 Z-0.125000 I2.138773 J0.000000
G02 X42.167136 Y44.990684 Z-0.125000 I1.993677 J-0.448634
G02 X42.414463 Y45.378992 Z-0.125000 I1.742926 J-0.837213
G02 X42.735469 Y45.684266 Z-0.125000 I1.384698 J-1.134647
G02 X43.122806 Y45.917907 Z-0.125000 I1.412626 J-1.904000
G02 X43.535052 Y46.067774 Z-0.125000 I0.964106 J-2.010080
G02 X43.974024 Y46.151768 Z-0.125000 I0.838767 J-3.194530
G02 X44.471821 Y46.182008 Z-0.125000 I0.497797 J-4.082186
G02 X44.929632 Y46.149632 Z-0.125000 I-0.000000 J-3.253041
G02 X45.361553 Y46.055534 Z-0.125000 I-0.424712 J-2.987813
G02 X45.764014 Y45.886583 Z-0.125000 I-0.566176 J-1.912531
G02 X46.059226 Y45.667945 Z-0.125000 I-0.686125 J-1.235049
G02 X46.296251 Y45.382413 Z-0.125000 I-1.092845 J-1.148333
G02 X46.466860 Y45.039642 Z-0.125000 I-1.415715 J-0.918496
G02 X46.568778 Y44.670964 Z-0.125000 I-2.191042 J-0.804117
G02 X46.600122 Y44.337908 Z-0.125000 I-1.753829 J-0.333057
G02 X46.587946 Y44.098302 Z-0.125000 I-2.363800 J0.000000
G02 X46.545249 Y43.799361 Z-0.125000 I-3.725591 J0.379599
G02 X46.477011 Y43.505191 Z-0.125000 I-3.247546 J0.598331
G02 X46.368872 Y43.171061 Z-0.125000 I-4.300007 J1.207104
G02 X46.240069 Y42.845362 Z-0.125000 I-4.750946 J1.690526
G02 X46.039631 Y42.416285 Z-0.125000 I-8.450809 J3.686330
G02 X45.815934 Y42.002988 Z-0.125000 I-7.110819 J3.581548
G02 X45.537930 Y41.551351 Z-0.125000 I-8.770849 J5.087493
G02 X45.246895 Y41.109939 Z-0.125000 I-19.884506 J12.793730
G02 X44.832418 Y40.506902 Z-0.125000 I-37.529332 J25.350591
G01 X42.790338 Y40.506925 Z-0.125000
G00 Z5.000000

(End cutting path id: path16036)


(Start cutting path id: path16032)
(Change tool to Default tool)

G00 Z5.000000
G00 X33.900872 Y44.974390

G01 Z-0.125000 F100.0(Penetrate)
G01 X33.726823 Y44.945053 Z-0.125000 F400.000000
G01 X33.571635 Y44.860153 Z-0.125000
G01 X33.419553 Y44.702873 Z-0.125000
G03 X33.293344 Y44.480725 Z-0.125000 I0.888731 J-0.651836
G03 X33.188054 Y44.185107 Z-0.125000 I2.168083 J-0.938765
G03 X33.105207 Y43.815704 Z-0.125000 I3.308690 J-0.936043
G03 X33.053791 Y43.402012 Z-0.125000 I4.476073 J-0.766352
G03 X33.034657 Y42.909973 Z-0.125000 I6.316863 J-0.492039
G03 X33.058021 Y42.480654 Z-0.125000 I3.956008 J0.000000
G03 X33.113046 Y42.191914 Z-0.125000 I1.838015 J0.200652
G03 X33.219725 Y41.927027 Z-0.125000 I1.238581 J0.344891
G01 X33.348220 Y41.755371 Z-0.125000
G01 X33.524721 Y41.639477 Z-0.125000
G01 X33.720574 Y41.600332 Z-0.125000
G01 X33.835138 Y41.613519 Z-0.125000
G01 X33.947909 Y41.653371 Z-0.125000
G01 X34.049872 Y41.720948 Z-0.125000
G03 X34.183076 Y41.865524 Z-0.125000 I-0.714214 J0.791690
G01 X34.288817 Y42.035056 Z-0.125000
G03 X34.402573 Y42.322471 Z-0.125000 I-1.965576 J0.944173
G03 X34.483186 Y42.623301 Z-0.125000 I-3.367496 J1.063595
G03 X34.539756 Y42.942610 Z-0.125000 I-3.738236 J0.826945
G03 X34.571991 Y43.269716 Z-0.125000 I-4.923903 J0.650386
G03 X34.582868 Y43.603551 Z-0.125000 I-5.117948 J0.333835
G03 X34.522815 Y44.281851 Z-0.125000 I-3.860742 J-0.000000
G03 X34.398652 Y44.635759 Z-0.125000 I-1.152976 J-0.205769
G01 X34.165925 Y44.892781 Z-0.125000
G01 X33.900872 Y44.974390 Z-0.125000
G01 X33.900872 Y44.974390 Z-0.125000
G00 Z5.000000

(End cutting path id: path16032)


(Start cutting path id: path16032)
(Change tool to Default tool)

G00 Z5.000000
G00 X33.928288 Y46.182030

G01 Z-0.125000 F100.0(Penetrate)
G02 X34.542887 Y46.113407 Z-0.125000 I0.000000 J-2.786554 F400.000000
G02 X35.064950 Y45.924999 Z-0.125000 I-0.495045 J-2.189225
G02 X35.497450 Y45.594145 Z-0.125000 I-0.663703 J-1.315718
G02 X35.856694 Y45.043749 Z-0.125000 I-1.597028 J-1.434822
G02 X36.062799 Y44.406037 Z-0.125000 I-2.548466 J-1.175812
G02 X36.142816 Y43.579074 Z-0.125000 I-4.233279 J-0.826963
G02 X36.098903 Y42.923997 Z-0.125000 I-4.908011 J-0.000000
G02 X35.966439 Y42.269433 Z-0.125000 I-5.032747 J0.677790
G02 X35.743571 Y41.645437 Z-0.125000 I-3.852875 J1.024303
G02 X35.492180 Y41.224984 Z-0.125000 I-1.984151 J0.900955
G02 X35.153972 Y40.884410 Z-0.125000 I-1.454714 J1.106390
G02 X34.704354 Y40.617082 Z-0.125000 I-1.326092 J1.718582
G02 X34.202665 Y40.456547 Z-0.125000 I-1.005692 J2.278710
G02 X33.657840 Y40.400849 Z-0.125000 I-0.544825 J2.636812
G02 X33.191232 Y40.442243 Z-0.125000 I-0.000000 J2.650561
G02 X32.768104 Y40.559963 Z-0.125000 I0.410172 J2.293594
G02 X32.384873 Y40.765271 Z-0.125000 I0.618303 J1.614467
G02 X32.039071 Y41.078110 Z-0.125000 I1.152173 J1.621110
G02 X31.776445 Y41.463936 Z-0.125000 I1.465153 J1.279603
G02 X31.600086 Y41.926722 Z-0.125000 I1.945420 J1.006362
G02 X31.507601 Y42.424506 Z-0.125000 I3.771437 J0.958185
G02 X31.474663 Y42.979332 Z-0.125000 I4.656381 J0.554825
G02 X31.518024 Y43.650958 Z-0.125000 I5.223171 J0.000000
G02 X31.647119 Y44.309369 Z-0.125000 I5.147893 J-0.667488
G02 X31.874510 Y44.937055 Z-0.125000 I3.856118 J-1.041921
G02 X32.137063 Y45.374215 Z-0.125000 I2.117197 J-0.974140
G02 X32.492426 Y45.731976 Z-0.125000 I1.529471 J-1.163847
G02 X32.924886 Y45.982118 Z-0.125000 I1.152485 J-1.493585
G02 X33.409494 Y46.130852 Z-0.125000 I0.975152 J-2.313401
G02 X33.928288 Y46.182030 Z-0.125000 I0.518793 J-2.603927
G01 X33.928288 Y46.182030 Z-0.125000
G00 Z5.000000

(End cutting path id: path16032)


(Start cutting path id: path16030)
(Change tool to Default tool)

G00 Z5.000000
G00 X26.234256 Y40.506925

G01 Z-0.125000 F100.0(Penetrate)
G03 X26.246560 Y40.698858 Z-0.125000 I-5.434521 J0.444759 F400.000000
G03 X26.257738 Y41.012831 Z-0.125000 I-14.534421 J0.674645
G02 X26.270342 Y41.331025 Z-0.125000 I60.060096 J-2.219531
G02 X26.285154 Y41.661531 Z-0.125000 I64.812540 J-2.739106
G03 X26.687861 Y42.013773 Z-0.125000 I-12.627464 J14.842929
G03 X27.033786 Y42.334708 Z-0.125000 I-10.135784 J11.271876
G03 X27.578647 Y42.872716 Z-0.125000 I-18.626363 J19.408548
G03 X28.013667 Y43.330203 Z-0.125000 I-13.030986 J12.826606
G03 X28.346060 Y43.708599 Z-0.125000 I-8.366698 J7.684706
G03 X28.585918 Y44.011540 Z-0.125000 I-5.120138 J4.300370
G03 X28.708600 Y44.200690 Z-0.125000 I-1.739025 J1.262290
G01 X28.762299 Y44.317530 Z-0.125000
G01 X28.785814 Y44.404597 Z-0.125000
G01 X28.793647 Y44.492965 Z-0.125000
G01 X28.779569 Y44.607412 Z-0.125000
G01 X28.742692 Y44.696958 Z-0.125000
G01 X28.680780 Y44.775673 Z-0.125000
G01 X28.581989 Y44.847913 Z-0.125000
G01 X28.468689 Y44.899928 Z-0.125000
G03 X28.315466 Y44.945833 Z-0.125000 I-0.452375 J-1.231291
G03 X28.157502 Y44.972349 Z-0.125000 I-0.286733 J-1.224359
G03 X27.958787 Y44.982550 Z-0.125000 I-0.198715 J-1.930341
G03 X27.685338 Y44.971032 Z-0.125000 I-0.000000 J-3.251529
G03 X27.378697 Y44.933592 Z-0.125000 I0.348370 J-4.127731
G03 X27.078872 Y44.875314 Z-0.125000 I0.784775 J-4.837816
G03 X26.551676 Y44.745920 Z-0.125000 I3.425901 J-15.097021
G01 X26.653582 Y45.329341 Z-0.125000
G03 X26.684608 Y45.505488 Z-0.125000 I-3.637413 J0.731497
G03 X26.755491 Y46.002518 Z-0.125000 I-28.904789 J4.375774
G02 X27.789924 Y46.140413 Z-0.125000 I2.244741 J-12.890287
G02 X28.687820 Y46.182030 Z-0.125000 I0.897896 J-9.665258
G02 X29.097323 Y46.161934 Z-0.125000 I-0.000000 J-4.182274
G02 X29.475646 Y46.104519 Z-0.125000 I-0.356708 J-3.625568
G02 X29.839572 Y45.996323 Z-0.125000 I-0.446977 J-2.169604
G02 X30.149802 Y45.839323 Z-0.125000 I-0.680073 J-1.728822
G02 X30.420518 Y45.628913 Z-0.125000 I-0.831723 J-1.349460
G02 X30.596631 Y45.406857 Z-0.125000 I-0.753263 J-0.778279
G01 X30.707694 Y45.151449 Z-0.125000
G01 X30.745570 Y44.876474 Z-0.125000
G02 X30.734781 Y44.690048 Z-0.125000 I-1.616094 J0.000000
G02 X30.702454 Y44.505206 Z-0.125000 I-1.620979 J0.188246
G02 X30.648239 Y44.333836 Z-0.125000 I-1.334765 J0.328009
G02 X30.541759 Y44.093136 Z-0.125000 I-2.745869 J1.070811
G02 X30.379266 Y43.807919 Z-0.125000 I-3.014190 J1.528339
G02 X30.173323 Y43.513795 Z-0.125000 I-3.411937 J2.169844
G02 X29.836689 Y43.094947 Z-0.125000 I-7.781289 J5.909238
G02 X29.420774 Y42.628461 Z-0.125000 I-10.070272 J8.559906
G02 X29.005980 Y42.203163 Z-0.125000 I-12.676689 J11.948671
G02 X28.440889 Y41.657451 Z-0.125000 I-21.440920 J21.636890
G01 X28.872036 Y41.653367 Z-0.125000
G03 X29.024890 Y41.654396 Z-0.125000 I-0.000000 J11.349617
G03 X29.475646 Y41.661497 Z-0.125000 I-1.329507 J98.708142
G03 X29.930252 Y41.671464 Z-0.125000 I-1.031446 J57.415267
G03 X30.106687 Y41.677833 Z-0.125000 I-0.224022 J8.653818
G03 X30.282806 Y41.689338 Z-0.125000 I-0.215321 J4.649732
G03 X30.541759 Y41.714550 Z-0.125000 I-0.850624 J10.079151
G02 X30.528051 Y41.518871 Z-0.125000 I-9.833338 J0.590528
G02 X30.502560 Y41.224969 Z-0.125000 I-22.209499 J1.778201
G03 X30.480371 Y40.931124 Z-0.125000 I32.434242 J-2.597011
G03 X30.451606 Y40.506910 Z-0.125000 I67.570364 J-4.794912
G03 X29.475637 Y40.512918 Z-0.125000 I-1.869453 J-224.415221
G03 X28.409533 Y40.515040 Z-0.125000 I-1.066104 J-267.779044
G03 X27.123938 Y40.512638 Z-0.125000 I-0.000000 J-343.985115
G03 X26.234195 Y40.506910 Z-0.125000 I0.615803 J-164.768422
G01 X26.234256 Y40.506925 Z-0.125000
G00 Z5.000000

(End cutting path id: path16030)


(Start cutting path id: path16028)
(Change tool to Default tool)

G00 Z5.000000
G00 X24.001147 Y43.379385

G01 Z-0.125000 F100.0(Penetrate)
G01 X23.822119 Y43.352998 Z-0.125000 F400.000000
G01 X23.667663 Y43.278899 Z-0.125000
G01 X23.544010 Y43.160486 Z-0.125000
G01 X23.445341 Y42.983537 Z-0.125000
G03 X23.391625 Y42.788129 Z-0.125000 I0.988255 J-0.376752
G03 X23.372209 Y42.563333 Z-0.125000 I1.291638 J-0.224796
G03 X23.420529 Y42.246861 Z-0.125000 I1.060536 J-0.000000
G01 X23.533100 Y42.048735 Z-0.125000
G01 X23.714528 Y41.918617 Z-0.125000
G01 X23.936791 Y41.872126 Z-0.125000
G01 X24.112956 Y41.898310 Z-0.125000
G01 X24.267348 Y41.972608 Z-0.125000
G01 X24.390342 Y42.093989 Z-0.125000
G01 X24.486746 Y42.274058 Z-0.125000
G03 X24.543049 Y42.478642 Z-0.125000 I-1.065855 J0.403371
G03 X24.562803 Y42.703400 Z-0.125000 I-1.268763 J0.224759
G03 X24.546977 Y42.889254 Z-0.125000 I-1.099200 J0.000000
G01 X24.504298 Y43.044438 Z-0.125000
G01 X24.426261 Y43.181192 Z-0.125000
G01 X24.311228 Y43.288032 Z-0.125000
G01 X24.171882 Y43.354758 Z-0.125000
G01 X24.001147 Y43.379385 Z-0.125000
G01 X24.001147 Y43.379385 Z-0.125000
G00 Z5.000000

(End cutting path id: path16028)


(Start cutting path id: path16028)
(Change tool to Default tool)

G00 Z5.000000
G00 X24.021625 Y44.274605

G01 Z-0.125000 F100.0(Penetrate)
G02 X24.379384 Y44.245078 Z-0.125000 I-0.000000 J-2.182115 F400.000000
G02 X24.717843 Y44.158894 Z-0.125000 I-0.338656 J-2.037650
G02 X25.035541 Y44.012332 Z-0.125000 I-0.564551 J-1.641375
G02 X25.285351 Y43.823947 Z-0.125000 I-0.705540 J-1.195412
G02 X25.485965 Y43.587493 Z-0.125000 I-0.922029 J-0.985606
G02 X25.624684 Y43.315439 Z-0.125000 I-1.088780 J-0.726555
G02 X25.706732 Y43.020765 Z-0.125000 I-1.499930 J-0.576394
G02 X25.735845 Y42.691220 Z-0.125000 I-1.850535 J-0.329546
G02 X25.710261 Y42.369603 Z-0.125000 I-2.034263 J0.000000
G02 X25.636388 Y42.070048 Z-0.125000 I-1.836900 J0.294113
G02 X25.510334 Y41.794910 Z-0.125000 I-1.301275 J0.429730
G02 X25.305829 Y41.518911 Z-0.125000 I-1.514059 J0.908094
G02 X25.046995 Y41.300641 Z-0.125000 I-0.969399 J0.886953
G02 X24.709069 Y41.135244 Z-0.125000 I-0.877392 J1.364705
G02 X24.343550 Y41.040456 Z-0.125000 I-0.721337 J2.029456
G02 X23.945567 Y41.007355 Z-0.125000 I-0.397983 J2.375970
G02 X23.578670 Y41.036133 Z-0.125000 I-0.000000 J2.353236
G02 X23.231796 Y41.120018 Z-0.125000 I0.345000 J2.185726
G02 X22.908254 Y41.264263 Z-0.125000 I0.547258 J1.662473
G02 X22.658439 Y41.448875 Z-0.125000 I0.669578 J1.167401
G02 X22.459637 Y41.684786 Z-0.125000 I0.948250 J1.000805
G02 X22.313254 Y41.966521 Z-0.125000 I1.214852 J0.810105
G02 X22.228346 Y42.273307 Z-0.125000 I1.623987 J0.614612
G02 X22.199168 Y42.599873 Z-0.125000 I1.812931 J0.326565
G02 X22.227631 Y42.926694 Z-0.125000 I1.890559 J0.000000
G02 X22.310329 Y43.233225 Z-0.125000 I1.744059 J-0.306104
G02 X22.454320 Y43.515259 Z-0.125000 I1.345883 J-0.509356
G02 X22.667214 Y43.775229 Z-0.125000 I1.353298 J-0.891084
G02 X22.933778 Y43.982405 Z-0.125000 I1.037412 J-1.059720
G02 X23.272750 Y44.143671 Z-0.125000 I0.952986 J-1.566238
G02 X23.638422 Y44.241357 Z-0.125000 I0.736726 J-2.024544
G02 X24.021625 Y44.274605 Z-0.125000 I0.383203 J-2.191718
G01 X24.021625 Y44.274605 Z-0.125000
G00 Z5.000000

(End cutting path id: path16028)


(Start cutting path id: path16026)
(Change tool to Default tool)

G00 Z5.000000
G00 X19.610285 Y43.339800

G01 Z-0.125000 F100.0(Penetrate)
G03 X19.588764 Y43.202522 Z-0.125000 I5.016207 J-0.856698 F400.000000
G03 X19.578106 Y43.114471 Z-0.125000 I2.052432 J-0.293100
G03 X19.570519 Y43.029116 Z-0.125000 I3.059106 J-0.314923
G03 X19.560555 Y42.880009 Z-0.125000 I9.326435 J-0.698161
G03 X19.553431 Y42.733800 Z-0.125000 I6.478683 J-0.388929
G03 X19.551781 Y42.645548 Z-0.125000 I2.358227 J-0.088252
G03 X19.572970 Y42.400212 Z-0.125000 I1.430848 J-0.000000
G01 X19.624913 Y42.225341 Z-0.125000
G01 X19.718456 Y42.072226 Z-0.125000
G01 X19.832608 Y41.963473 Z-0.125000
G01 X19.974109 Y41.894697 Z-0.125000
G01 X20.119287 Y41.872126 Z-0.125000
G01 X20.272631 Y41.896027 Z-0.125000
G01 X20.414742 Y41.966521 Z-0.125000
G01 X20.529126 Y42.079857 Z-0.125000
G01 X20.628288 Y42.255790 Z-0.125000
G01 X20.685864 Y42.451859 Z-0.125000
G03 X20.707271 Y42.688177 Z-0.125000 I-1.293710 J0.236318
G01 X20.659374 Y42.996500 Z-0.125000
G01 X20.540529 Y43.211911 Z-0.125000
G01 X20.349771 Y43.352563 Z-0.125000
G01 X20.060781 Y43.409834 Z-0.125000
G03 X19.863939 Y43.394624 Z-0.125000 I-0.000000 J-1.281410
G03 X19.610286 Y43.339800 Z-0.125000 I0.340097 J-2.187698
G01 X19.610285 Y43.339800 Z-0.125000
G00 Z5.000000

(End cutting path id: path16026)


(Start cutting path id: path16026)
(Change tool to Default tool)

G00 Z5.000000
G00 X18.261725 Y39.661482

G01 Z-0.125000 F100.0(Penetrate)
G03 X18.312999 Y40.286022 Z-0.125000 I-45.287578 J4.032431 F400.000000
G03 X18.355334 Y40.906870 Z-0.125000 I-44.711336 J3.360724
G03 X18.416041 Y41.969878 Z-0.125000 I-85.950102 J5.441715
G03 X18.446019 Y42.688177 Z-0.125000 I-39.213114 J1.996292
G03 X18.465837 Y43.409952 Z-0.125000 I-40.013909 J1.459845
G03 X18.472347 Y44.116264 Z-0.125000 I-38.311108 J0.706312
G02 X19.067082 Y44.203428 Z-0.125000 I3.894433 J-24.499718
G02 X19.402590 Y44.241108 Z-0.125000 I1.040988 J-7.756664
G02 X19.739414 Y44.266246 Z-0.125000 I0.676151 J-6.790553
G02 X20.075407 Y44.274605 Z-0.125000 I0.335993 J-6.748739
G02 X20.493532 Y44.250053 Z-0.125000 I0.000000 J-3.572689
G02 X20.850609 Y44.183252 Z-0.125000 I-0.314530 J-2.669053
G02 X21.179522 Y44.050031 Z-0.125000 I-0.336163 J-1.302597
G01 X21.418116 Y43.860486 Z-0.125000
G02 X21.604627 Y43.611144 Z-0.125000 I-1.037408 J-0.970424
G02 X21.742823 Y43.309348 Z-0.125000 I-1.390815 J-0.819409
G02 X21.823319 Y42.985059 Z-0.125000 I-1.906054 J-0.645261
G02 X21.851059 Y42.639457 Z-0.125000 I-2.138992 J-0.345602
G02 X21.828809 Y42.322909 Z-0.125000 I-2.262833 J-0.000000
G02 X21.763300 Y42.018286 Z-0.125000 I-2.160228 J0.305196
G02 X21.650866 Y41.732290 Z-0.125000 I-1.666921 J0.490225
G02 X21.494174 Y41.479323 Z-0.125000 I-1.457517 J0.727800
G02 X21.291665 Y41.264411 Z-0.125000 I-1.077258 J0.812216
G01 X21.075857 Y41.123066 Z-0.125000
G02 X20.834628 Y41.038185 Z-0.125000 I-0.470076 J0.950719
G02 X20.552230 Y41.007355 Z-0.125000 I-0.282398 J1.277936
G02 X20.409597 Y41.014614 Z-0.125000 I0.000000 J1.404972
G02 X20.253850 Y41.037804 Z-0.125000 I0.173387 J1.699084
G02 X20.103829 Y41.072523 Z-0.125000 I0.277656 J1.541234
G02 X19.964246 Y41.120018 Z-0.125000 I0.392099 J1.381189
G02 X19.828824 Y41.179058 Z-0.125000 I0.860848 J2.159390
G02 X19.733148 Y41.229636 Z-0.125000 I0.534635 J1.127124
G02 X19.644216 Y41.289978 Z-0.125000 I1.022118 J1.602092
G02 X19.504975 Y41.394067 Z-0.125000 I2.907182 J4.034154
G01 X19.472797 Y40.544522 Z-0.125000
G03 X19.455778 Y39.959826 Z-0.125000 I49.430257 J-1.731398
G03 X19.452319 Y39.661482 Z-0.125000 I12.864987 J-0.298344
G03 X19.112973 Y39.666285 Z-0.125000 I-0.813732 J-45.507133
G03 X18.870186 Y39.667550 Z-0.125000 I-0.242788 J-23.292656
G03 X18.659573 Y39.666500 Z-0.125000 I-0.000000 J-21.120804
G03 X18.261725 Y39.661482 Z-0.125000 I0.751633 J-75.371836
G01 X18.261725 Y39.661482 Z-0.125000
G00 Z5.000000

(End cutting path id: path16026)


(Start cutting path id: path16024)
(Change tool to Default tool)

G00 Z5.000000
G00 X14.230673 Y41.086524

G01 Z-0.125000 F100.0(Penetrate)
G01 X14.897640 Y42.009148 Z-0.125000 F400.000000
G01 X15.392014 Y42.715581 Z-0.125000
G01 X14.473472 Y44.195433 Z-0.125000
G03 X14.900574 Y44.190612 Z-0.125000 I1.021072 J71.537420
G03 X15.207721 Y44.189337 Z-0.125000 I0.307147 J36.995056
G03 X15.593836 Y44.191191 Z-0.125000 I0.000000 J40.208833
G03 X15.842509 Y44.195433 Z-0.125000 I-0.160197 J16.681645
G01 X16.152590 Y43.498138 Z-0.125000
