%
(Header)
(Generated by gcodetools from Inkscape.)
(Using default header. To add your own header create file "header" in the output dir.)
M3
(Header end.)
G21 (All units in mm)

(Start cutting path id: path893)
(Change tool to Default tool)

G00 Z5.000000
G00 X34.013508 Y81.281278

G01 Z-0.125000 F100.0(Penetrate)
G03 X25.475042 Y77.681944 Z-0.125000 I-0.000000 J-11.927291 F400.000000
G03 X21.873578 Y68.831429 Z-0.125000 I9.074231 J-8.850513
G03 X25.474818 Y59.979646 Z-0.125000 I12.679399 J0.000007
G03 X34.013508 Y56.379493 Z-0.125000 I8.538691 J8.325774
G03 X42.552198 Y59.979646 Z-0.125000 I0.000000 J11.925926
G03 X46.153438 Y68.831429 Z-0.125000 I-9.078159 J8.851790
G03 X42.551974 Y77.681944 Z-0.125000 I-12.675692 J0.000004
G03 X34.013508 Y81.281278 Z-0.125000 I-8.538466 J-8.327957
G01 X34.013508 Y81.281278 Z-0.125000
G00 Z5.000000

(End cutting path id: path893)


(Start cutting path id: path893)
(Change tool to Default tool)

G00 Z5.000000
G00 X34.013508 Y81.145388

G01 Z-0.125000 F100.0(Penetrate)
G02 X42.465341 Y77.582972 Z-0.125000 I0.000000 J-11.807195 F400.000000
G02 X46.026939 Y68.831429 Z-0.125000 I-8.971320 J-8.751540
G02 X42.465559 Y60.078620 Z-0.125000 I-12.536604 J0.000007
G02 X34.013508 Y56.515393 Z-0.125000 I-8.452050 J8.242608
G02 X25.562636 Y60.078822 Z-0.125000 I0.000000 J11.802574
G02 X22.002053 Y68.831429 Z-0.125000 I8.977539 J8.752616
G02 X25.562853 Y77.582770 Z-0.125000 I12.534435 J0.000002
G02 X34.013508 Y81.145388 Z-0.125000 I8.450655 J-8.241315
G01 X34.013508 Y81.145388 Z-0.125000
G00 Z5.000000

(End cutting path id: path893)


(Start cutting path id: path5979)
(Change tool to Default tool)

G00 Z5.000000
G00 X36.089004 Y80.400594

G01 Z-0.125000 F100.0(Penetrate)
G02 X32.115598 Y76.471861 Z-0.125000 I-119.145487 J116.526640 F400.000000
G02 X30.942069 Y76.183361 Z-0.125000 I-0.837584 J0.876006
G02 X30.038265 Y76.900248 Z-0.125000 I0.420758 J1.458636
G02 X28.549833 Y79.787171 Z-0.125000 I41.135159 J23.035514
G00 Z5.000000

(End cutting path id: path5979)


(Start cutting path id: path5985)
(Change tool to Default tool)

G00 Z5.000000
G00 X31.142625 Y75.678457

G01 Z-0.125000 F100.0(Penetrate)
G03 X32.858215 Y71.307695 Z-0.125000 I72.241411 J25.833751 F400.000000
G03 X34.846115 Y67.030447 Z-0.125000 I71.276684 J30.526089
G03 X38.890582 Y60.452577 Z-0.125000 I40.263808 J20.224267
G03 X41.778959 Y59.602373 Z-0.125000 I2.006340 J1.484682
G00 Z5.000000

(End cutting path id: path5985)


(Start cutting path id: path5983)
(Change tool to Default tool)

G00 Z5.000000
G00 X33.189322 Y56.784024

G01 Z-0.125000 F100.0(Penetrate)
G02 X30.840907 Y60.561520 Z-0.125000 I7.591878 J7.338498 F400.000000
G03 X29.419737 Y63.991664 Z-0.125000 I-35.833338 J-12.836906
G01 X29.419737 Y71.659391 Z-0.125000
G02 X30.114943 Y75.583225 Z-0.125000 I103.208314 J-16.262432
G01 X30.869577 Y76.030003 Z-0.125000
G00 Z5.000000

(End cutting path id: path5983)


(Start cutting path id: path5977)
(Change tool to Default tool)

G00 Z5.000000
G00 X31.594497 Y75.876644

G01 Z-0.125000 F100.0(Penetrate)
G01 X31.827539 Y75.250654 Z-0.125000 F400.000000
G03 X36.976154 Y71.779357 Z-0.125000 I24.797439 J31.225620
G03 X42.197118 Y69.347794 Z-0.125000 I17.888046 J31.587642
G03 X46.020413 Y69.052373 Z-0.125000 I2.426623 J6.517033
G00 Z5.000000

(End cutting path id: path5977)


(Start cutting path id: path5981)
(Change tool to Default tool)

G00 Z5.000000
G00 X22.092719 Y69.983955

G01 Z-0.125000 F100.0(Penetrate)
G02 X28.159439 Y76.115793 Z-0.125000 I117.515468 J-110.200441 F400.000000
G02 X30.434625 Y76.260035 Z-0.125000 I1.223105 J-1.276700
G00 Z5.000000

(End cutting path id: path5981)


(Start cutting path id: path5973)
(Change tool to Default tool)

G00 Z5.000000
G00 X21.688947 Y92.295459

G01 Z-0.125000 F100.0(Penetrate)
G01 X18.194163 Y101.486166 Z-0.125000 F400.000000
G01 X17.863812 Y108.886411 Z-0.125000
G01 X18.349609 Y109.554991 Z-0.125000
G02 X29.553350 Y109.220240 Z-0.125000 I2.102666 J-117.281670
G02 X34.014726 Y107.142615 Z-0.125000 I-0.544630 J-6.998376
G00 Z5.000000

(End cutting path id: path5973)


(Start cutting path id: path5971)
(Change tool to Default tool)

G00 Z5.000000
G00 X39.325482 Y113.006802

G01 Z-0.125000 F100.0(Penetrate)
G01 X42.120598 Y115.958238 Z-0.125000 F400.000000
G03 X29.853753 Y115.795383 Z-0.125000 I-5.325165 J-60.962294
G03 X19.394346 Y110.300952 Z-0.125000 I1.853061 J-16.230233
G02 X16.735287 Y111.120602 Z-0.125000 I1.194327 J8.597563
G02 X15.559268 Y112.511476 Z-0.125000 I1.016776 J2.052323
G03 X14.810684 Y111.599734 Z-0.125000 I0.548662 J-1.213661
G02 X14.637765 Y111.039754 Z-0.125000 I-4.032368 J0.938486
G01 X15.113619 Y109.761463 Z-0.125000
G02 X15.886384 Y109.533009 Z-0.125000 I0.081000 J-1.147207
G02 X16.959805 Y108.354486 Z-0.125000 I-2.583462 J-3.431173
G03 X13.120842 Y94.799823 Z-0.125000 I15.958664 J-11.840795
G03 X14.893769 Y84.103427 Z-0.125000 I69.399974 J6.007909
G01 X27.049795 Y98.025086 Z-0.125000
G01 X28.219774 Y98.434604 Z-0.125000
G01 X49.170988 Y79.651196 Z-0.125000
G01 X49.783595 Y80.088590 Z-0.125000
G01 X49.899683 Y80.654074 Z-0.125000
G01 X28.771167 Y99.519046 Z-0.125000
G01 X28.863795 Y100.257013 Z-0.125000
G01 X39.325482 Y113.006802 Z-0.125000
G00 Z5.000000

(End cutting path id: path5971)


(Start cutting path id: path5816)
(Change tool to Default tool)

G00 Z5.000000
G00 X134.156460 Y84.964469

G01 Z-0.125000 F100.0(Penetrate)
G03 X134.315486 Y79.812197 Z-0.125000 I119.274747 J1.102843 F400.000000
G03 X134.888769 Y78.419190 Z-0.125000 I2.268524 J0.119127
G01 X134.576377 Y77.842513 Z-0.125000
G02 X129.909054 Y78.574107 Z-0.125000 I70.906960 J467.616157
G03 X131.614459 Y72.375231 Z-0.125000 I101.782667 J24.667921
G03 X133.057993 Y71.138051 Z-0.125000 I1.701775 J0.524878
G01 X133.096529 Y70.562545 Z-0.125000
G02 X128.444434 Y69.240307 Z-0.125000 I-287.297342 J1001.967352
G03 X132.981882 Y63.959788 Z-0.125000 I90.634108 J73.290398
G03 X134.925386 Y63.740723 Z-0.125000 I1.096933 J1.001049
G01 X135.237204 Y63.408143 Z-0.125000
G02 X131.959526 Y59.286834 Z-0.125000 I-2382.206048 J1891.204663
G03 X137.997574 Y57.405396 Z-0.125000 I38.848048 J114.044345
G03 X139.429098 Y58.241139 Z-0.125000 I0.313352 J1.107150
G01 X139.937845 Y58.213261 Z-0.125000
G02 X140.674027 Y52.470451 Z-0.125000 I-2521.322157 J-326.131930
G02 X146.130771 Y56.251953 Z-0.125000 I142.453556 J-199.734054
G02 X147.447902 Y56.420856 Z-0.125000 I0.826925 J-1.228438
G02 X149.172567 Y54.595381 Z-0.125000 I-0.906445 J-2.583836
G03 X151.658691 Y51.231107 Z-0.125000 I5.769799 J1.663020
G01 X152.413621 Y51.392543 Z-0.125000
G03 X153.613104 Y53.739393 Z-0.125000 I-11.291051 J7.250851
G03 X154.559532 Y56.652292 Z-0.125000 I-23.781552 J9.337051
G03 X154.661166 Y57.621469 Z-0.125000 I-3.162246 J0.821529
G01 X156.077102 Y58.172214 Z-0.125000
G03 X159.567651 Y54.445654 Z-0.125000 I34.980203 J29.266807
G01 X159.967120 Y54.583241 Z-0.125000
G03 X160.142508 Y57.453833 Z-0.125000 I-16.899980 J2.473215
G03 X159.861548 Y60.704877 Z-0.125000 I-25.933120 J-0.603514
G03 X159.274725 Y61.804249 Z-0.125000 I-1.841643 J-0.276730
G01 X159.407044 Y62.086318 Z-0.125000
G02 X161.628068 Y61.590167 Z-0.125000 I-1.913116 J-13.783365
G02 X164.428547 Y60.548755 Z-0.125000 I-8.165547 J-26.244241
G01 X164.876904 Y59.945235 Z-0.125000
G01 X164.995217 Y59.951522 Z-0.125000
G03 X165.023368 Y62.462650 Z-0.125000 I-11194.142615 J126.747976
G01 X159.604266 Y66.103220 Z-0.125000
G01 X159.494419 Y67.884776 Z-0.125000
G01 X161.142118 Y68.000964 Z-0.125000
G01 X168.282152 Y63.740723 Z-0.125000
G02 X169.828845 Y64.303717 Z-0.125000 I1.182351 J-0.842147
G02 X170.772009 Y62.656299 Z-0.125000 I-0.333023 J-1.284354
G01 X171.039431 Y62.330557 Z-0.125000
G03 X172.244225 Y62.524687 Z-0.125000 I-0.630013 J7.745577
G02 X173.692769 Y62.854423 Z-0.125000 I12.065458 J-49.657356
G01 X174.104022 Y62.617570 Z-0.125000
G01 X175.568644 Y61.300769 Z-0.125000
G01 X175.715106 Y58.589705 Z-0.125000
G02 X176.215691 Y59.482184 Z-0.125000 I3.297897 J-1.263138
G01 X176.923420 Y59.790318 Z-0.125000
G01 X177.685329 Y59.292417 Z-0.125000
G02 X178.534504 Y57.505281 Z-0.125000 I-13.844552 J-7.673687
G02 X177.957799 Y56.034191 Z-0.125000 I-4.664297 J0.979939
G02 X176.740344 Y55.491347 Z-0.125000 I-0.996062 J0.597265
G02 X177.267194 Y54.300132 Z-0.125000 I-1.071245 J-1.185905
G02 X176.630497 Y53.283769 Z-0.125000 I-1.135583 J0.003772
G01 X175.568644 Y53.051392 Z-0.125000
G02 X175.778528 Y51.710359 Z-0.125000 I-0.887181 J-0.825793
G02 X175.275721 Y50.998729 Z-0.125000 I-2.251736 J1.057535
G01 X172.785864 Y50.766355 Z-0.125000
G02 X172.251228 Y51.905507 Z-0.125000 I1.989316 J1.628676
G01 X172.639402 Y52.896475 Z-0.125000
G01 X173.774484 Y53.361227 Z-0.125000
G02 X173.367194 Y54.681734 Z-0.125000 I0.562888 J0.896678
G02 X173.774484 Y55.258972 Z-0.125000 I1.608736 J-0.702789
G01 X173.593132 Y56.309608 Z-0.125000
G02 X172.932325 Y57.156714 Z-0.125000 I9.187525 J7.848250
G01 X173.188634 Y59.635401 Z-0.125000
G01 X172.236629 Y58.434788 Z-0.125000
G01 X170.808624 Y58.279870 Z-0.125000
G01 X169.600310 Y56.382125 Z-0.125000
G01 X168.833065 Y56.305277 Z-0.125000
G01 X168.428613 Y56.769420 Z-0.125000
G02 X168.464203 Y57.423785 Z-0.125000 I4.477924 J0.084602
G03 X168.611693 Y58.783354 Z-0.125000 I-34.780098 J4.460810
G01 X168.904613 Y59.441752 Z-0.125000
G02 X168.282910 Y59.282476 Z-0.125000 I-0.715465 J1.499700
G01 X167.945722 Y59.376149 Z-0.125000
G01 X167.707749 Y59.672705 Z-0.125000
G02 X167.549840 Y60.332530 Z-0.125000 I2.177442 J0.869910
G01 X167.513226 Y61.339497 Z-0.125000
G01 X164.986751 Y62.462650 Z-0.125000
G00 Z5.000000

(End cutting path id: path5816)


(Start cutting path id: path5850)
(Change tool to Default tool)

G00 Z5.000000
G00 X168.575075 Y63.392157

G01 Z-0.125000 F100.0(Penetrate)
G03 X168.058727 Y62.752929 Z-0.125000 I5.211233 J-4.737624 F400.000000
G03 X167.623070 Y61.494414 Z-0.125000 I1.907658 J-1.365033
G00 Z5.000000

(End cutting path id: path5850)


(Start cutting path id: path5838)
(Change tool to Default tool)

G00 Z5.000000
G00 X173.212928 Y57.623959

G01 Z-0.125000 F100.0(Penetrate)
G01 X174.611047 Y56.911927 Z-0.125000 F400.000000
G01 X175.853822 Y58.719391 Z-0.125000
G00 Z5.000000

(End cutting path id: path5838)


(Start cutting path id: path5840)
(Change tool to Default tool)

G00 Z5.000000
G00 X176.475207 Y60.143458

G01 Z-0.125000 F100.0(Penetrate)
G01 X178.287583 Y64.251336 Z-0.125000 F400.000000
G01 X178.753624 Y70.933489 Z-0.125000
G01 X180.099963 Y74.384108 Z-0.125000
G03 X179.107121 Y74.835694 Z-0.125000 I-1.078633 J-1.054236
G01 X178.805407 Y74.767510 Z-0.125000
G01 X176.785901 Y71.645521 Z-0.125000
G01 X173.575405 Y68.194902 Z-0.125000
G01 X172.229066 Y64.087024 Z-0.125000
G01 X171.141640 Y63.046361 Z-0.125000
G00 Z5.000000

(End cutting path id: path5840)


(Start cutting path id: path5848)
(Change tool to Default tool)

G00 Z5.000000
G00 X176.889464 Y66.496977

G01 Z-0.125000 F100.0(Penetrate)
G01 X175.180651 Y64.579967 Z-0.125000 F400.000000
G01 X175.698475 Y67.154239 Z-0.125000
G01 X174.662830 Y67.537641 Z-0.125000
G01 X174.300356 Y66.989924 Z-0.125000
G01 X177.096594 Y70.495315 Z-0.125000
G01 X178.028673 Y70.440543 Z-0.125000
G01 X177.976893 Y66.004034 Z-0.125000
G01 X176.889464 Y66.496977 Z-0.125000
G00 Z5.000000

(End cutting path id: path5848)


(Start cutting path id: path5832)
(Change tool to Default tool)

G00 Z5.000000
G00 X174.403920 Y55.542633

G01 Z-0.125000 F100.0(Penetrate)
G01 X176.268079 Y55.433088 Z-0.125000 F400.000000
G00 Z5.000000

(End cutting path id: path5832)


(Start cutting path id: path5836)
(Change tool to Default tool)

G00 Z5.000000
G00 X174.041443 Y55.487860

G01 Z-0.125000 F100.0(Penetrate)
G01 X176.630554 Y55.433088 Z-0.125000 F400.000000
G00 Z5.000000

(End cutting path id: path5836)


(Start cutting path id: path5834)
(Change tool to Default tool)

G00 Z5.000000
G00 X174.145009 Y53.242219

G01 Z-0.125000 F100.0(Penetrate)
G01 X175.439565 Y53.132677 Z-0.125000 F400.000000
G00 Z5.000000

(End cutting path id: path5834)


(Start cutting path id: path5842)
(Change tool to Default tool)

G00 Z5.000000
G00 X172.229066 Y50.667947

G01 Z-0.125000 F100.0(Penetrate)
G01 X168.552529 Y38.946799 Z-0.125000 F400.000000
G01 X166.533022 Y38.453852 Z-0.125000
G01 X163.115399 Y40.206547 Z-0.125000
G01 X162.183318 Y42.233103 Z-0.125000
G01 X168.915006 Y55.652176 Z-0.125000
G00 Z5.000000

(End cutting path id: path5842)


(Start cutting path id: path5818)
(Change tool to Default tool)

G00 Z5.000000
G00 X162.350432 Y67.574940

G01 Z-0.125000 F100.0(Penetrate)
G01 X163.046128 Y68.000964 Z-0.125000 F400.000000
G01 X164.181210 Y67.923505 Z-0.125000
G01 X168.025843 Y70.014896 Z-0.125000
G03 X166.032818 Y72.665442 Z-0.125000 I-4.959979 J-1.654976
G03 X163.155975 Y74.236408 Z-0.125000 I-8.996614 J-13.055516
G03 X164.731114 Y76.860528 Z-0.125000 I-9.788447 J7.660358
G02 X166.597835 Y78.883943 Z-0.125000 I3.906783 J-1.731451
G03 X162.766712 Y80.697652 Z-0.125000 I-4.724665 J-5.026856
G03 X159.787342 Y80.781687 Z-0.125000 I-1.901449 J-14.556663
G02 X160.040199 Y83.983573 Z-0.125000 I3.581191 J1.328116
G02 X161.801200 Y86.048893 Z-0.125000 I6.156590 J-3.466009
G03 X158.636106 Y86.575219 Z-0.125000 I-4.596629 J-17.862235
G03 X153.928854 Y85.274305 Z-0.125000 I-0.556790 J-7.152159
G02 X153.160159 Y87.969442 Z-0.125000 I8.898461 J3.995173
G02 X152.976852 Y90.541511 Z-0.125000 I20.448291 J2.749879
G00 Z5.000000

(End cutting path id: path5818)


(Start cutting path id: path5814)
(Change tool to Default tool)

G00 Z5.000000
G00 X153.017868 Y90.587142

G01 Z-0.125000 F100.0(Penetrate)
G03 X149.531547 Y89.266977 Z-0.125000 I1.801048 J-10.019702 F400.000000
G03 X147.310337 Y86.559474 Z-0.125000 I2.745468 J-4.517238
G02 X145.311665 Y87.825560 Z-0.125000 I2.159563 J5.619752
G02 X143.800635 Y90.870399 Z-0.125000 I3.445101 J3.607016
G03 X141.117149 Y86.108547 Z-0.125000 I5.967822 J-6.500145
G02 X140.542037 Y83.311900 Z-0.125000 I-309.101766 J62.107319
G02 X137.309030 Y84.059240 Z-0.125000 I8.175813 J42.735371
G02 X134.065581 Y85.064595 Z-0.125000 I12.627530 J46.473264
G00 Z5.000000

(End cutting path id: path5814)


(Start cutting path id: path5822)
(Change tool to Default tool)

G00 Z5.000000
G00 X133.607226 Y75.901775

G01 Z-0.125000 F100.0(Penetrate)
G03 X145.602379 Y73.838228 Z-0.125000 I10.176109 J23.257547 F400.000000
G03 X158.798725 Y76.327799 Z-0.125000 I-4.202106 J58.493298
G01 X160.263345 Y76.327799 Z-0.125000
G01 X161.727967 Y74.662432 Z-0.125000
G01 X161.654735 Y73.539277 Z-0.125000
G02 X161.406725 Y73.365667 Z-0.125000 I-2.471004 J3.265986
G01 X160.629500 Y73.578007 Z-0.125000
G03 X159.811629 Y74.982253 Z-0.125000 I-2.704293 J-0.634757
G01 X159.164878 Y75.243374 Z-0.125000
G03 X157.891754 Y74.595150 Z-0.125000 I-0.088971 J-1.399589
G03 X157.370717 Y73.578007 Z-0.125000 I5.251224 J-3.331992
G02 X155.019776 Y68.590152 Z-0.125000 I-79.859625 J34.592520
G02 X151.841770 Y66.645433 Z-0.125000 I-3.176695 J1.622202
G01 X149.351913 Y66.761621 Z-0.125000
G02 X146.520020 Y69.938350 Z-0.125000 I14.219396 J15.526482
G03 X144.738354 Y70.944403 Z-0.125000 I-1.987860 J-1.439749
G03 X142.711050 Y69.354212 Z-0.125000 I2.110471 J-4.777981
G02 X141.333106 Y67.807317 Z-0.125000 I-11.524372 J8.878510
G01 X137.854629 Y67.768587 Z-0.125000
G02 X134.507334 Y71.649575 Z-0.125000 I1.491951 J4.670776
G03 X133.607226 Y75.901775 Z-0.125000 I-45.824148 J-7.478723
G01 X133.607226 Y75.901775 Z-0.125000
G00 Z5.000000

(End cutting path id: path5822)


(Start cutting path id: path5828)
(Change tool to Default tool)

G00 Z5.000000
G00 X136.463238 Y73.345630

G01 Z-0.125000 F100.0(Penetrate)
G01 X136.553373 Y73.538906 Z-0.125000 F400.000000
G01 X136.499853 Y74.158949 Z-0.125000
G03 X135.653666 Y74.402071 Z-0.125000 I-0.707931 J-0.869815
G03 X134.962001 Y74.120219 Z-0.125000 I0.176847 J-1.423582
G03 X134.634467 Y73.166911 Z-0.125000 I0.801115 J-0.808165
G03 X134.925386 Y72.532311 Z-0.125000 I1.164181 J0.149713
G03 X135.531263 Y70.868757 Z-0.125000 I3.310198 J0.263484
G03 X137.158935 Y69.124119 Z-0.125000 I7.403567 J5.275616
G01 X137.699487 Y69.304945 Z-0.125000
G01 X137.744782 Y69.821249 Z-0.125000
G01 X136.463238 Y71.447886 Z-0.125000
G02 X136.304922 Y72.704294 Z-0.125000 I1.170973 J0.785730
G03 X136.463238 Y73.345630 Z-0.125000 I-3.172765 J1.123420
G01 X136.463238 Y73.345630 Z-0.125000
G00 Z5.000000

(End cutting path id: path5828)


(Start cutting path id: path5854)
(Change tool to Default tool)

G00 Z5.000000
G00 X141.333106 Y76.908740

G01 Z-0.125000 F100.0(Penetrate)
G01 X141.699262 Y77.257306 Z-0.125000 F400.000000
G01 X141.363161 Y77.689856 Z-0.125000
G03 X140.674027 Y77.760789 Z-0.125000 I-0.451257 J-1.001057
G01 X140.344486 Y77.257306 Z-0.125000
G02 X141.063955 Y77.072714 Z-0.125000 I-0.207764 J-2.304191
G02 X141.333106 Y76.908740 Z-0.125000 I-0.469939 J-1.074253
G01 X141.333106 Y76.908740 Z-0.125000
G00 Z5.000000

(End cutting path id: path5854)


(Start cutting path id: path5826)
(Change tool to Default tool)

G00 Z5.000000
G00 X149.498375 Y72.106287

G01 Z-0.125000 F100.0(Penetrate)
G03 X149.079032 Y71.368784 Z-0.125000 I1.939698 J-1.590881 F400.000000
G03 X149.315295 Y69.976167 Z-0.125000 I1.348038 J-0.487650
G01 X151.036227 Y68.155882 Z-0.125000
G01 X150.929630 Y67.633545 Z-0.125000
G01 X150.377148 Y67.303834 Z-0.125000
G02 X148.011291 Y69.121883 Z-0.125000 I178.338821 J234.523522
G02 X146.752209 Y71.138051 Z-0.125000 I2.112593 J2.720528
G01 X146.692151 Y71.580036 Z-0.125000
G02 X147.740829 Y72.725959 Z-0.125000 I2.170847 J-0.933822
G02 X148.647689 Y72.856151 Z-0.125000 I0.855630 J-2.736436
G02 X149.425142 Y72.687229 Z-0.125000 I-0.036484 J-2.041465
G02 X149.614990 Y72.401465 Z-0.125000 I-1.951657 J-1.502529
G01 X149.498375 Y72.106287 Z-0.125000
G01 X149.498375 Y72.106287 Z-0.125000
G00 Z5.000000

(End cutting path id: path5826)


(Start cutting path id: path5852)
(Change tool to Default tool)

G00 Z5.000000
G00 X151.292535 Y77.063658

G01 Z-0.125000 F100.0(Penetrate)
G01 X150.816533 Y77.218576 Z-0.125000 F400.000000
G01 X150.853150 Y77.683330 Z-0.125000
G01 X151.511675 Y77.936580 Z-0.125000
G02 X152.134694 Y77.722059 Z-0.125000 I-0.024411 J-1.082851
G01 X151.292535 Y77.063658 Z-0.125000
G00 Z5.000000

(End cutting path id: path5852)


(Start cutting path id: path5830)
(Change tool to Default tool)

G00 Z5.000000
G00 X140.381104 Y65.134985

G01 Z-0.125000 F100.0(Penetrate)
G01 X142.614652 Y62.772488 Z-0.125000 F400.000000
G01 X147.411288 Y62.927405 Z-0.125000
G01 X150.230686 Y65.367359 Z-0.125000
G01 X150.450377 Y65.832114 Z-0.125000
G01 X151.146074 Y65.328631 Z-0.125000
G01 X150.486995 Y65.096253 Z-0.125000
G01 X147.704211 Y62.578839 Z-0.125000
G01 X145.726974 Y59.209377 Z-0.125000
G01 X143.676502 Y59.170646 Z-0.125000
G01 X142.797729 Y60.603636 Z-0.125000
G01 X142.175264 Y62.346464 Z-0.125000
G01 X140.051563 Y64.554041 Z-0.125000
G01 X139.722022 Y64.399124 Z-0.125000
G01 X139.429098 Y64.708959 Z-0.125000
G01 X140.271257 Y65.483548 Z-0.125000
G01 X140.417718 Y65.018796 Z-0.125000
G00 Z5.000000

(End cutting path id: path5830)


(Start cutting path id: path5846)
(Change tool to Default tool)

G00 Z5.000000
G00 X163.477873 Y40.699493

G01 Z-0.125000 F100.0(Penetrate)
G01 X167.879361 Y49.024795 Z-0.125000 F400.000000
G01 X171.555898 Y58.007359 Z-0.125000
G00 Z5.000000

(End cutting path id: path5846)


(Start cutting path id: path5844)
(Change tool to Default tool)

G00 Z5.000000
G00 X166.636589 Y38.892026

G01 Z-0.125000 F100.0(Penetrate)
G01 X166.688369 Y40.425635 Z-0.125000 F400.000000
G01 X169.122134 Y48.148448 Z-0.125000
G01 X172.695107 Y56.747611 Z-0.125000
G00 Z5.000000

(End cutting path id: path5844)


(Start cutting path id: path16102)
(Change tool to Default tool)

G00 Z5.000000
G00 X150.977453 Y42.207231

G01 Z-0.125000 F100.0(Penetrate)
G03 X151.163010 Y43.367326 Z-0.125000 I-88.565328 J14.760953 F400.000000
G03 X151.221451 Y43.799413 Z-0.125000 I-12.224433 J1.873365
G02 X151.273088 Y44.244214 Z-0.125000 I135.390059 J-15.492126
G02 X151.384126 Y45.180871 Z-0.125000 I600.480200 J-70.710256
G02 X154.331015 Y45.766413 Z-0.125000 I7.252117 J-28.789872
G02 X156.416689 Y45.918438 Z-0.125000 I2.085675 J-14.230965
G02 X157.603212 Y45.833482 Z-0.125000 I0.000000 J-8.328094
G02 X158.612711 Y45.602341 Z-0.125000 I-0.899302 J-6.247723
G02 X159.528859 Y45.179059 Z-0.125000 I-1.084854 J-3.551138
G02 X160.168233 Y44.607218 Z-0.125000 I-1.445602 J-2.259685
G02 X160.557266 Y43.856261 Z-0.125000 I-1.633842 J-1.322658
G02 X160.727400 Y42.628690 Z-0.125000 I-4.343572 J-1.227571
G02 X160.710482 Y41.973652 Z-0.125000 I-12.689614 J0.000000
G02 X160.574906 Y39.678465 Z-0.125000 I-156.025403 J8.064783
G03 X160.454020 Y37.382434 Z-0.125000 I83.353789 J-5.539773
G03 X160.341070 Y33.660903 Z-0.125000 I218.897169 J-8.506123
G03 X159.344657 Y33.678430 Z-0.125000 I-2.003518 J-85.565660
G03 X158.358551 Y33.684232 Z-0.125000 I-0.986106 J-83.798699
G03 X157.402932 Y33.678750 Z-0.125000 I0.000000 J-83.296298
G03 X156.325185 Y33.660903 Z-0.125000 I1.215776 J-105.965760
G03 X156.434680 Y34.951224 Z-0.125000 I-25.311556 J2.797706
G03 X156.640354 Y38.976023 Z-0.125000 I-246.208084 J14.599328
G02 X156.250541 Y38.772535 Z-0.125000 I-5.765823 J10.570206
G02 X156.030349 Y38.671634 Z-0.125000 I-1.631078 J3.268731
G02 X155.814298 Y38.584538 Z-0.125000 I-1.552514 J3.539681
G02 X155.267840 Y38.390650 Z-0.125000 I-8.280501 J22.470901
G03 X154.721057 Y38.197398 Z-0.125000 I8.574592 J-25.130946
G03 X154.403666 Y38.074564 Z-0.125000 I3.141328 J-8.588341
G03 X154.111456 Y37.925011 Z-0.125000 I0.869347 J-2.058850
G03 X153.864822 Y37.746748 Z-0.125000 I0.998278 J-1.640908
G03 X153.661878 Y37.532091 Z-0.125000 I1.139246 J-1.280346
G01 X153.539491 Y37.337008 Z-0.125000
G01 X153.472415 Y37.121185 Z-0.125000
G03 X153.447977 Y36.868706 Z-0.125000 I1.292007 J-0.252480
G01 X153.519708 Y36.499886 Z-0.125000
G01 X153.722480 Y36.189690 Z-0.125000
G01 X154.034119 Y35.996902 Z-0.125000
G03 X154.596826 Y35.908706 Z-0.125000 I0.562707 J1.750995
G03 X154.809738 Y35.916850 Z-0.125000 I-0.000000 J2.787370
G03 X155.054327 Y35.943755 Z-0.125000 I-0.283966 J3.706727
G03 X155.294430 Y36.004309 Z-0.125000 I-0.408188 J2.124786
G03 X155.725332 Y36.154490 Z-0.125000 I-2.201608 J7.010176
G03 X155.455992 Y35.245886 Z-0.125000 I16.139518 J-5.278502
G03 X155.023823 Y33.520341 Z-0.125000 I57.813147 J-15.396415
G02 X154.145915 Y33.394889 Z-0.125000 I-1.884685 J10.054494
G02 X153.366645 Y33.356449 Z-0.125000 I-0.779270 J7.879529
G02 X152.131887 Y33.472192 Z-0.125000 I0.000000 J6.644140
G02 X151.262117 Y33.754492 Z-0.125000 I0.671313 J3.549359
G02 X150.538969 Y34.276190 Z-0.125000 I1.175199 J2.391033
G02 X149.970936 Y35.065712 Z-0.125000 I2.258610 J2.224091
G02 X149.630692 Y35.992283 Z-0.125000 I4.074609 J2.021983
G02 X149.523596 Y36.868630 Z-0.125000 I3.531950 J0.876347
G02 X149.564449 Y37.412704 Z-0.125000 I3.643374 J-0.000000
G02 X149.686262 Y37.945699 Z-0.125000 I3.617489 J-0.546335
G02 X149.898063 Y38.452926 Z-0.125000 I3.327781 J-1.091740
G02 X150.214934 Y38.975947 Z-0.125000 I3.856640 J-1.979037
G02 X150.605541 Y39.445228 Z-0.125000 I3.165567 J-2.237666
G02 X151.048614 Y39.830573 Z-0.125000 I2.566581 J-2.503675
G02 X151.551082 Y40.149277 Z-0.125000 I2.136614 J-2.813134
G02 X152.349966 Y40.509600 Z-0.125000 I3.545029 J-6.794038
G02 X153.194606 Y40.788968 Z-0.125000 I3.669970 J-9.679242
G02 X154.454494 Y41.106669 Z-0.125000 I6.026640 J-21.242459
G03 X154.981039 Y41.231955 Z-0.125000 I-3.735068 J16.866728
G03 X155.420334 Y41.352529 Z-0.125000 I-3.018851 J11.859340
G03 X155.863094 Y41.504174 Z-0.125000 I-2.730860 J8.695472
G03 X156.050672 Y41.586669 Z-0.125000 I-0.608415 J1.637936
G03 X156.233084 Y41.705403 Z-0.125000 I-0.671453 J1.231037
G01 X156.355680 Y41.820809 Z-0.125000
G03 X156.464501 Y41.969037 Z-0.125000 I-0.849568 J0.737769
G01 X156.528517 Y42.101782 Z-0.125000
G01 X156.566479 Y42.256094 Z-0.125000
G01 X156.579423 Y42.417879 Z-0.125000
G01 X156.488890 Y42.816371 Z-0.125000
G01 X156.254092 Y43.096916 Z-0.125000
G01 X155.903090 Y43.266226 Z-0.125000
G03 X155.298414 Y43.342754 Z-0.125000 I-0.604676 J-2.350642
G03 X153.596116 Y43.122793 Z-0.125000 I-0.000000 J-6.697109
G03 X150.977521 Y42.207155 Z-0.125000 I4.446380 J-16.918234
G01 X150.977453 Y42.207231 Z-0.125000
G00 Z5.000000

(End cutting path id: path16102)


(Start cutting path id: path16100)
(Change tool to Default tool)

G00 Z5.000000
G00 X144.094531 Y47.100870

G01 Z-0.125000 F100.0(Penetrate)
G03 X144.144270 Y48.494291 Z-0.125000 I-86.922852 J3.800363 F400.000000
G03 X144.155443 Y49.301841 Z-0.125000 I-29.180060 J0.807550
G03 X144.153554 Y49.535968 Z-0.125000 I-14.511979 J-0.000000
G03 X144.145242 Y49.934046 Z-0.125000 I-41.962802 J-0.677089
G03 X145.375478 Y49.915341 Z-0.125000 I3.046140 J159.883552
G03 X146.209103 Y49.910608 Z-0.125000 I0.833625 J73.406133
G03 X147.357871 Y49.917295 Z-0.125000 I-0.000000 J98.671993
G03 X148.222136 Y49.934046 Z-0.125000 I-0.650444 J55.865325
G03 X148.194738 Y49.570921 Z-0.125000 I21.233209 J-1.784677
G03 X148.181430 Y49.325257 Z-0.125000 I9.704124 J-0.648849
G01 X148.120421 Y47.873561 Z-0.125000
G03 X148.105889 Y47.545573 Z-0.125000 I9.163658 J-0.570325
G03 X148.100019 Y47.100870 Z-0.125000 I16.842537 J-0.444704
G03 X147.093437 Y47.118696 Z-0.125000 I-2.102115 J-90.273176
G03 X146.168329 Y47.124308 Z-0.125000 I-0.925109 J-76.245041
G03 X145.212706 Y47.118908 Z-0.125000 I-0.000000 J-84.568518
G03 X144.094306 Y47.100870 Z-0.125000 I1.309205 J-115.851728
G01 X144.094531 Y47.100870 Z-0.125000
G00 Z5.000000

(Change tool to Default tool)

G00 Z5.000000
G00 X143.454031 Y33.660903

G01 Z-0.125000 F100.0(Penetrate)
G03 X143.590040 Y35.089763 Z-0.125000 I-161.465434 J16.090252 F400.000000
G03 X143.667525 Y36.014079 Z-0.125000 I-67.488775 J6.122962
G03 X143.728957 Y36.939521 Z-0.125000 I-44.232103 J3.400976
G03 X143.799695 Y38.378942 Z-0.125000 I-106.944084 J5.977030
G03 X143.862848 Y39.819254 Z-0.125000 I-130.306158 J6.434972
G03 X143.921694 Y41.563329 Z-0.125000 I-191.008613 J7.317851
G03 X143.964659 Y43.307885 Z-0.125000 I-191.608654 J5.591719
G03 X144.003007 Y45.614049 Z-0.125000 I-334.795923 J6.720603
G03 X145.324732 Y45.595006 Z-0.125000 I3.525184 J198.788455
G03 X146.117697 Y45.590612 Z-0.125000 I0.792965 J71.545377
G03 X146.839514 Y45.594690 Z-0.125000 I-0.000000 J63.877734
G03 X148.191720 Y45.614049 Z-0.125000 I-2.533576 J224.196422
G03 X148.032905 Y43.400483 Z-0.125000 I174.874435 J-13.659023
G03 X147.937560 Y41.727231 Z-0.125000 I99.824226 J-6.527524
G03 X147.880400 Y40.052720 Z-0.125000 I100.486260 J-4.268340
G03 X147.846046 Y38.179915 Z-0.125000 I125.661655 J-3.241831
G03 X147.810718 Y34.855020 Z-0.125000 I1027.835649 J-12.583574
G03 X147.805340 Y33.660903 Z-0.125000 I132.567363 J-1.194117
G03 X146.595445 Y33.679339 Z-0.125000 I-2.884541 J-149.590576
G03 X145.721146 Y33.684232 Z-0.125000 I-0.874299 J-78.107846
G03 X144.857008 Y33.679786 Z-0.125000 I-0.000000 J-83.982542
G03 X143.453963 Y33.660903 Z-0.125000 I2.278389 J-221.416969
G01 X143.454031 Y33.660903 Z-0.125000
G00 Z5.000000

(End cutting path id: path16100)


(Start cutting path id: path16098)
(Change tool to Default tool)

G00 Z5.000000
G00 X141.217324 Y33.660903

G01 Z-0.125000 F100.0(Penetrate)
G03 X140.129434 Y33.679580 Z-0.125000 I-2.727977 J-127.204369 F400.000000
G03 X139.407642 Y33.684232 Z-0.125000 I-0.721792 J-55.990081
G03 X138.594353 Y33.679423 Z-0.125000 I-0.000000 J-68.763340
G03 X137.435285 Y33.660903 Z-0.125000 I1.652226 J-139.685565
G01 X137.496196 Y35.147734 Z-0.125000
G02 X137.092607 Y34.709714 Z-0.125000 I-13.440414 J11.978970
G02 X136.804858 Y34.421886 Z-0.125000 I-6.087369 J5.797946
G02 X136.494249 Y34.174620 Z-0.125000 I-1.977545 J2.165418
G02 X136.042350 Y33.895065 Z-0.125000 I-2.986227 J4.322196
G02 X135.571788 Y33.669830 Z-0.125000 I-1.930471 J3.428978
G02 X135.046004 Y33.497011 Z-0.125000 I-1.643124 J4.112808
G02 X134.512624 Y33.392499 Z-0.125000 I-1.054470 J3.968209
G02 X133.947993 Y33.356525 Z-0.125000 I-0.564631 J4.413031
G02 X132.995931 Y33.461807 Z-0.125000 I0.000000 J4.357370
G02 X132.117969 Y33.766276 Z-0.125000 I0.896042 J4.001893
G02 X131.340056 Y34.258607 Z-0.125000 I1.795785 J3.698185
G02 X130.674274 Y34.925291 Z-0.125000 I2.695752 J3.357888
G02 X130.162770 Y35.731491 Z-0.125000 I3.676653 J2.898066
G02 X129.779605 Y36.716522 Z-0.125000 I5.132327 J2.563453
G02 X129.559819 Y37.768881 Z-0.125000 I7.409075 J2.096523
G02 X129.484769 Y38.870650 Z-0.125000 I8.049736 J1.101769
G02 X129.619493 Y40.427820 Z-0.125000 I9.066405 J0.000000
G02 X130.023613 Y41.961372 Z-0.125000 I9.195511 J-1.603167
G02 X130.692454 Y43.389489 Z-0.125000 I7.805146 J-2.784761
G02 X131.426621 Y44.337964 Z-0.125000 I4.128216 J-2.437070
G02 X132.373454 Y45.085137 Z-0.125000 I3.773872 J-3.808820
G02 X133.388807 Y45.555520 Z-0.125000 I2.433404 J-3.921620
G02 X134.502219 Y45.822826 Z-0.125000 I2.151743 J-6.510161
G02 X135.757675 Y45.918438 Z-0.125000 I1.255456 J-8.194706
G02 X136.598637 Y45.881074 Z-0.125000 I0.000000 J-9.482554
G02 X137.730032 Y45.742828 Z-0.125000 I-1.541817 J-17.316793
G03 X137.790690 Y47.136733 Z-0.125000 I-47.026075 J2.744687
G03 X137.841870 Y49.641354 Z-0.125000 I-151.801344 J4.354738
G03 X139.092427 Y49.622551 Z-0.125000 I3.223132 J172.768033
G03 X139.885398 Y49.618025 Z-0.125000 I0.792971 J69.459956
G03 X140.912173 Y49.623799 Z-0.125000 I-0.000000 J91.287873
G03 X141.959421 Y49.641354 Z-0.125000 I-1.068393 J94.981985
G03 X141.705641 Y46.161631 Z-0.125000 I147.437596 J-12.501886
G03 X141.440920 Y41.153578 Z-0.125000 I305.148691 J-18.640906
G03 X141.254263 Y36.142032 Z-0.125000 I339.282612 J-15.145981
G03 X141.217235 Y33.660903 Z-0.125000 I83.109415 J-2.481129
G01 X141.217324 Y33.660903 Z-0.125000
G00 Z5.000000

(Change tool to Default tool)

G00 Z5.000000
G00 X137.587779 Y42.698928

G01 Z-0.125000 F100.0(Penetrate)
G03 X137.044768 Y42.806843 Z-0.125000 I-1.187055 J-4.552936 F400.000000
G03 X136.571100 Y42.839414 Z-0.125000 I-0.473668 J-3.427863
G03 X135.621316 Y42.715616 Z-0.125000 I-0.000000 J-3.705279
G03 X134.893589 Y42.394550 Z-0.125000 I0.654992 J-2.469869
G03 X134.311986 Y41.869591 Z-0.125000 I1.197863 J-1.911776
G03 X133.826073 Y41.024789 Z-0.125000 I2.753374 J-2.145828
G03 X133.547844 Y40.083177 Z-0.125000 I5.106076 J-2.020661
G03 X133.460066 Y39.198466 Z-0.125000 I4.414581 J-0.884711
G03 X133.515038 Y38.529261 Z-0.125000 I4.100760 J0.000000
G03 X133.663398 Y37.969191 Z-0.125000 I3.012313 J0.498260
G03 X133.938387 Y37.477933 Z-0.125000 I1.975574 J0.783264
G03 X134.303907 Y37.114565 Z-0.125000 I1.425270 J1.068186
G03 X134.767033 Y36.878640 Z-0.125000 I0.987162 J1.365294
G03 X135.269758 Y36.798468 Z-0.125000 I0.502725 J1.536100
G03 X135.797118 Y36.889771 Z-0.125000 I0.000000 J1.568649
G03 X136.286436 Y37.161386 Z-0.125000 I-0.576629 J1.615366
G03 X136.684052 Y37.577346 Z-0.125000 I-1.196314 J1.541576
G03 X137.038783 Y38.226748 Z-0.125000 I-2.635794 J1.861370
G03 X137.273323 Y38.944677 Z-0.125000 I-4.270565 J1.792423
G03 X137.435285 Y39.889190 Z-0.125000 I-7.252744 J1.729820
G03 X137.517662 Y40.862902 Z-0.125000 I-16.085498 J1.851197
G03 X137.587779 Y42.698928 Z-0.125000 I-57.158980 J3.102209
G01 X137.587779 Y42.698928 Z-0.125000
G00 Z5.000000

(End cutting path id: path16098)


(Start cutting path id: path16096)
(Change tool to Default tool)

G00 Z5.000000
G00 X115.515683 Y33.660903

G01 Z-0.125000 F100.0(Penetrate)
G03 X115.764710 Y36.322095 Z-0.125000 I-77.296623 J8.575451 F400.000000
G03 X115.963022 Y39.526260 Z-0.125000 I-111.868807 J8.532021
G03 X116.095460 Y42.746684 Z-0.125000 I-171.574613 J8.668815
G03 X116.156192 Y45.614049 Z-0.125000 I-135.953083 J4.313892
G03 X117.376260 Y45.595536 Z-0.125000 I2.903421 J151.132613
G03 X118.260720 Y45.590612 Z-0.125000 I0.884460 J79.417142
G03 X119.287494 Y45.596712 Z-0.125000 I-0.000000 J86.411660
G03 X120.233077 Y45.614049 Z-0.125000 I-0.871074 J73.302984
G01 X120.131411 Y44.021856 Z-0.125000
G02 X120.476695 Y44.446450 Z-0.125000 I9.114510 J-7.059311
G02 X120.710912 Y44.700883 Z-0.125000 I3.501638 J-2.988396
G02 X120.969245 Y44.941323 Z-0.125000 I2.038390 J-1.931084
G02 X121.310755 Y45.192590 Z-0.125000 I2.569224 J-3.134244
G02 X121.688445 Y45.415709 Z-0.125000 I2.113592 J-3.146611
G02 X122.083435 Y45.590633 Z-0.125000 I1.683433 J-3.267877
G02 X122.495728 Y45.721999 Z-0.125000 I1.527672 J-4.081938
G02 X122.967933 Y45.824784 Z-0.125000 I1.391176 J-5.255118
G02 X123.458249 Y45.894238 Z-0.125000 I0.955227 J-4.978110
G02 X123.984621 Y45.918428 Z-0.125000 I0.526372 J-5.714853
G02 X124.710298 Y45.870882 Z-0.125000 I-0.000000 J-5.561640
G02 X125.407973 Y45.731109 Z-0.125000 I-0.694692 J-5.278657
G02 X126.083416 Y45.499652 Z-0.125000 I-1.022825 J-4.086117
G02 X126.577155 Y45.215996 Z-0.125000 I-1.080124 J-2.451621
G02 X127.002446 Y44.847957 Z-0.125000 I-1.585082 J-2.261403
G02 X127.359996 Y44.384775 Z-0.125000 I-2.175963 J-2.049317
G02 X127.621397 Y43.872045 Z-0.125000 I-2.462868 J-1.578621
G02 X127.776831 Y43.319403 Z-0.125000 I-2.710709 J-1.060586
G02 X127.852472 Y42.743461 Z-0.125000 I-6.383380 J-1.131296
G02 X127.878497 Y42.136982 Z-0.125000 I-7.053625 J-0.606479
G02 X127.869086 Y41.692355 Z-0.125000 I-10.508129 J0.000000
G02 X127.797184 Y40.216984 Z-0.125000 I-115.819895 J4.905042
G01 X127.624347 Y35.978933 Z-0.125000
G03 X127.585135 Y34.726027 Z-0.125000 I67.127448 J-2.727953
G03 X127.573441 Y33.660892 Z-0.125000 I48.501194 J-1.065135
G03 X126.546529 Y33.678791 Z-0.125000 I-2.205995 J-97.097466
G03 X125.651912 Y33.684221 Z-0.125000 I-0.894618 J-73.685303
G03 X124.442138 Y33.677825 Z-0.125000 I-0.000000 J-114.411171
G03 X123.445718 Y33.660892 Z-0.125000 I0.820907 J-77.630819
G03 X123.524081 Y34.727148 Z-0.125000 I-43.208843 J3.711580
G03 X123.638888 Y36.821862 Z-0.125000 I-166.667091 J10.185192
G03 X123.725898 Y38.929533 Z-0.125000 I-151.625734 J7.315065
G03 X123.740554 Y39.783806 Z-0.125000 I-24.888472 J0.854273
G03 X123.588692 Y41.049999 Z-0.125000 I-5.354545 J0.000000
G03 X123.293224 Y41.621847 Z-0.125000 I-1.325417 J-0.322571
G03 X122.791763 Y42.011801 Z-0.125000 I-1.134345 J-0.941307
G03 X122.185042 Y42.148679 Z-0.125000 I-0.606721 J-1.276228
G03 X121.633889 Y42.043080 Z-0.125000 I-0.000000 J-1.491108
G03 X121.066698 Y41.703804 Z-0.125000 I0.764482 J-1.921785
G03 X120.635787 Y41.200062 Z-0.125000 I1.406697 J-1.639492
G03 X120.263523 Y40.404292 Z-0.125000 I3.227564 J-1.994824
G03 X120.057703 Y39.545862 Z-0.125000 I4.632773 J-1.564655
G03 X119.856840 Y37.617970 Z-0.125000 I23.328670 J-3.404982
G03 X119.763453 Y35.673839 Z-0.125000 I102.486265 J-5.897243
G03 X119.704346 Y33.660892 Z-0.125000 I109.811552 J-4.231807
G03 X118.687602 Y33.678539 Z-0.125000 I-2.087419 J-90.968239
G03 X117.721817 Y33.684221 Z-0.125000 I-0.965785 J-82.072269
G03 X116.705192 Y33.678846 Z-0.125000 I0.000000 J-96.144713
G03 X115.515624 Y33.660892 Z-0.125000 I1.392208 J-131.657103
G01 X115.515683 Y33.660903 Z-0.125000
G00 Z5.000000

(End cutting path id: path16096)


(Start cutting path id: path16094)
(Change tool to Default tool)

G00 Z5.000000
G00 X103.966215 Y42.207231

G01 Z-0.125000 F100.0(Penetrate)
G03 X104.151768 Y43.367326 Z-0.125000 I-88.621111 J14.769500 F400.000000
G03 X104.210213 Y43.799413 Z-0.125000 I-12.232218 J1.874558
G02 X104.261849 Y44.244214 Z-0.125000 I135.679221 J-15.525218
G02 X104.372878 Y45.180871 Z-0.125000 I601.761701 J-70.856854
G02 X107.319767 Y45.766413 Z-0.125000 I7.252097 J-28.789792
G02 X109.405452 Y45.918438 Z-0.125000 I2.085684 J-14.231059
G02 X110.591975 Y45.833482 Z-0.125000 I-0.000000 J-8.328094
G02 X111.601473 Y45.602341 Z-0.125000 I-0.899302 J-6.247723
G02 X112.517620 Y45.179058 Z-0.125000 I-1.084841 J-3.551098
G02 X113.156986 Y44.607218 Z-0.125000 I-1.445571 J-2.259622
G02 X113.546025 Y43.856259 Z-0.125000 I-1.633825 J-1.322666
G02 X113.716163 Y42.628690 Z-0.125000 I-4.343490 J-1.227569
G02 X113.699244 Y41.973652 Z-0.125000 I-12.688798 J-0.000000
G02 X113.563659 Y39.678465 Z-0.125000 I-156.015451 J8.064788
G03 X113.442780 Y37.382434 Z-0.125000 I83.361752 J-5.539946
G03 X113.329832 Y33.660903 Z-0.125000 I218.918152 J-8.506581
G03 X112.333419 Y33.678430 Z-0.125000 I-2.003508 J-85.565232
G03 X111.347304 Y33.684232 Z-0.125000 I-0.986115 J-83.799947
G03 X110.391684 Y33.678750 Z-0.125000 I0.000000 J-83.296298
G03 X109.313938 Y33.660903 Z-0.125000 I1.215776 J-105.965760
G03 X109.423433 Y34.951224 Z-0.125000 I-25.312472 J2.797807
G03 X109.629116 Y38.976023 Z-0.125000 I-246.217009 J14.600311
G02 X109.239286 Y38.772532 Z-0.125000 I-5.768183 J10.575069
G02 X109.019102 Y38.671634 Z-0.125000 I-1.631540 J3.269709
G02 X108.803060 Y38.584540 Z-0.125000 I-1.552078 J3.538525
G02 X108.256593 Y38.390650 Z-0.125000 I-8.278765 J22.466190
G03 X107.709809 Y38.197398 Z-0.125000 I8.574592 J-25.130946
G03 X107.392418 Y38.074564 Z-0.125000 I3.141328 J-8.588341
G03 X107.100210 Y37.925010 Z-0.125000 I0.869299 J-2.058734
G03 X106.853584 Y37.746748 Z-0.125000 I0.998187 J-1.640728
G03 X106.650632 Y37.532090 Z-0.125000 I1.139198 J-1.280348
G01 X106.528244 Y37.337008 Z-0.125000
G01 X106.461168 Y37.121185 Z-0.125000
G03 X106.436730 Y36.868706 Z-0.125000 I1.292007 J-0.252480
G01 X106.508458 Y36.499885 Z-0.125000
G01 X106.711223 Y36.189690 Z-0.125000
G01 X107.022862 Y35.996902 Z-0.125000
G03 X107.585569 Y35.908706 Z-0.125000 I0.562707 J1.750995
G03 X107.798490 Y35.916850 Z-0.125000 I0.000000 J2.787498
G03 X108.043070 Y35.943755 Z-0.125000 I-0.283930 J3.706264
G03 X108.283163 Y36.004307 Z-0.125000 I-0.408230 J2.124918
G03 X108.714084 Y36.154490 Z-0.125000 I-2.202065 J7.011733
G03 X108.444740 Y35.245885 Z-0.125000 I16.136673 J-5.277747
G03 X108.012575 Y33.520341 Z-0.125000 I57.802633 J-15.393615
G02 X107.134658 Y33.394889 Z-0.125000 I-1.884717 J10.054776
G02 X106.355387 Y33.356449 Z-0.125000 I-0.779270 J7.879576
G02 X105.120629 Y33.472192 Z-0.125000 I-0.000000 J6.644140
G02 X104.250860 Y33.754492 Z-0.125000 I0.671313 J3.549359
G02 X103.527705 Y34.276193 Z-0.125000 I1.175181 J2.391025
G02 X102.959679 Y35.065712 Z-0.125000 I2.258533 J2.224015
G02 X102.619435 Y35.992283 Z-0.125000 I4.074609 J2.021983
G02 X102.512339 Y36.868630 Z-0.125000 I3.531950 J0.876347
G02 X102.553195 Y37.412703 Z-0.125000 I3.643154 J-0.000000
G02 X102.675014 Y37.945699 Z-0.125000 I3.617304 J-0.546340
G02 X102.886809 Y38.452926 Z-0.125000 I3.327582 J-1.091612
G02 X103.203677 Y38.975947 Z-0.125000 I3.856446 J-1.978901
G02 X103.594284 Y39.445228 Z-0.125000 I3.165567 J-2.237666
G02 X104.037357 Y39.830573 Z-0.125000 I2.566581 J-2.503675
G02 X104.539824 Y40.149277 Z-0.125000 I2.136614 J-2.813134
G02 X105.338709 Y40.509600 Z-0.125000 I3.545029 J-6.794038
G02 X106.183340 Y40.788966 Z-0.125000 I3.669803 J-9.678688
G02 X107.443237 Y41.106669 Z-0.125000 I6.026517 J-21.242025
G03 X107.969792 Y41.231955 Z-0.125000 I-3.734891 J16.866239
G03 X108.409087 Y41.352529 Z-0.125000 I-3.018625 J11.858573
G03 X108.851846 Y41.504176 Z-0.125000 I-2.730589 J8.694609
G03 X109.039415 Y41.586669 Z-0.125000 I-0.608310 J1.637630
G03 X109.221826 Y41.705403 Z-0.125000 I-0.671453 J1.231037
G01 X109.344423 Y41.820809 Z-0.125000
G03 X109.453250 Y41.969039 Z-0.125000 I-0.849357 J0.737645
G01 X109.517259 Y42.101782 Z-0.125000
G01 X109.555222 Y42.256094 Z-0.125000
G01 X109.568166 Y42.417879 Z-0.125000
G01 X109.477629 Y42.816368 Z-0.125000
G01 X109.242816 Y43.096916 Z-0.125000
G01 X108.891822 Y43.266225 Z-0.125000
G03 X108.287137 Y43.342754 Z-0.125000 I-0.604685 J-2.350676
G03 X106.584859 Y43.122795 Z-0.125000 I-0.000000 J-6.697004
G03 X103.966264 Y42.207155 Z-0.125000 I4.446431 J-16.918349
G01 X103.966215 Y42.207231 Z-0.125000
G00 Z5.000000

(Change tool to Default tool)

G00 Z5.000000
G00 X105.847068 Y47.276491

G01 Z-0.125000 F100.0(Penetrate)
G03 X106.388392 Y48.513282 Z-0.125000 I-42.843021 J19.488593 F400.000000
G03 X106.955250 Y49.910630 Z-0.125000 I-54.124572 J22.770217
G03 X107.951670 Y49.893568 Z-0.125000 I1.831371 J77.851550
G03 X109.141101 Y49.887192 Z-0.125000 I1.189430 J110.927872
G03 X109.974732 Y49.892069 Z-0.125000 I-0.000000 J71.241932
G03 X111.143962 Y49.910630 Z-0.125000 I-1.640293 J140.169495
G03 X111.400896 Y49.177692 Z-0.125000 I20.861957 J6.901722
G03 X112.119974 Y47.276491 Z-0.125000 I141.131879 J52.292773
G03 X111.438720 Y47.294810 Z-0.125000 I-1.559810 J-45.332119
G03 X110.910126 Y47.299929 Z-0.125000 I-0.528594 J-27.285658
G03 X110.534014 Y47.296127 Z-0.125000 I0.000000 J-18.602624
G03 X109.751115 Y47.276491 Z-0.125000 I1.630509 J-80.629079
G01 X109.080101 Y48.423798 Z-0.125000
G01 X108.337926 Y47.276491 Z-0.125000
G03 X107.748136 Y47.294021 Z-0.125000 I-1.170262 J-29.442510
G03 X107.148410 Y47.299929 Z-0.125000 I-0.599726 J-30.437154
G03 X106.457192 Y47.293705 Z-0.125000 I0.000000 J-38.384728
G03 X105.847068 Y47.276491 Z-0.125000 I0.538930 J-29.922997
G01 X105.847068 Y47.276491 Z-0.125000
G00 Z5.000000

(End cutting path id: path16094)


(Start cutting path id: path16092)
(Change tool to Default tool)

G00 Z5.000000
G00 X96.524117 Y33.672622

G01 Z-0.125000 F100.0(Penetrate)
G01 X96.707125 Y36.189690 Z-0.125000 F400.000000
G01 X97.103637 Y44.935034 Z-0.125000
G01 X97.215464 Y49.641354 Z-0.125000
G03 X98.628677 Y49.621931 Z-0.125000 I4.220056 J255.630251
G03 X99.340325 Y49.618025 Z-0.125000 I0.711648 J64.817531
G03 X100.265444 Y49.623305 Z-0.125000 I0.000000 J81.040281
G03 X101.383843 Y49.641354 Z-0.125000 I-1.352368 J118.459547
G01 X101.150017 Y46.047217 Z-0.125000
G01 X100.773848 Y37.196511 Z-0.125000
G01 X100.692535 Y33.660903 Z-0.125000
G03 X99.604620 Y33.679035 Z-0.125000 I-2.441995 J-113.871189
G03 X98.730340 Y33.684232 Z-0.125000 I-0.874281 J-73.534232
G01 X96.524117 Y33.672622 Z-0.125000
G00 Z5.000000

(End cutting path id: path16092)


(Start cutting path id: path16090)
(Change tool to Default tool)

G00 Z5.000000
G00 X83.378464 Y28.310680

G01 Z-0.125000 F100.0(Penetrate)
G03 X83.049308 Y31.106783 Z-0.125000 I-279.010411 J-31.427608 F400.000000
G03 X82.951460 Y31.787748 Z-0.125000 I-16.639838 J-2.043471
G03 X83.605460 Y31.470324 Z-0.125000 I3.517215 J6.414209
G03 X84.079975 Y31.307748 Z-0.125000 I1.363119 J3.204793
G03 X84.581507 Y31.205396 Z-0.125000 I1.240723 J4.799677
G03 X84.933984 Y31.178970 Z-0.125000 I0.352476 J2.337489
G03 X85.304797 Y31.209699 Z-0.125000 I0.000000 J2.252724
G03 X85.635493 Y31.296040 Z-0.125000 I-0.312872 J1.874798
G03 X85.955477 Y31.439193 Z-0.125000 I-0.680638 J1.950604
G03 X86.164170 Y31.588721 Z-0.125000 I-0.536707 J0.969469
G03 X86.339493 Y31.768179 Z-0.125000 I-0.870058 J1.025380
G03 X86.580999 Y32.103834 Z-0.125000 I-2.839843 J2.297999
G03 X86.801673 Y32.462233 Z-0.125000 I-4.937922 J3.287513
G03 X86.926677 Y32.712623 Z-0.125000 I-2.280736 J1.295030
G03 X87.022749 Y32.963890 Z-0.125000 I-1.986283 J0.903456
G03 X87.150343 Y33.426763 Z-0.125000 I-6.633664 J2.077647
G01 X85.238988 Y40.088206 Z-0.125000
G01 X83.602135 Y45.614049 Z-0.125000
G03 X85.117012 Y45.593976 Z-0.125000 I5.277563 J341.102167
G03 X85.726998 Y45.590612 Z-0.125000 I0.609986 J55.300856
G03 X86.438625 Y45.594906 Z-0.125000 I0.000000 J58.963201
G03 X87.668848 Y45.614049 Z-0.125000 I-2.127183 J176.238931
G03 X87.868126 Y44.713961 Z-0.125000 I66.378252 J14.223935
G03 X88.380529 Y42.499912 Z-0.125000 I402.161941 J91.906939
G02 X88.889228 Y40.282987 Z-0.125000 I-123.311063 J-29.461991
G02 X89.143038 Y39.034563 Z-0.125000 I-38.843331 J-8.547013
G02 X89.259453 Y38.341412 Z-0.125000 I-15.233066 J-2.914768
G02 X89.397207 Y37.278467 Z-0.125000 I-35.695332 J-5.166385
G01 X89.610710 Y38.215050 Z-0.125000
G02 X89.712763 Y38.589571 Z-0.125000 I181.130039 J-49.154920
G02 X89.844537 Y39.069677 Z-0.125000 I297.785950 J-81.474513
G02 X89.980491 Y39.548582 Z-0.125000 I30.409923 J-8.374161
G02 X90.180049 Y40.216995 Z-0.125000 I59.440161 J-17.382184
G01 X90.840882 Y42.347717 Z-0.125000
G01 X91.938903 Y45.614049 Z-0.125000
G03 X93.209787 Y45.594580 Z-0.125000 I3.753755 J203.535748
G03 X93.860432 Y45.590612 Z-0.125000 I0.650645 J53.342329
G03 X94.429734 Y45.593893 Z-0.125000 I0.000000 J49.393155
G03 X95.893788 Y45.614049 Z-0.125000 I-3.765641 J326.688362
G01 X93.931593 Y40.509675 Z-0.125000
G01 X90.383381 Y31.038484 Z-0.125000
G02 X90.010284 Y30.257399 Z-0.125000 I-11.033508 J4.790667
G02 X89.722538 Y29.774095 Z-0.125000 I-4.501228 J2.352604
G02 X89.407448 Y29.370409 Z-0.125000 I-4.011370 J2.806194
G02 X89.082038 Y29.036539 Z-0.125000 I-3.063653 J2.660502
G02 X88.741485 Y28.765630 Z-0.125000 I-2.401639 J2.669535
G02 X88.380529 Y28.544821 Z-0.125000 I-1.948743 J2.780170
G02 X87.859132 Y28.309631 Z-0.125000 I-2.114554 J3.992260
G02 X87.262185 Y28.123362 Z-0.125000 I-1.904185 J5.052767
G02 X86.586219 Y28.000608 Z-0.125000 I-1.361153 J5.572907
G02 X85.899826 Y27.959470 Z-0.125000 I-0.686393 J5.705683
G02 X85.585276 Y27.970510 Z-0.125000 I0.000000 J4.486394
G02 X85.066152 Y28.018065 Z-0.125000 I0.862872 J12.276753
G02 X84.548830 Y28.073729 Z-0.125000 I1.375648 J15.216433
G02 X84.222309 Y28.123427 Z-0.125000 I0.762768 J6.108999
G02 X83.909420 Y28.181348 Z-0.125000 I0.661411 J4.447002
G02 X83.378464 Y28.310746 Z-0.125000 I2.873768 J12.945913
G01 X83.378464 Y28.310680 Z-0.125000
G00 Z5.000000

(End cutting path id: path16090)


(Start cutting path id: path16088)
(Change tool to Default tool)

G00 Z5.000000
G00 X81.965281 Y37.196511

G01 Z-0.125000 F100.0(Penetrate)
G03 X81.846289 Y36.491920 Z-0.125000 I18.797583 J-3.536900 F400.000000
G03 X81.456942 Y33.801389 Z-0.125000 I273.799453 J-40.994992
G02 X80.272768 Y33.561472 Z-0.125000 I-5.474802 J23.979958
G02 X79.474418 Y33.450179 Z-0.125000 I-1.909696 J10.779918
G02 X78.669868 Y33.380180 Z-0.125000 I-1.597194 J13.699119
G02 X77.847732 Y33.356536 Z-0.125000 I-0.822135 J14.281411
G02 X76.643094 Y33.410269 Z-0.125000 I-0.000000 J13.530107
G02 X75.621205 Y33.555563 Z-0.125000 I0.882632 J9.874067
G02 X74.640719 Y33.832533 Z-0.125000 I0.992660 J5.388009
G02 X73.862351 Y34.234578 Z-0.125000 I1.458852 J3.778864
G02 X73.189067 Y34.785602 Z-0.125000 I2.574096 J3.832081
G02 X72.632169 Y35.452134 Z-0.125000 I3.236492 J3.270056
G02 X72.207872 Y36.223171 Z-0.125000 I4.013788 J2.711020
G02 X71.869659 Y37.196522 Z-0.125000 I6.084176 J2.659525
G02 X71.680093 Y38.211371 Z-0.125000 I7.998317 J2.019149
G02 X71.615490 Y39.268714 Z-0.125000 I8.620341 J1.057344
G02 X71.745197 Y40.744428 Z-0.125000 I8.459695 J-0.000000
G02 X72.133996 Y42.195534 Z-0.125000 I8.566533 J-1.517619
G02 X72.775471 Y43.557194 Z-0.125000 I7.493273 J-2.698131
G02 X73.465846 Y44.443326 Z-0.125000 I3.816160 J-2.261131
G02 X74.358231 Y45.136709 Z-0.125000 I3.441991 J-3.508906
G02 X75.356869 Y45.590644 Z-0.125000 I2.402282 J-3.959468
G02 X76.437621 Y45.844845 Z-0.125000 I2.189549 J-6.884476
G02 X77.542728 Y45.930157 Z-0.125000 I1.105107 J-7.114919
G02 X78.689672 Y45.848409 Z-0.125000 I-0.000000 J-8.086825
G02 X79.748921 Y45.614060 Z-0.125000 I-1.020956 J-7.125742
G02 X80.731034 Y45.185954 Z-0.125000 I-1.136485 J-3.947772
G02 X81.538277 Y44.536991 Z-0.125000 I-1.980116 J-3.289604
G02 X82.167935 Y43.704169 Z-0.125000 I-3.420867 J-3.240799
G02 X82.575289 Y42.792603 Z-0.125000 I-3.704306 J-2.202154
G02 X82.807400 Y41.807763 Z-0.125000 I-5.862295 J-1.901416
G02 X82.890459 Y40.697005 Z-0.125000 I-7.385541 J-1.110758
G02 X82.860963 Y40.032050 Z-0.125000 I-7.509913 J-0.000000
G02 X82.758291 Y39.210174 Z-0.125000 I-11.583116 J1.029655
G01 X75.631371 Y39.198455 Z-0.125000
G03 X75.623479 Y39.011085 Z-0.125000 I7.706294 J-0.418479
G03 X75.621200 Y38.858942 Z-0.125000 I5.078383 J-0.152143
G03 X75.853098 Y37.709346 Z-0.125000 I2.965413 J-0.000000
G03 X76.404043 Y36.997495 Z-0.125000 I1.610421 J0.677272
G03 X77.242197 Y36.564139 Z-0.125000 I1.648859 J2.161848
G03 X78.315399 Y36.400414 Z-0.125000 I1.073202 J3.435503
G03 X78.982511 Y36.438698 Z-0.125000 I0.000000 J5.831543
G03 X79.840418 Y36.576025 Z-0.125000 I-1.127823 J9.794111
G03 X80.696196 Y36.793434 Z-0.125000 I-2.647852 J12.215618
G03 X81.965276 Y37.196511 Z-0.125000 I-7.968037 J27.286602
G01 X81.965281 Y37.196511 Z-0.125000
G00 Z5.000000

(Change tool to Default tool)

G00 Z5.000000
G00 X75.712706 Y40.989675

G01 Z-0.125000 F100.0(Penetrate)
G01 X79.067746 Y40.989675 Z-0.125000 F400.000000
G03 X79.075815 Y41.188745 Z-0.125000 I-9.423769 J0.481639
G03 X79.077918 Y41.329188 Z-0.125000 I-4.687850 J0.140443
G03 X79.023037 Y41.926284 Z-0.125000 I-3.275586 J-0.000000
G03 X78.884749 Y42.371133 Z-0.125000 I-1.944014 J-0.360406
G03 X78.647483 Y42.755713 Z-0.125000 I-1.365127 J-0.576732
G03 X78.345910 Y43.003327 Z-0.125000 I-0.840995 J-0.716806
G03 X77.986090 Y43.149414 Z-0.125000 I-0.710834 J-1.234650
G03 X77.563067 Y43.202343 Z-0.125000 I-0.423023 J-1.663990
G03 X77.263874 Y43.172931 Z-0.125000 I-0.000000 J-1.536427
G03 X76.973392 Y43.085273 Z-0.125000 I0.304762 J-1.535065
G03 X76.705576 Y42.952877 Z-0.125000 I0.496446 J-1.341308
G03 X76.454887 Y42.757479 Z-0.125000 I0.865058 J-1.368350
G03 X76.250992 Y42.531516 Z-0.125000 I1.288763 J-1.367867
G03 X76.078715 Y42.265760 Z-0.125000 I1.616302 J-1.236493
G03 X75.942756 Y41.978222 Z-0.125000 I2.515663 J-1.365410
G03 X75.855046 Y41.715523 Z-0.125000 I2.010504 J-0.817260
G03 X75.793801 Y41.455849 Z-0.125000 I3.386037 J-0.935669
G03 X75.712711 Y40.989675 Z-0.125000 I10.843010 J-2.126260
G01 X75.712706 Y40.989675 Z-0.125000
G00 Z5.000000

(End cutting path id: path16088)


(Start cutting path id: path16086)
(Change tool to Default tool)

G00 Z5.000000
G00 X57.646321 Y33.660903

G01 Z-0.125000 F100.0(Penetrate)
G03 X57.895348 Y36.322095 Z-0.125000 I-77.295429 J8.575347 F400.000000
G03 X58.093660 Y39.526260 Z-0.125000 I-111.867069 J8.531869
G03 X58.226098 Y42.746684 Z-0.125000 I-171.564803 J8.668476
G03 X58.286829 Y45.614049 Z-0.125000 I-135.945299 J4.313623
G03 X59.506891 Y45.595537 Z-0.125000 I2.903397 J151.130754
G03 X60.391354 Y45.590612 Z-0.125000 I0.884463 J79.417332
G03 X61.418124 Y45.596712 Z-0.125000 I-0.000000 J86.411287
G03 X62.363710 Y45.614049 Z-0.125000 I-0.871082 J73.303684
G01 X62.262042 Y44.021856 Z-0.125000
G02 X62.607329 Y44.446450 Z-0.125000 I9.114201 J-7.059134
G02 X62.841550 Y44.700883 Z-0.125000 I3.501546 J-2.988353
G02 X63.099887 Y44.941325 Z-0.125000 I2.038626 J-1.931354
G02 X63.441390 Y45.192590 Z-0.125000 I2.569410 J-3.134455
G02 X63.819078 Y45.415709 Z-0.125000 I2.113584 J-3.146582
G02 X64.214066 Y45.590633 Z-0.125000 I1.683425 J-3.267846
G02 X64.626368 Y45.721999 Z-0.125000 I1.527723 J-4.082162
G02 X65.098578 Y45.824784 Z-0.125000 I1.391203 J-5.255303
G02 X65.588884 Y45.894237 Z-0.125000 I0.955199 J-4.977864
G02 X66.115256 Y45.918428 Z-0.125000 I0.526372 J-5.714797
G02 X66.840938 Y45.870881 Z-0.125000 I-0.000000 J-5.561677
G02 X67.538608 Y45.731109 Z-0.125000 I-0.694679 J-5.278551
G02 X68.214051 Y45.499652 Z-0.125000 I-1.022824 J-4.086104
G02 X68.707788 Y45.215996 Z-0.125000 I-1.080122 J-2.451612
G02 X69.133078 Y44.847957 Z-0.125000 I-1.585094 J-2.261417
G02 X69.490631 Y44.384775 Z-0.125000 I-2.175990 J-2.049345
G02 X69.752033 Y43.872045 Z-0.125000 I-2.462873 J-1.578633
G02 X69.907470 Y43.319403 Z-0.125000 I-2.710709 J-1.060596
G02 X69.983112 Y42.743461 Z-0.125000 I-6.383261 J-1.131297
G02 X70.009137 Y42.136982 Z-0.125000 I-7.053488 J-0.606479
G02 X69.999724 Y41.692355 Z-0.125000 I-10.505596 J-0.000000
G02 X69.927805 Y40.216984 Z-0.125000 I-115.792119 J4.905048
G01 X69.754969 Y35.978933 Z-0.125000
G03 X69.715809 Y34.726027 Z-0.125000 I67.217950 J-2.727947
G03 X69.704131 Y33.660892 Z-0.125000 I48.566728 J-1.065135
G03 X68.677222 Y33.678791 Z-0.125000 I-2.205988 J-97.096875
G03 X67.782607 Y33.684221 Z-0.125000 I-0.894616 J-73.684953
G03 X66.572834 Y33.677825 Z-0.125000 I-0.000000 J-114.411027
G03 X65.576414 Y33.660892 Z-0.125000 I0.820908 J-77.630847
G03 X65.654772 Y34.727147 Z-0.125000 I-43.223787 J3.712466
G03 X65.769582 Y36.821862 Z-0.125000 I-166.724916 J10.188623
G03 X65.856594 Y38.929533 Z-0.125000 I-151.621359 J7.315065
G03 X65.871251 Y39.783806 Z-0.125000 I-24.887752 J0.854273
G03 X65.719386 Y41.049997 Z-0.125000 I-5.354426 J0.000000
G03 X65.423912 Y41.621847 Z-0.125000 I-1.325410 J-0.322576
G03 X64.922455 Y42.011801 Z-0.125000 I-1.134329 J-0.941281
G03 X64.315732 Y42.148679 Z-0.125000 I-0.606723 J-1.276229
G03 X63.764577 Y42.043080 Z-0.125000 I-0.000000 J-1.491119
G03 X63.197385 Y41.703804 Z-0.125000 I0.764479 J-1.921780
G03 X62.766477 Y41.200063 Z-0.125000 I1.406722 J-1.639506
G03 X62.394209 Y40.404292 Z-0.125000 I3.227651 J-1.994880
G03 X62.188398 Y39.545864 Z-0.125000 I4.633045 J-1.564672
G03 X61.987538 Y37.617970 Z-0.125000 I23.330156 J-3.405100
G03 X61.894145 Y35.673839 Z-0.125000 I102.473832 J-5.896993
G03 X61.835035 Y33.660892 Z-0.125000 I109.798192 J-4.231538
G03 X60.818292 Y33.678539 Z-0.125000 I-2.087425 J-90.968476
G03 X59.852511 Y33.684221 Z-0.125000 I-0.965780 J-82.071649
G03 X58.835885 Y33.678846 Z-0.125000 I-0.000000 J-96.144806
G03 X57.646318 Y33.660892 Z-0.125000 I1.392205 J-131.656758
G01 X57.646321 Y33.660903 Z-0.125000
G00 Z5.000000

(End cutting path id: path16086)


(Start cutting path id: path16084)
(Change tool to Default tool)

G00 Z5.000000
G00 X47.621864 Y33.883346

G01 Z-0.125000 F100.0(Penetrate)
G02 X47.582076 Y34.398536 Z-0.125000 I150.996712 J11.920404 F400.000000
G02 X47.540531 Y34.960415 Z-0.125000 I179.563166 J13.559345
G03 X47.496059 Y35.533770 Z-0.125000 I-43.196001 J-3.062110
G03 X47.408363 Y36.529192 Z-0.125000 I-130.291835 J-10.976931
G01 X47.327031 Y37.372121 Z-0.125000
G03 X48.322690 Y36.952180 Z-0.125000 I9.016272 J19.986846
G03 X49.024884 Y36.704803 Z-0.125000 I3.807178 J9.686574
G03 X49.743420 Y36.541413 Z-0.125000 I1.628437 J5.499698
G03 X50.336400 Y36.494079 Z-0.125000 I0.592980 J3.690620
G03 X50.829170 Y36.526262 Z-0.125000 I-0.000000 J3.788577
G03 X51.139576 Y36.599441 Z-0.125000 I-0.205521 J1.566691
G03 X51.428278 Y36.740630 Z-0.125000 I-0.386430 J1.155934
G01 X51.597082 Y36.903830 Z-0.125000
G01 X51.705683 Y37.113668 Z-0.125000
G01 X51.739418 Y37.313592 Z-0.125000
G01 X51.712398 Y37.493026 Z-0.125000
G01 X51.627582 Y37.676510 Z-0.125000
G01 X51.504306 Y37.846190 Z-0.125000
G03 X51.149744 Y38.179915 Z-0.125000 I-3.137243 J-2.977911
G02 X50.320832 Y38.887843 Z-0.125000 I52.696934 J62.542057
G02 X49.675559 Y39.456022 Z-0.125000 I33.298016 J38.466536
G02 X49.070261 Y40.052175 Z-0.125000 I7.251818 J7.968432
G02 X48.719880 Y40.474551 Z-0.125000 I3.278428 J3.076127
G02 X48.440274 Y40.937504 Z-0.125000 I3.024101 J2.142360
G02 X48.231875 Y41.434550 Z-0.125000 I3.280890 J1.667807
G02 X48.110488 Y41.956038 Z-0.125000 I3.311038 J1.045582
G02 X48.069205 Y42.499912 Z-0.125000 I3.561964 J0.543874
G02 X48.190846 Y43.439539 Z-0.125000 I3.689957 J0.000000
G02 X48.547045 Y44.314548 Z-0.125000 I3.547733 J-0.934207
G02 X49.143832 Y45.031795 Z-0.125000 I2.397838 J-1.388224
G02 X49.970396 Y45.532104 Z-0.125000 I1.931214 J-2.257635
G02 X50.937724 Y45.807382 Z-0.125000 I1.722381 J-4.215217
G02 X52.268091 Y45.918449 Z-0.125000 I1.330367 J-7.912029
G02 X53.673497 Y45.836668 Z-0.125000 I-0.000000 J-12.116816
G02 X55.877301 Y45.496979 Z-0.125000 I-3.525927 J-30.193878
G01 X56.039969 Y42.207231 Z-0.125000
G03 X54.781523 Y42.639271 Z-0.125000 I-2.831229 J-6.197974
G03 X53.671107 Y42.769176 Z-0.125000 I-1.110416 J-4.680919
G03 X52.883051 Y42.706448 Z-0.125000 I-0.000000 J-4.981514
G03 X52.501926 Y42.581857 Z-0.125000 I0.202735 J-1.265401
G01 X52.240024 Y42.337842 Z-0.125000
G01 X52.146089 Y42.008204 Z-0.125000
G01 X52.156522 Y41.881197 Z-0.125000
G01 X52.186755 Y41.762345 Z-0.125000
G01 X52.237784 Y41.650953 Z-0.125000
G03 X52.329089 Y41.516507 Z-0.125000 I0.980844 J0.567886
G03 X52.444663 Y41.391348 Z-0.125000 I2.106029 J1.828793
G03 X52.593426 Y41.247232 Z-0.125000 I2.942274 J2.888314
G02 X52.755645 Y41.117890 Z-0.125000 I-18.513560 J-23.385842
G02 X53.366103 Y40.626746 Z-0.125000 I-266.346158 J-331.674475
G02 X53.970158 Y40.128119 Z-0.125000 I-21.084391 J-26.157632
G02 X54.321781 Y39.818952 Z-0.125000 I-7.749826 J-9.168607
G02 X54.861242 Y39.278119 Z-0.125000 I-5.006082 J-5.532845
G02 X55.185958 Y38.858953 Z-0.125000 I-2.671859 J-2.405166
G02 X55.453004 Y38.407260 Z-0.125000 I-2.699725 J-1.900894
G02 X55.643463 Y37.922359 Z-0.125000 I-2.924367 J-1.428488
G02 X55.763966 Y37.423868 Z-0.125000 I-2.960899 J-0.979562
G02 X55.806133 Y36.880414 Z-0.125000 I-3.480985 J-0.543454
G02 X55.713500 Y36.071317 Z-0.125000 I-3.579814 J0.000000
G02 X55.450294 Y35.346761 Z-0.125000 I-3.124598 J0.724970
G02 X55.024703 Y34.727044 Z-0.125000 I-2.447568 J1.224875
G02 X54.392948 Y34.187735 Z-0.125000 I-2.468434 J2.251882
G02 X53.660341 Y33.793141 Z-0.125000 I-2.446950 J3.665655
G02 X52.867930 Y33.543833 Z-0.125000 I-1.708531 J4.046483
G02 X52.039054 Y33.404313 Z-0.125000 I-1.639451 J7.207943
G02 X51.170076 Y33.356525 Z-0.125000 I-0.868978 J7.876858
G02 X50.581911 Y33.379683 Z-0.125000 I0.000000 J7.480596
G02 X49.685725 Y33.473595 Z-0.125000 I1.378375 J17.476632
G02 X48.806568 Y33.618893 Z-0.125000 I1.815936 J13.720106
G02 X47.621867 Y33.883346 Z-0.125000 I5.001191 J25.190295
G01 X47.621864 Y33.883346 Z-0.125000
G00 Z5.000000

(End cutting path id: path16084)


(Start cutting path id: path16082)
(Change tool to Default tool)

G00 Z5.000000
G00 X41.775961 Y47.100870

G01 Z-0.125000 F100.0(Penetrate)
G03 X41.825772 Y48.494292 Z-0.125000 I-86.797352 J3.800376 F400.000000
G03 X41.836960 Y49.301841 Z-0.125000 I-29.137805 J0.807549
G03 X41.835077 Y49.535968 Z-0.125000 I-14.553960 J0.000000
G03 X41.826789 Y49.934046 Z-0.125000 I-42.084054 J-0.677087
G03 X43.057015 Y49.915341 Z-0.125000 I3.046087 J159.879458
G03 X43.890647 Y49.910608 Z-0.125000 I0.833632 J73.406633
G03 X45.039403 Y49.917295 Z-0.125000 I0.000000 J98.670549
G03 X45.903671 Y49.934046 Z-0.125000 I-0.650455 J55.866033
G03 X45.876285 Y49.570921 Z-0.125000 I21.153773 J-1.778001
G03 X45.863005 Y49.325257 Z-0.125000 I9.667728 J-0.645792
G01 X45.802005 Y47.873561 Z-0.125000
G03 X45.787522 Y47.545575 Z-0.125000 I9.194495 J-0.570318
G03 X45.781672 Y47.100870 Z-0.125000 I16.899457 J-0.444705
G03 X44.775094 Y47.118696 Z-0.125000 I-2.102098 J-90.272089
G03 X43.849982 Y47.124308 Z-0.125000 I-0.925113 J-76.245364
G03 X42.894359 Y47.118908 Z-0.125000 I0.000000 J-84.568598
G03 X41.775957 Y47.100870 Z-0.125000 I1.309210 J-115.852244
G01 X41.775961 Y47.100870 Z-0.125000
G00 Z5.000000

(Change tool to Default tool)

G00 Z5.000000
G00 X41.135453 Y33.660903

G01 Z-0.125000 F100.0(Penetrate)
G03 X41.271465 Y35.089763 Z-0.125000 I-161.496124 J16.093643 F400.000000
G03 X41.348955 Y36.014079 Z-0.125000 I-67.501633 J6.124381
G03 X41.410417 Y36.939522 Z-0.125000 I-44.096907 J3.393387
G03 X41.481124 Y38.378942 Z-0.125000 I-106.616354 J5.958625
G03 X41.544306 Y39.819255 Z-0.125000 I-129.834342 J6.416979
G03 X41.603125 Y41.563329 Z-0.125000 I-190.316268 J7.291444
G03 X41.646059 Y43.307884 Z-0.125000 I-192.542846 J5.611403
G03 X41.684457 Y45.614049 Z-0.125000 I-336.428893 J6.755012
G03 X43.006179 Y45.595006 Z-0.125000 I3.525152 J198.786218
G03 X43.799151 Y45.590612 Z-0.125000 I0.792971 J71.546130
G03 X44.520957 Y45.594690 Z-0.125000 I0.000000 J63.876839
G03 X45.873175 Y45.614049 Z-0.125000 I-2.533661 J224.204213
G03 X45.714353 Y43.400483 Z-0.125000 I174.857830 J-13.658423
G03 X45.619005 Y41.727231 Z-0.125000 I99.814709 J-6.527179
G03 X45.561818 Y40.052719 Z-0.125000 I100.258410 J-4.262186
G03 X45.527501 Y38.179915 Z-0.125000 I125.376450 J-3.234127
G03 X45.492207 Y34.855020 Z-0.125000 I1028.827081 J-12.583572
G03 X45.486834 Y33.660903 Z-0.125000 I132.695269 J-1.194117
G03 X44.276939 Y33.679339 Z-0.125000 I-2.884547 J-149.590868
G03 X43.402643 Y33.684232 Z-0.125000 I-0.874296 J-78.107473
G03 X42.538502 Y33.679786 Z-0.125000 I0.000000 J-83.983264
G03 X41.135448 Y33.660903 Z-0.125000 I2.278409 J-221.420150
G01 X41.135453 Y33.660903 Z-0.125000
G00 Z5.000000

(End cutting path id: path16082)


(Start cutting path id: path16080)
(Change tool to Default tool)

G00 Z5.000000
G00 X25.234594 Y33.660903

G01 Z-0.125000 F100.0(Penetrate)
G03 X25.441768 Y36.331285 Z-0.125000 I-216.239368 J18.119540 F400.000000
G03 X25.539597 Y37.934078 Z-0.125000 I-77.797746 J5.552917
G03 X25.647757 Y40.322933 Z-0.125000 I-206.127523 J10.529659
G03 X25.783599 Y44.115521 Z-0.125000 I-519.425197 J20.503429
G03 X25.861318 Y47.019141 Z-0.125000 I-305.848297 J9.639171
G03 X25.875104 Y48.271604 Z-0.125000 I-56.886354 J1.252463
G01 X25.875104 Y49.641354 Z-0.125000
G03 X27.064726 Y49.613678 Z-0.125000 I2.828225 J95.987794
G03 X27.928795 Y49.606306 Z-0.125000 I0.864069 J50.630951
G03 X28.762317 Y49.615242 Z-0.125000 I0.000000 J38.876798
G03 X30.114655 Y49.653182 Z-0.125000 I-2.195561 J102.380931
G02 X31.467135 Y49.698070 Z-0.125000 I2.892124 J-66.741110
G02 X32.656352 Y49.711776 Z-0.125000 I1.189217 J-51.585325
G02 X34.013895 Y49.658641 Z-0.125000 I-0.000000 J-17.368208
G02 X35.045549 Y49.524458 Z-0.125000 I-0.796040 J-10.153262
G02 X36.032572 Y49.238176 Z-0.125000 I-0.906728 J-4.970796
G02 X36.956905 Y48.751777 Z-0.125000 I-1.956154 J-4.838876
G02 X37.767897 Y48.084007 Z-0.125000 I-2.632203 J-4.023106
G02 X38.451423 Y47.218124 Z-0.125000 I-3.796784 J-3.699901
G02 X38.961460 Y46.231539 Z-0.125000 I-5.408763 J-3.421307
G02 X39.366434 Y44.993737 Z-0.125000 I-8.138891 J-3.347965
G02 X39.601225 Y43.719482 Z-0.125000 I-10.133335 J-2.525905
G02 X39.681604 Y42.383004 Z-0.125000 I-11.070807 J-1.336478
G02 X39.618803 Y41.066270 Z-0.125000 I-13.835414 J-0.000000
G02 X39.437602 Y39.830823 Z-0.125000 I-12.357338 J1.181427
G02 X39.132960 Y38.632560 Z-0.125000 I-11.849122 J2.374621
G02 X38.756427 Y37.629852 Z-0.125000 I-8.663819 J2.681352
G02 X38.261623 Y36.682109 Z-0.125000 I-7.776926 J3.457191
G02 X37.729581 Y35.932296 Z-0.125000 I-5.385172 J3.257474
G02 X37.105641 Y35.278983 Z-0.125000 I-4.803186 J3.962635
G02 X36.397730 Y34.726449 Z-0.125000 I-4.129636 J4.561154
G02 X35.821414 Y34.385362 Z-0.125000 I-3.335833 J4.978959
G02 X35.269218 Y34.141087 Z-0.125000 I-2.243349 J4.324929
G02 X34.689714 Y33.971495 Z-0.125000 I-1.502609 J4.059583
G02 X33.713699 Y33.801563 Z-0.125000 I-2.485037 J11.385120
G02 X32.613190 Y33.700262 Z-0.125000 I-1.978279 J15.463021
G02 X31.222835 Y33.661087 Z-0.125000 I-1.390355 J24.653300
G01 X27.115453 Y33.696136 Z-0.125000
G03 X26.536018 Y33.690738 Z-0.125000 I0.000000 J-31.100524
G03 X25.234597 Y33.661087 Z-0.125000 I2.924281 J-156.930389
G01 X25.234594 Y33.660903 Z-0.125000
G00 Z5.000000

(Change tool to Default tool)

G00 Z5.000000
G00 X29.626647 Y37.184803

G01 Z-0.125000 F100.0(Penetrate)
G03 X30.186617 Y37.141464 Z-0.125000 I1.077438 J10.282054 F400.000000
G03 X30.795828 Y37.126208 Z-0.125000 I0.609211 J12.155996
G03 X31.825391 Y37.184650 Z-0.125000 I-0.000000 J9.098046
G03 X32.646183 Y37.336954 Z-0.125000 I-0.674709 J5.923968
G03 X33.390764 Y37.659720 Z-0.125000 I-0.656978 J2.535776
G03 X34.069534 Y38.238402 Z-0.125000 I-1.693160 J2.673435
G03 X34.585918 Y38.985757 Z-0.125000 I-2.668341 J2.395760
G03 X34.984545 Y40.006205 Z-0.125000 I-4.632087 J2.397556
G03 X35.205100 Y41.104863 Z-0.125000 I-8.158414 J2.209268
G03 X35.279381 Y42.230593 Z-0.125000 I-8.493035 J1.125730
G03 X35.153004 Y43.596031 Z-0.125000 I-7.439568 J-0.000000
G03 X34.842210 Y44.572050 Z-0.125000 I-4.080555 J-0.761876
G03 X34.292022 Y45.424084 Z-0.125000 I-3.171342 J-1.444194
G03 X33.673028 Y45.906676 Z-0.125000 I-1.569752 J-1.375161
G03 X32.923106 Y46.166238 Z-0.125000 I-1.260564 J-2.428894
G03 X31.700671 Y46.281303 Z-0.125000 I-1.222434 J-6.435945
G03 X30.969185 Y46.266452 Z-0.125000 I0.000000 J-18.023034
G03 X29.972316 Y46.211098 Z-0.125000 I1.362159 J-33.534463
G01 X29.626647 Y37.184803 Z-0.125000
G00 Z5.000000

(End cutting path id: path16080)


(Start cutting path id: path16072)
(Change tool to Default tool)

G00 Z5.000000
G00 X71.452819 Y63.631569

G01 Z-0.125000 F100.0(Penetrate)
G03 X71.692175 Y66.395642 Z-0.125000 I-257.961946 J23.730748 F400.000000
G03 X71.818824 Y68.138863 Z-0.125000 I-102.472227 J8.321034
G03 X72.005017 Y71.324607 Z-0.125000 I-185.830693 J12.459313
G03 X72.133994 Y74.460803 Z-0.125000 I-179.965838 J8.971904
G03 X72.224104 Y77.610451 Z-0.125000 I-228.361029 J8.109398
G03 X72.245829 Y79.612010 Z-0.125000 I-92.193818 J2.001559
G03 X73.628555 Y79.593762 Z-0.125000 I3.174084 J188.121139
G03 X74.696025 Y79.588680 Z-0.125000 I1.067470 J112.112287
G03 X75.417832 Y79.592740 Z-0.125000 I-0.000000 J64.174050
G03 X76.770051 Y79.612010 Z-0.125000 I-2.533652 J225.246253
G01 X76.526047 Y75.373970 Z-0.125000
G01 X76.221043 Y68.747651 Z-0.125000
G01 X76.180377 Y67.120334 Z-0.125000
G03 X77.929106 Y67.089353 Z-0.125000 I7.535039 J375.950209
G03 X78.457738 Y67.085285 Z-0.125000 I0.528633 J34.349333
G03 X81.130797 Y67.112342 Z-0.125000 I-0.000000 J132.054236
G03 X82.504120 Y67.167210 Z-0.125000 I-0.706619 J34.901192
G01 X82.280450 Y63.631613 Z-0.125000
G03 X79.606561 Y63.649401 Z-0.125000 I-5.628819 J-645.139240
G03 X77.186890 Y63.654942 Z-0.125000 I-2.419673 J-528.292475
G03 X73.913215 Y63.648282 Z-0.125000 I0.000000 J-804.634467
G03 X71.452820 Y63.631613 Z-0.125000 I1.849235 J-454.518500
G01 X71.452819 Y63.631569 Z-0.125000
G00 Z5.000000

(End cutting path id: path16072)


(Start cutting path id: path16074)
(Change tool to Default tool)

G00 Z5.000000
G00 X89.681872 Y75.889094

G01 Z-0.125000 F100.0(Penetrate)
G02 X90.921611 Y75.776072 Z-0.125000 I0.000000 J-6.855856 F400.000000
G02 X92.101568 Y75.444208 Z-0.125000 I-1.201905 J-6.537053
G02 X93.196014 Y74.886879 Z-0.125000 I-2.036892 J-5.353179
G02 X94.073925 Y74.156403 Z-0.125000 I-2.707634 J-4.146920
G02 X94.765283 Y73.257305 Z-0.125000 I-3.625037 J-3.502815
G02 X95.253279 Y72.201292 Z-0.125000 I-4.541041 J-2.739225
G02 X95.537993 Y71.071963 Z-0.125000 I-6.304831 J-2.190060
G02 X95.639609 Y69.801304 Z-0.125000 I-7.893668 J-1.270658
G02 X95.550383 Y68.561903 Z-0.125000 I-8.652599 J-0.000000
G02 X95.293945 Y67.413015 Z-0.125000 I-7.685055 J1.112280
G02 X94.851062 Y66.346066 Z-0.125000 I-5.364593 J1.601415
G02 X94.145096 Y65.294000 Z-0.125000 I-5.920070 J3.209636
G02 X93.233527 Y64.446488 Z-0.125000 I-3.677740 J3.041723
G02 X92.071073 Y63.818877 Z-0.125000 I-3.116051 J4.381168
G02 X90.796537 Y63.453857 Z-0.125000 I-2.538479 J6.455930
G02 X89.417540 Y63.327169 Z-0.125000 I-1.378996 J7.441845
G02 X88.145799 Y63.437368 Z-0.125000 I-0.000000 J7.393322
G02 X86.936838 Y63.760337 Z-0.125000 I1.222125 J6.998977
G02 X85.822219 Y64.308863 Z-0.125000 I1.970215 J5.410256
G02 X84.944150 Y65.024725 Z-0.125000 I2.565526 J4.043295
G02 X84.258958 Y65.922010 Z-0.125000 I3.730535 J3.558999
G02 X83.744468 Y67.014972 Z-0.125000 I5.055438 J3.047318
G02 X83.449805 Y68.190936 Z-0.125000 I6.827244 J2.335611
G02 X83.347964 Y69.450083 Z-0.125000 I7.732981 J1.259147
G02 X83.447292 Y70.710061 Z-0.125000 I8.041039 J0.000000
G02 X83.734302 Y71.885195 Z-0.125000 I7.275041 J-1.154208
G02 X84.240407 Y72.979322 Z-0.125000 I5.513021 J-1.886014
G02 X84.974650 Y73.969096 Z-0.125000 I5.232608 J-3.114474
G02 X85.911684 Y74.772602 Z-0.125000 I3.905021 J-3.605834
G02 X87.079172 Y75.385678 Z-0.125000 I3.387256 J-5.032221
G02 X88.354335 Y75.761886 Z-0.125000 I2.594515 J-6.444950
G02 X89.681872 Y75.889094 Z-0.125000 I1.327537 J-6.863469
G01 X89.681872 Y75.889094 Z-0.125000
G00 Z5.000000

(Change tool to Default tool)

G00 Z5.000000
G00 X89.610759 Y72.447151

G01 Z-0.125000 F100.0(Penetrate)
G03 X88.993816 Y72.347033 Z-0.125000 I0.000000 J-1.950906 F400.000000
G03 X88.451749 Y72.060805 Z-0.125000 I0.593443 J-1.780290
G03 X88.027182 Y71.613385 Z-0.125000 I1.158833 J-1.524792
G03 X87.679069 Y70.925206 Z-0.125000 I2.475441 J-1.684331
G03 X87.492665 Y70.176293 Z-0.125000 I4.155544 J-1.431968
G03 X87.424909 Y69.309597 Z-0.125000 I5.509299 J-0.866696
G03 X87.595044 Y68.082026 Z-0.125000 I4.513707 J-0.000000
G03 X87.984076 Y67.331069 Z-0.125000 I2.022875 J0.571700
G03 X88.625642 Y66.826619 Z-0.125000 I1.472627 J1.212705
G03 X89.387095 Y66.652042 Z-0.125000 I0.761452 J1.573329
G03 X89.994141 Y66.751378 Z-0.125000 I-0.000000 J1.904517
G03 X90.535943 Y67.038377 Z-0.125000 I-0.603109 J1.793474
G03 X90.958315 Y67.497072 Z-0.125000 I-1.189530 J1.519145
G03 X91.298452 Y68.197403 Z-0.125000 I-2.513038 J1.653296
G03 X91.493839 Y68.981550 Z-0.125000 I-4.481222 J1.533010
G03 X91.562783 Y69.848137 Z-0.125000 I-5.411786 J0.866587
G03 X91.507557 Y70.564666 Z-0.125000 I-4.675854 J0.000000
G03 X91.359452 Y71.159347 Z-0.125000 I-3.360183 J-0.521070
G03 X91.083610 Y71.691785 Z-0.125000 I-1.978022 J-0.687087
G03 X90.688437 Y72.095930 Z-0.125000 I-1.512423 J-1.083575
G03 X90.199205 Y72.353681 Z-0.125000 I-0.996093 J-1.297484
G03 X89.610759 Y72.447151 Z-0.125000 I-0.588445 J-1.805569
G01 X89.610759 Y72.447151 Z-0.125000
G00 Z5.000000

(End cutting path id: path16074)


(Start cutting path id: path16076)
(Change tool to Default tool)

G00 Z5.000000
G00 X97.713632 Y77.106650

G01 Z-0.125000 F100.0(Penetrate)
G03 X97.798652 Y78.816475 Z-0.125000 I-87.803269 J5.223018 F400.000000
G03 X97.825479 Y79.904690 Z-0.125000 I-35.534374 J1.420429
G03 X98.659245 Y79.888117 Z-0.125000 I1.423475 J50.631997
G03 X99.838502 Y79.881253 Z-0.125000 I1.179257 J101.283453
G03 X100.895769 Y79.887470 Z-0.125000 I-0.000000 J89.895016
G03 X101.831193 Y79.904690 Z-0.125000 I-0.827874 J70.385808
G03 X101.739968 Y78.194959 Z-0.125000 I140.011314 J-8.327728
G03 X101.699022 Y77.106650 Z-0.125000 I56.685938 J-2.677663
G03 X100.702523 Y77.132938 Z-0.125000 I-1.993923 J-56.682712
G03 X99.706332 Y77.141698 Z-0.125000 I-0.996191 J-56.638909
G03 X98.679646 Y77.132670 Z-0.125000 I-0.000000 J-58.382029
G03 X97.713632 Y77.106650 Z-0.125000 I0.909517 J-51.711241
G01 X97.713632 Y77.106650 Z-0.125000
G00 Z5.000000

(Change tool to Default tool)

G00 Z5.000000
G00 X101.719355 Y75.584705

G01 Z-0.125000 F100.0(Penetrate)
G01 X101.505842 Y69.625694 Z-0.125000 F400.000000
G01 X101.404176 Y64.099850 Z-0.125000
G03 X101.385282 Y62.952529 Z-0.125000 I436.560772 J-7.763084
G03 X101.383774 Y62.753516 Z-0.125000 I13.133064 J-0.199013
G02 X101.330108 Y61.412376 Z-0.125000 I-16.784463 J0.000000
G02 X101.200776 Y60.470599 Z-0.125000 I-8.392347 J0.672730
G02 X100.915150 Y59.579934 Z-0.125000 I-3.547950 J0.646654
G02 X100.489095 Y58.960352 Z-0.125000 I-2.108360 J0.993532
G02 X99.902207 Y58.481702 Z-0.125000 I-1.967169 J1.812886
G02 X99.167419 Y58.164255 Z-0.125000 I-1.541865 J2.559797
G02 X98.375072 Y57.995068 Z-0.125000 I-1.447971 J4.841252
G02 X97.378061 Y57.930115 Z-0.125000 I-0.997011 J7.619407
G02 X96.779020 Y57.946862 Z-0.125000 I0.000000 J10.721789
G02 X95.914053 Y58.012039 Z-0.125000 I1.255051 J22.428122
G02 X95.043764 Y58.120911 Z-0.125000 I1.318729 J14.074300
G02 X93.972191 Y58.316417 Z-0.125000 I3.376317 J21.540127
G03 X93.891255 Y59.591077 Z-0.125000 I-40.792708 J-1.950256
G03 X93.697688 Y61.781776 Z-0.125000 I-120.705431 J-9.561482
G03 X94.613842 Y61.532366 Z-0.125000 I2.229258 J6.381344
G03 X95.293876 Y61.465679 Z-0.125000 I0.680035 J3.433956
G03 X95.836294 Y61.530967 Z-0.125000 I0.000000 J2.285855
G03 X96.300383 Y61.711538 Z-0.125000 I-0.450655 J1.844907
G03 X96.624166 Y61.934433 Z-0.125000 I-0.775235 J1.472741
G03 X96.859560 Y62.203235 Z-0.125000 I-0.908027 J1.032644
G03 X97.025494 Y62.523506 Z-0.125000 I-1.355303 J0.905310
G03 X97.174729 Y63.022748 Z-0.125000 I-3.174578 J1.220882
G03 X97.251269 Y63.482919 Z-0.125000 I-4.197077 J0.934549
G03 X97.347566 Y64.579817 Z-0.125000 I-23.810660 J2.643017
G03 X97.448174 Y66.734817 Z-0.125000 I-108.542809 J6.147260
G03 X97.540726 Y69.836385 Z-0.125000 I-224.756555 J8.259006
G03 X97.580903 Y72.470638 Z-0.125000 I-323.373827 J6.249391
G03 X97.591633 Y74.390533 Z-0.125000 I-171.755752 J1.919895
G01 X97.591633 Y75.584672 Z-0.125000
G03 X98.801539 Y75.566183 Z-0.125000 I2.865344 J147.908285
G03 X99.685999 Y75.561235 Z-0.125000 I0.884460 J79.033621
G03 X100.621287 Y75.566625 Z-0.125000 I0.000000 J81.146352
G03 X101.719355 Y75.584672 Z-0.125000 I-1.289485 J111.869348
G01 X101.719355 Y75.584705 Z-0.125000
G00 Z5.000000

(End cutting path id: path16076)


(Start cutting path id: path16078)
(Change tool to Default tool)

G00 Z5.000000
G00 X104.637229 Y72.177875

G01 Z-0.125000 F100.0(Penetrate)
G03 X104.822782 Y73.337981 Z-0.125000 I-88.618398 J14.768909 F400.000000
G03 X104.881227 Y73.770079 Z-0.125000 I-12.232226 J1.874533
G02 X104.932862 Y74.214870 Z-0.125000 I135.789999 J-15.538268
G02 X105.043893 Y75.151538 Z-0.125000 I602.295963 J-70.919808
G02 X107.990781 Y75.737071 Z-0.125000 I7.252110 J-28.790266
G02 X110.076456 Y75.889094 Z-0.125000 I2.085675 J-14.231178
G02 X111.262979 Y75.804137 Z-0.125000 I0.000000 J-8.328094
G02 X112.272478 Y75.572997 Z-0.125000 I-0.899302 J-6.247723
G02 X113.188629 Y75.149708 Z-0.125000 I-1.084934 J-3.551274
G02 X113.828000 Y74.577873 Z-0.125000 I-1.445625 J-2.259721
G02 X114.217039 Y73.826914 Z-0.125000 I-1.633819 J-1.322662
G02 X114.387177 Y72.599334 Z-0.125000 I-4.343552 J-1.227580
G02 X114.370257 Y71.944297 Z-0.125000 I-12.687983 J-0.000000
G02 X114.234664 Y69.649110 Z-0.125000 I-156.005500 J8.064792
G03 X114.113784 Y67.353090 Z-0.125000 I83.360834 J-5.539911
G03 X114.000837 Y63.631569 Z-0.125000 I218.916530 J-8.506549
G03 X113.004424 Y63.649097 Z-0.125000 I-2.003508 J-85.565232
G03 X112.018308 Y63.654899 Z-0.125000 I-0.986115 J-83.799947
G03 X111.062689 Y63.649417 Z-0.125000 I0.000000 J-83.295896
G03 X109.984952 Y63.631569 Z-0.125000 I1.215753 J-105.963321
G03 X110.094441 Y64.921880 Z-0.125000 I-25.314753 J2.797890
G03 X110.300121 Y68.946667 Z-0.125000 I-246.242199 J14.601410
G02 X109.910308 Y68.743179 Z-0.125000 I-5.765823 J10.570206
G02 X109.690116 Y68.642278 Z-0.125000 I-1.631078 J3.268731
G02 X109.474074 Y68.555186 Z-0.125000 I-1.551756 J3.537789
G02 X108.927607 Y68.361306 Z-0.125000 I-8.276664 J22.461355
G03 X108.380818 Y68.168055 Z-0.125000 I8.560668 J-25.092040
G03 X108.063433 Y68.045209 Z-0.125000 I3.136454 J-8.574722
G03 X107.771222 Y67.895656 Z-0.125000 I0.869387 J-2.058943
G03 X107.524599 Y67.717404 Z-0.125000 I0.998218 J-1.640834
G03 X107.321637 Y67.502735 Z-0.125000 I1.139308 J-1.280458
G01 X107.199248 Y67.307653 Z-0.125000
G01 X107.132174 Y67.091840 Z-0.125000
G03 X107.107734 Y66.839350 Z-0.125000 I1.292061 J-0.252490
G01 X107.179463 Y66.470529 Z-0.125000
G01 X107.382227 Y66.160335 Z-0.125000
G01 X107.693872 Y65.967554 Z-0.125000
G03 X108.256573 Y65.879362 Z-0.125000 I0.562701 J1.751044
G03 X108.469501 Y65.887531 Z-0.125000 I-0.000000 J2.779085
G03 X108.714084 Y65.914519 Z-0.125000 I-0.283949 J3.695144
G03 X108.954175 Y65.975013 Z-0.125000 I-0.405782 J2.117163
G03 X109.385099 Y66.125243 Z-0.125000 I-2.194218 J6.987107
G03 X109.115748 Y65.216637 Z-0.125000 I16.134124 J-5.277089
G03 X108.683590 Y63.491105 Z-0.125000 I57.792482 J-15.390975
G02 X107.805671 Y63.365645 Z-0.125000 I-1.884721 J10.054134
G02 X107.026402 Y63.327202 Z-0.125000 I-0.779270 J7.879050
G02 X105.791645 Y63.442948 Z-0.125000 I-0.000000 J6.643958
G02 X104.921874 Y63.725256 Z-0.125000 I0.671319 J3.549292
G02 X104.198715 Y64.246963 Z-0.125000 I1.175266 J2.391135
G02 X103.630693 Y65.036465 Z-0.125000 I2.258526 J2.224027
G02 X103.290449 Y65.963036 Z-0.125000 I4.074609 J2.021983
G02 X103.183353 Y66.839383 Z-0.125000 I3.531950 J0.876347
G02 X103.224207 Y67.383467 Z-0.125000 I3.643445 J-0.000000
G02 X103.346019 Y67.916452 Z-0.125000 I3.617279 J-0.546303
G02 X103.557826 Y68.423681 Z-0.125000 I3.328143 J-1.091920
G02 X103.874691 Y68.946700 Z-0.125000 I3.856965 J-1.979204
G02 X104.265293 Y69.415988 Z-0.125000 I3.165292 J-2.237362
G02 X104.708371 Y69.801337 Z-0.125000 I2.566374 J-2.503441
G02 X105.210829 Y70.120031 Z-0.125000 I2.136525 J-2.813042
G02 X106.009723 Y70.480353 Z-0.125000 I3.545101 J-6.794285
G02 X106.854354 Y70.759720 Z-0.125000 I3.669856 J-9.678826
G02 X108.114241 Y71.077422 Z-0.125000 I6.026540 J-21.242008
G03 X108.640807 Y71.202715 Z-0.125000 I-3.737105 J16.874986
G03 X109.080091 Y71.323282 Z-0.125000 I-3.019903 J11.863593
G03 X109.522861 Y71.474929 Z-0.125000 I-2.730526 J8.694597
G03 X109.710430 Y71.557422 Z-0.125000 I-0.608276 J1.637562
G03 X109.892839 Y71.676158 Z-0.125000 I-0.671355 J1.230857
G01 X110.015437 Y71.791573 Z-0.125000
G03 X110.124254 Y71.939802 Z-0.125000 I-0.849343 J0.737573
G01 X110.188264 Y72.072557 Z-0.125000
G01 X110.226225 Y72.226848 Z-0.125000
G01 X110.239170 Y72.388643 Z-0.125000
G01 X110.148635 Y72.787142 Z-0.125000
G01 X109.913840 Y73.067669 Z-0.125000
G01 X109.562833 Y73.236995 Z-0.125000
G03 X108.958161 Y73.313529 Z-0.125000 I-0.604672 J-2.350420
G03 X107.255866 Y73.093564 Z-0.125000 I0.000000 J-6.696967
G03 X104.637278 Y72.177908 Z-0.125000 I4.446376 J-16.917859
G01 X104.637229 Y72.177875 Z-0.125000
G00 Z5.000000

(End cutting path id: path16078)


(Start cutting path id: path16066)
(Change tool to Default tool)

G00 Z5.000000
G00 X115.810519 Y93.602214

G01 Z-0.125000 F100.0(Penetrate)
G01 X116.125688 Y98.800242 Z-0.125000 F400.000000
G01 X116.227363 Y101.785612 Z-0.125000
G03 X116.234960 Y102.593423 Z-0.125000 I-125.279254 J1.582041
G03 X116.237564 Y103.436335 Z-0.125000 I-136.400989 J0.842912
G03 X116.233470 Y104.290939 Z-0.125000 I-89.195448 J-0.000000
G03 X116.217261 Y105.555350 Z-0.125000 I-195.267512 J-1.870994
G03 X117.447493 Y105.536245 Z-0.125000 I3.327491 J174.650860
G03 X118.169285 Y105.531912 Z-0.125000 I0.721791 J60.114325
G03 X119.013072 Y105.537004 Z-0.125000 I-0.000000 J69.913641
G03 X120.111137 Y105.555350 Z-0.125000 I-1.429318 J118.420341
G01 X120.070431 Y104.232432 Z-0.125000
G02 X120.479420 Y104.736411 Z-0.125000 I10.003776 J-7.700309
G02 X120.721112 Y104.993393 Z-0.125000 I2.834589 J-2.423794
G02 X120.989322 Y105.233268 Z-0.125000 I2.054588 J-2.027399
G02 X121.300623 Y105.449988 Z-0.125000 I1.985029 J-2.519402
G02 X121.638086 Y105.633254 Z-0.125000 I1.352338 J-2.087835
G02 X121.981789 Y105.754376 Z-0.125000 I0.913941 J-2.045232
G02 X122.341549 Y105.832729 Z-0.125000 I0.712500 J-2.406367
G02 X122.723964 Y105.859739 Z-0.125000 I0.382416 J-2.693755
G02 X123.086630 Y105.833772 Z-0.125000 I-0.000000 J-2.545590
G02 X123.537311 Y105.742668 Z-0.125000 I-0.579970 J-4.029349
G03 X123.557819 Y104.466866 Z-0.125000 I78.963351 J0.631221
G03 X123.588217 Y103.635351 Z-0.125000 I33.570131 J0.810954
G01 X123.659329 Y101.832445 Z-0.125000
G03 X123.093194 Y101.977070 Z-0.125000 I-1.270361 J-3.792455
G03 X122.612156 Y102.019753 Z-0.125000 I-0.481037 J-2.689312
G03 X122.015319 Y101.960858 Z-0.125000 I0.000000 J-3.053630
G03 X121.554812 Y101.809028 Z-0.125000 I0.390143 J-1.957607
G03 X121.153326 Y101.563586 Z-0.125000 I0.804347 J-1.766811
G03 X120.771960 Y101.188543 Z-0.125000 I1.557978 J-1.965662
G03 X120.483958 Y100.752751 Z-0.125000 I1.982918 J-1.623514
G03 X120.233126 Y100.158295 Z-0.125000 I3.464699 J-1.812086
G03 X120.085226 Y99.527232 Z-0.125000 I3.565894 J-1.168591
G03 X119.948452 Y98.191475 Z-0.125000 I15.938030 J-2.306844
G03 X119.890005 Y96.844440 Z-0.125000 I39.679676 J-2.396471
G03 X119.867139 Y95.112461 Z-0.125000 I65.583383 J-1.731979
G03 X119.875339 Y94.503858 Z-0.125000 I22.588448 J0.000000
G03 X119.907844 Y93.602214 Z-0.125000 I49.615201 J1.337275
G03 X118.921601 Y93.619682 Z-0.125000 I-1.962827 J-82.972047
G03 X117.925326 Y93.625543 Z-0.125000 I-0.996276 J-84.662947
G03 X116.939198 Y93.620104 Z-0.125000 I0.000000 J-89.393193
G03 X115.810627 Y93.602214 Z-0.125000 I1.291878 J-117.102583
G01 X115.810519 Y93.602214 Z-0.125000
G00 Z5.000000

(End cutting path id: path16066)


(Start cutting path id: path16064)
(Change tool to Default tool)

G00 Z5.000000
G00 X108.368430 Y105.859739

G01 Z-0.125000 F100.0(Penetrate)
G02 X109.608171 Y105.746719 Z-0.125000 I-0.000000 J-6.856023 F400.000000
G02 X110.788127 Y105.414863 Z-0.125000 I-1.201898 J-6.537176
G02 X111.882575 Y104.857536 Z-0.125000 I-2.036929 J-5.353278
G02 X112.760484 Y104.127070 Z-0.125000 I-2.707631 J-4.146950
G02 X113.451837 Y103.227954 Z-0.125000 I-3.625347 J-3.502980
G02 X113.939828 Y102.171947 Z-0.125000 I-4.541212 J-2.739291
G02 X114.224557 Y101.042606 Z-0.125000 I-6.304717 J-2.190110
G02 X114.326177 Y99.771960 Z-0.125000 I-7.893191 J-1.270646
G02 X114.236946 Y98.532550 Z-0.125000 I-8.652182 J-0.000000
G02 X113.980494 Y97.383670 Z-0.125000 I-7.684481 J1.112260
G02 X113.537619 Y96.316722 Z-0.125000 I-5.364532 J1.601350
G02 X112.831655 Y95.264645 Z-0.125000 I-5.920114 J3.209616
G02 X111.920084 Y94.417135 Z-0.125000 I-3.677689 J3.041681
G02 X110.757632 Y93.789533 Z-0.125000 I-3.115974 J4.381092
G02 X109.483105 Y93.424514 Z-0.125000 I-2.538434 J6.455765
G02 X108.104089 Y93.297825 Z-0.125000 I-1.379016 J7.441976
G02 X106.832359 Y93.408026 Z-0.125000 I-0.000000 J7.393034
G02 X105.623403 Y93.731003 Z-0.125000 I1.222129 J6.998784
G02 X104.508780 Y94.279516 Z-0.125000 I1.969985 J5.409932
G02 X103.630713 Y94.995380 Z-0.125000 I2.565354 J4.043062
G02 X102.945519 Y95.892657 Z-0.125000 I3.730414 J3.558943
G02 X102.431026 Y96.985616 Z-0.125000 I5.055358 J3.047300
G02 X102.136365 Y98.161580 Z-0.125000 I6.827289 J2.335609
G02 X102.034524 Y99.420728 Z-0.125000 I7.733040 J1.259147
G02 X102.133850 Y100.680706 Z-0.125000 I8.041238 J-0.000000
G02 X102.420855 Y101.855850 Z-0.125000 I7.275320 J-1.154224
G02 X102.926963 Y102.949968 Z-0.125000 I5.513083 J-1.886085
G02 X103.661208 Y103.939740 Z-0.125000 I5.232727 J-3.114573
G02 X104.598235 Y104.743250 Z-0.125000 I3.904827 J-3.605564
G02 X105.765735 Y105.356323 Z-0.125000 I3.387102 J-5.032005
G02 X107.040894 Y105.732531 Z-0.125000 I2.594504 J-6.444902
G02 X108.368430 Y105.859739 Z-0.125000 I1.327537 J-6.863458
G01 X108.368430 Y105.859739 Z-0.125000
G00 Z5.000000

(Change tool to Default tool)

G00 Z5.000000
G00 X108.297318 Y102.417796

G01 Z-0.125000 F100.0(Penetrate)
G03 X107.680373 Y102.317680 Z-0.125000 I0.000000 J-1.950961 F400.000000
G03 X107.138308 Y102.031461 Z-0.125000 I0.593432 J-1.780307
G03 X106.713740 Y101.584031 Z-0.125000 I1.158900 J-1.524837
G03 X106.365627 Y100.895851 Z-0.125000 I2.475494 J-1.684351
G03 X106.179217 Y100.146947 Z-0.125000 I4.155230 J-1.431936
G03 X106.111458 Y99.280241 Z-0.125000 I5.509148 J-0.866706
G03 X106.281594 Y98.052682 Z-0.125000 I4.513592 J-0.000000
G03 X106.670635 Y97.301713 Z-0.125000 I2.022924 J0.571724
G03 X107.312199 Y96.797272 Z-0.125000 I1.472610 J1.212711
G03 X108.073653 Y96.622698 Z-0.125000 I0.761454 J1.573357
G03 X108.680699 Y96.722033 Z-0.125000 I0.000000 J1.904517
G03 X109.222502 Y97.009033 Z-0.125000 I-0.603109 J1.793474
G03 X109.644876 Y97.467736 Z-0.125000 I-1.189613 J1.519210
G03 X109.985011 Y98.168059 Z-0.125000 I-2.513051 J1.653305
G03 X110.180398 Y98.952206 Z-0.125000 I-4.481249 J1.533020
G03 X110.249342 Y99.818782 Z-0.125000 I-5.411683 J0.866576
G03 X110.194116 Y100.535311 Z-0.125000 I-4.675893 J-0.000000
G03 X110.046010 Y101.130002 Z-0.125000 I-3.360324 J-0.521087
G03 X109.770168 Y101.662440 Z-0.125000 I-1.978022 J-0.687087
G03 X109.374996 Y102.066585 Z-0.125000 I-1.512423 J-1.083575
G03 X108.885756 Y102.324330 Z-0.125000 I-0.996113 J-1.297578
G03 X108.297318 Y102.417796 Z-0.125000 I-0.588438 J-1.805602
G01 X108.297318 Y102.417796 Z-0.125000
G00 Z5.000000

(End cutting path id: path16064)


(Start cutting path id: path16068)
(Change tool to Default tool)

G00 Z5.000000
G00 X125.346973 Y107.042181

G01 Z-0.125000 F100.0(Penetrate)
G03 X125.396792 Y108.435581 Z-0.125000 I-86.778396 J3.800216 F400.000000
G03 X125.407982 Y109.243152 Z-0.125000 I-29.133901 J0.807571
G03 X125.406094 Y109.477268 Z-0.125000 I-14.510809 J-0.000000
G03 X125.397781 Y109.875335 Z-0.125000 I-41.961020 J-0.677084
G03 X126.628008 Y109.856630 Z-0.125000 I3.046102 J159.880243
G03 X127.461633 Y109.851897 Z-0.125000 I0.833625 J73.405785
G03 X128.610391 Y109.858585 Z-0.125000 I-0.000000 J98.670670
G03 X129.474656 Y109.875335 Z-0.125000 I-0.650450 J55.865530
G03 X129.447257 Y109.512211 Z-0.125000 I21.236158 J-1.784925
G03 X129.433951 Y109.266568 Z-0.125000 I9.703760 J-0.648848
G01 X129.373039 Y107.814850 Z-0.125000
G03 X129.358507 Y107.486874 Z-0.125000 I9.163019 J-0.570304
G03 X129.352638 Y107.042181 Z-0.125000 I16.841653 J-0.444693
G03 X128.346066 Y107.059924 Z-0.125000 I-2.102067 J-90.690088
G03 X127.420947 Y107.065510 Z-0.125000 I-0.925119 J-76.600531
G03 X126.465324 Y107.060136 Z-0.125000 I-0.000000 J-84.961856
G03 X125.346924 Y107.042181 Z-0.125000 I1.309201 J-116.390155
G01 X125.346973 Y107.042181 Z-0.125000
G00 Z5.000000

(Change tool to Default tool)

G00 Z5.000000
G00 X124.706463 Y93.602214

G01 Z-0.125000 F100.0(Penetrate)
G03 X124.842475 Y95.031063 Z-0.125000 I-161.541180 J16.097923 F400.000000
G03 X124.919967 Y95.955369 Z-0.125000 I-67.519962 J6.126129
G03 X124.981400 Y96.880831 Z-0.125000 I-44.235855 J3.401185
G03 X125.052137 Y98.320253 Z-0.125000 I-106.948152 J5.977203
G03 X125.115291 Y99.760554 Z-0.125000 I-130.338615 J6.436624
G03 X125.174146 Y101.504629 Z-0.125000 I-191.059104 J7.320399
G03 X125.217111 Y103.249185 Z-0.125000 I-191.608654 J5.591719
G03 X125.255459 Y105.555350 Z-0.125000 I-334.795923 J6.720603
G03 X126.577174 Y105.536306 Z-0.125000 I3.525114 J198.783046
G03 X127.370148 Y105.531912 Z-0.125000 I0.792974 J71.546262
G03 X128.091955 Y105.535990 Z-0.125000 I0.000000 J63.876866
G03 X129.444171 Y105.555350 Z-0.125000 I-2.533647 J224.202720
G03 X129.285349 Y103.341783 Z-0.125000 I174.848268 J-13.657754
G03 X129.190002 Y101.668531 Z-0.125000 I99.809237 J-6.526796
G03 X129.132842 Y99.994009 Z-0.125000 I100.489045 J-4.268431
G03 X129.098488 Y98.121226 Z-0.125000 I125.660598 J-3.241814
G03 X129.063160 Y94.796320 Z-0.125000 I1027.851698 J-12.583723
G03 X129.057782 Y93.602214 Z-0.125000 I132.566159 J-1.194107
G03 X127.847887 Y93.620650 Z-0.125000 I-2.884560 J-149.591550
G03 X126.973597 Y93.625543 Z-0.125000 I-0.874289 J-78.106602
G03 X126.109450 Y93.621097 Z-0.125000 I-0.000000 J-83.984222
G03 X124.706395 Y93.602214 Z-0.125000 I2.278395 J-221.419467
G01 X124.706463 Y93.602214 Z-0.125000
G00 Z5.000000

(End cutting path id: path16068)


(Start cutting path id: path16070)
(Change tool to Default tool)

G00 Z5.000000
G00 X142.661018 Y93.602214

G01 Z-0.125000 F100.0(Penetrate)
G03 X141.501951 Y93.620878 Z-0.125000 I-2.898254 J-143.987223 F400.000000
G03 X140.729327 Y93.625543 Z-0.125000 I-0.772623 J-63.973775
G03 X139.773719 Y93.619742 Z-0.125000 I-0.000000 J-78.714247
G03 X138.807808 Y93.602214 Z-0.125000 I0.976609 J-80.438118
G01 X138.797607 Y95.206115 Z-0.125000
G02 X138.417981 Y94.690339 Z-0.125000 I-9.627650 J6.688634
G02 X138.177431 Y94.410019 Z-0.125000 I-3.076590 J2.396730
G02 X137.910969 Y94.167505 Z-0.125000 I-2.391831 J2.360378
G02 X137.618264 Y93.953435 Z-0.125000 I-2.153006 J2.636737
G02 X137.314089 Y93.771936 Z-0.125000 I-1.777361 J2.633047
G02 X136.947249 Y93.602214 Z-0.125000 I-1.918351 J3.665042
G02 X136.575475 Y93.482857 Z-0.125000 I-1.253467 J3.265638
G02 X136.093246 Y93.379771 Z-0.125000 I-1.406272 J5.398958
G02 X135.613632 Y93.318643 Z-0.125000 I-0.949714 J5.539459
G02 X135.117234 Y93.297847 Z-0.125000 I-0.496398 J5.913887
G02 X134.322728 Y93.355483 Z-0.125000 I-0.000000 J5.504884
G02 X133.592207 Y93.520279 Z-0.125000 I0.702176 J4.814219
G02 X132.924026 Y93.806852 Z-0.125000 I0.882304 J2.979467
G02 X132.331531 Y94.246138 Z-0.125000 I1.595750 J2.771508
G02 X131.870158 Y94.809205 Z-0.125000 I2.076061 J2.171663
G02 X131.589355 Y95.416861 Z-0.125000 I2.145677 J1.360244
G02 X131.450449 Y96.080310 Z-0.125000 I4.060968 J1.196510
G02 X131.396185 Y96.938806 Z-0.125000 I6.763901 J0.858496
G02 X131.401081 Y97.149373 Z-0.125000 I4.530436 J-0.000000
G02 X131.426690 Y97.594416 Z-0.125000 I20.271845 J-0.943222
G01 X131.589365 Y100.251981 Z-0.125000
G03 X131.654753 Y101.715623 Z-0.125000 I-187.104524 J9.092093
G03 X131.721536 Y103.494887 Z-0.125000 I-276.434899 J11.266610
G03 X131.752646 Y104.583854 Z-0.125000 I-61.799973 J2.310462
G03 X131.762241 Y105.555371 Z-0.125000 I-49.177440 J0.971517
G03 X133.022972 Y105.536765 Z-0.125000 I3.058140 J164.492311
G03 X133.907435 Y105.531933 Z-0.125000 I0.884463 J80.951960
G03 X134.802056 Y105.537249 Z-0.125000 I0.000000 J75.289900
G03 X135.879792 Y105.555371 Z-0.125000 I-1.298651 J109.284697
G01 X135.564613 Y101.094889 Z-0.125000
G03 X135.499317 Y100.076078 Z-0.125000 I89.293344 J-6.234328
G03 X135.483300 Y99.701733 Z-0.125000 I12.036676 J-0.702534
G01 X135.483300 Y99.210025 Z-0.125000
G03 X135.630998 Y98.041321 Z-0.125000 I4.697723 J-0.000000
G03 X135.910307 Y97.547594 Z-0.125000 I1.055071 J0.271002
G03 X136.393189 Y97.225500 Z-0.125000 I1.067410 J1.077242
G03 X136.947318 Y97.114416 Z-0.125000 I0.554129 J1.326563
G03 X137.188047 Y97.134482 Z-0.125000 I-0.000000 J1.454042
G03 X137.435324 Y97.196340 Z-0.125000 I-0.268035 J1.596634
G03 X137.671294 Y97.294457 Z-0.125000 I-0.580363 J1.728587
G03 X137.902997 Y97.430492 Z-0.125000 I-0.902364 J1.802302
G03 X138.083660 Y97.583848 Z-0.125000 I-0.929687 J1.278328
G03 X138.258832 Y97.781702 Z-0.125000 I-1.380722 J1.398904
G03 X138.413987 Y98.014465 Z-0.125000 I-1.522390 J1.182887
G03 X138.563849 Y98.320242 Z-0.125000 I-2.485890 J1.407953
G03 X138.703799 Y98.713347 Z-0.125000 I-3.405224 J1.433762
G03 X138.807847 Y99.151463 Z-0.125000 I-4.128587 J1.211913
G03 X138.898213 Y99.774565 Z-0.125000 I-9.036969 J1.628694
G03 X138.980684 Y100.720229 Z-0.125000 I-20.746808 J2.285754
G03 X139.017218 Y101.411174 Z-0.125000 I-57.208393 J3.371340
G03 X139.092512 Y103.108519 Z-0.125000 I-345.168957 J16.161940
G01 X139.173825 Y105.555339 Z-0.125000
G03 X140.485390 Y105.536488 Z-0.125000 I3.350586 J187.490082
G03 X141.329181 Y105.531901 Z-0.125000 I0.843791 J77.595196
G03 X142.274626 Y105.537728 Z-0.125000 I0.000000 J76.696868
G03 X143.230376 Y105.555339 Z-0.125000 I-0.966458 J78.395519
G03 X143.017136 Y102.580370 Z-0.125000 I214.879166 J-16.897262
G03 X142.864369 Y99.900717 Z-0.125000 I174.181160 J-11.274230
G03 X142.754991 Y97.218971 Z-0.125000 I157.831617 J-7.780475
G03 X142.661038 Y93.602203 Z-0.125000 I286.993639 J-9.264871
G01 X142.661018 Y93.602214 Z-0.125000
G00 Z5.000000

(Change tool to Default tool)

G00 Z5.000000
G00 X135.818773 Y107.229500

G01 Z-0.125000 F100.0(Penetrate)
G01 X136.194942 Y108.201196 Z-0.125000 F400.000000
G03 X136.332996 Y108.542394 Z-0.125000 I-13.590318 J5.697392
G03 X136.510111 Y109.009001 Z-0.125000 I-25.241596 J9.848136
G01 X136.825280 Y109.828514 Z-0.125000
G03 X137.862356 Y109.810787 Z-0.125000 I2.128024 J94.154559
G03 X138.848475 Y109.805076 Z-0.125000 I0.986119 J85.123253
G03 X139.671938 Y109.809774 Z-0.125000 I0.000000 J72.158695
G03 X140.902164 Y109.828514 Z-0.125000 I-1.838283 J161.075063
G01 X140.017657 Y108.692904 Z-0.125000
G03 X139.918138 Y108.562494 Z-0.125000 I3.905176 J-3.083295
G03 X139.560145 Y108.072429 Z-0.125000 I54.812098 J-40.416035
G02 X139.202386 Y107.582130 Z-0.125000 I-62.420734 J45.171184
G02 X138.939979 Y107.229500 Z-0.125000 I-32.550035 J23.947980
G03 X137.963912 Y107.248339 Z-0.125000 I-2.488081 J-103.609795
G03 X137.333619 Y107.252937 Z-0.125000 I-0.630293 J-43.198276
G03 X136.845656 Y107.249163 Z-0.125000 I-0.000000 J-31.541944
G03 X135.818773 Y107.229500 Z-0.125000 I2.161665 J-139.713402
G01 X135.818773 Y107.229500 Z-0.125000
G00 Z5.000000

(End cutting path id: path16070)


(Start cutting path id: path16050)
(Change tool to Default tool)

G00 Z5.000000
G00 X115.830852 Y123.572858

G01 Z-0.125000 F100.0(Penetrate)
G01 X116.146021 Y128.770897 Z-0.125000 F400.000000
G01 X116.247697 Y131.756257 Z-0.125000
G03 X116.255293 Y132.564078 Z-0.125000 I-125.283443 J1.582073
G03 X116.257898 Y133.406991 Z-0.125000 I-136.401886 J0.842913
G03 X116.253784 Y134.261584 Z-0.125000 I-88.765504 J0.000000
G03 X116.237496 Y135.526005 Z-0.125000 I-194.334964 J-1.871054
G03 X117.467709 Y135.506900 Z-0.125000 I3.327347 J174.640545
G03 X118.189520 Y135.502567 Z-0.125000 I0.721811 J60.115958
G03 X119.033297 Y135.507659 Z-0.125000 I-0.000000 J69.912829
G03 X120.131372 Y135.526005 Z-0.125000 I-1.429360 J118.423833
G01 X120.090666 Y134.203076 Z-0.125000
G02 X120.499643 Y134.707058 Z-0.125000 I10.005646 J-7.701557
G02 X120.741338 Y134.964060 Z-0.125000 I2.835441 J-2.424417
G02 X121.009536 Y135.203916 Z-0.125000 I2.054603 J-2.027506
G02 X121.320848 Y135.420643 Z-0.125000 I1.985452 J-2.519999
G02 X121.658312 Y135.603909 Z-0.125000 I1.352291 J-2.087762
G02 X122.002024 Y135.725032 Z-0.125000 I0.913946 J-2.045271
G02 X122.361774 Y135.803384 Z-0.125000 I0.712472 J-2.406207
G02 X122.744190 Y135.830394 Z-0.125000 I0.382416 J-2.693718
G02 X123.106864 Y135.804424 Z-0.125000 I0.000000 J-2.545422
G02 X123.557536 Y135.713313 Z-0.125000 I-0.579937 J-4.028743
G03 X123.578044 Y134.437521 Z-0.125000 I78.962404 J0.631219
G03 X123.608443 Y133.606007 Z-0.125000 I33.570300 J0.810962
G01 X123.679555 Y131.803089 Z-0.125000
G03 X123.113428 Y131.947722 Z-0.125000 I-1.270323 J-3.792055
G03 X122.632382 Y131.990408 Z-0.125000 I-0.481046 J-2.689205
G03 X122.035555 Y131.931512 Z-0.125000 I0.000000 J-3.053424
G03 X121.575037 Y131.779673 Z-0.125000 I0.390170 J-1.957643
G03 X121.173559 Y131.534233 Z-0.125000 I0.804377 J-1.766836
G03 X120.792185 Y131.159187 Z-0.125000 I1.558100 J-1.965816
G03 X120.504179 Y130.723404 Z-0.125000 I1.982637 J-1.623374
G03 X120.253351 Y130.128950 Z-0.125000 I3.464276 J-1.811884
G03 X120.105456 Y129.497889 Z-0.125000 I3.566176 J-1.168627
G03 X119.968677 Y128.162119 Z-0.125000 I15.939623 J-2.307062
G03 X119.910230 Y126.815096 Z-0.125000 I39.678789 J-2.396437
G03 X119.887364 Y125.083106 Z-0.125000 I65.583793 J-1.731990
G03 X119.895564 Y124.474502 Z-0.125000 I22.588448 J0.000000
G03 X119.928070 Y123.572858 Z-0.125000 I49.615201 J1.337275
G03 X118.941817 Y123.590326 Z-0.125000 I-1.962856 J-82.974108
G03 X117.945541 Y123.596188 Z-0.125000 I-0.996276 J-84.663366
G03 X116.959424 Y123.590749 Z-0.125000 I0.000000 J-89.391889
G03 X115.830852 Y123.572858 Z-0.125000 I1.291891 J-117.103205
G01 X115.830852 Y123.572858 Z-0.125000
G00 Z5.000000

(End cutting path id: path16050)


(Start cutting path id: path16048)
(Change tool to Default tool)

G00 Z5.000000
G00 X104.189880 Y132.119186

G01 Z-0.125000 F100.0(Penetrate)
G03 X104.375438 Y133.279282 Z-0.125000 I-88.565328 J14.760953 F400.000000
G03 X104.433878 Y133.711369 Z-0.125000 I-12.224433 J1.873365
G02 X104.485516 Y134.156159 Z-0.125000 I135.211950 J-15.472125
G02 X104.596563 Y135.092827 Z-0.125000 I599.734009 J-70.626633
G02 X107.543451 Y135.678361 Z-0.125000 I7.252130 J-28.790346
G02 X109.629116 Y135.830383 Z-0.125000 I2.085665 J-14.231083
G02 X110.815641 Y135.745429 Z-0.125000 I-0.000000 J-8.328380
G02 X111.825138 Y135.514297 Z-0.125000 I-0.899297 J-6.247904
G02 X112.741292 Y135.091001 Z-0.125000 I-1.085014 J-3.551411
G02 X113.380660 Y134.519173 Z-0.125000 I-1.445649 J-2.259758
G02 X113.769700 Y133.768214 Z-0.125000 I-1.633825 J-1.322666
G02 X113.939837 Y132.540645 Z-0.125000 I-4.343490 J-1.227569
G02 X113.922918 Y131.885597 Z-0.125000 I-12.689102 J0.000000
G02 X113.787334 Y129.590399 Z-0.125000 I-156.015485 J8.064730
G03 X113.666448 Y127.294379 Z-0.125000 I83.352871 J-5.539738
G03 X113.553497 Y123.572858 Z-0.125000 I218.895548 J-8.506090
G03 X112.557084 Y123.590386 Z-0.125000 I-2.003518 J-85.565660
G03 X111.570979 Y123.596188 Z-0.125000 I-0.986106 J-83.798699
G03 X110.615359 Y123.590706 Z-0.125000 I0.000000 J-83.295896
G03 X109.537622 Y123.572858 Z-0.125000 I1.215753 J-105.963321
G03 X109.647111 Y124.863180 Z-0.125000 I-25.314388 J2.797826
G03 X109.852781 Y128.887978 Z-0.125000 I-246.235835 J14.600519
G02 X109.462969 Y128.684490 Z-0.125000 I-5.765823 J10.570206
G02 X109.242776 Y128.583589 Z-0.125000 I-1.631078 J3.268731
G02 X109.026726 Y128.496493 Z-0.125000 I-1.552622 J3.539927
G02 X108.480277 Y128.302606 Z-0.125000 I-8.280903 J22.471703
G03 X107.933484 Y128.109353 Z-0.125000 I8.573885 J-25.129325
G03 X107.616093 Y127.986520 Z-0.125000 I3.140987 J-8.587507
G03 X107.323884 Y127.836966 Z-0.125000 I0.869347 J-2.058850
G03 X107.077249 Y127.658704 Z-0.125000 I0.998278 J-1.640908
G03 X106.874307 Y127.444046 Z-0.125000 I1.139160 J-1.280249
G01 X106.751919 Y127.248953 Z-0.125000
G01 X106.684843 Y127.033140 Z-0.125000
G03 X106.660405 Y126.780661 Z-0.125000 I1.291976 J-0.252479
G01 X106.732134 Y126.411841 Z-0.125000
G01 X106.934907 Y126.101635 Z-0.125000
G01 X107.246544 Y125.908855 Z-0.125000
G03 X107.809253 Y125.820662 Z-0.125000 I0.562709 J1.751070
G03 X108.022175 Y125.828806 Z-0.125000 I-0.000000 J2.787498
G03 X108.266755 Y125.855710 Z-0.125000 I-0.283930 J3.706264
G03 X108.506857 Y125.916265 Z-0.125000 I-0.408188 J2.124786
G03 X108.937759 Y126.066445 Z-0.125000 I-2.201608 J7.010176
G03 X108.668419 Y125.157842 Z-0.125000 I16.139518 J-5.278502
G03 X108.236250 Y123.432296 Z-0.125000 I57.813147 J-15.396415
G02 X107.358332 Y123.306844 Z-0.125000 I-1.884729 J10.054843
G02 X106.579072 Y123.268404 Z-0.125000 I-0.779260 J7.879431
G02 X105.344314 Y123.384147 Z-0.125000 I0.000000 J6.644172
G02 X104.474534 Y123.666447 Z-0.125000 I0.671326 J3.549445
G02 X103.751394 Y124.188143 Z-0.125000 I1.175218 J2.391043
G02 X103.183363 Y124.977657 Z-0.125000 I2.258623 J2.224105
G02 X102.843119 Y125.904238 Z-0.125000 I4.074724 J2.022015
G02 X102.736024 Y126.780585 Z-0.125000 I3.531973 J0.876347
G02 X102.776877 Y127.324659 Z-0.125000 I3.643374 J-0.000000
G02 X102.898689 Y127.857655 Z-0.125000 I3.617489 J-0.546335
G02 X103.110491 Y128.364882 Z-0.125000 I3.327781 J-1.091740
G02 X103.427361 Y128.887902 Z-0.125000 I3.856640 J-1.979037
G02 X103.817969 Y129.357183 Z-0.125000 I3.165567 J-2.237666
G02 X104.261041 Y129.742529 Z-0.125000 I2.566581 J-2.503675
G02 X104.763509 Y130.061233 Z-0.125000 I2.136614 J-2.813134
G02 X105.562394 Y130.421555 Z-0.125000 I3.545029 J-6.794038
G02 X106.407023 Y130.700916 Z-0.125000 I3.670165 J-9.679974
G02 X107.666921 Y131.018625 Z-0.125000 I6.027364 J-21.245011
G03 X108.193467 Y131.143908 Z-0.125000 I-3.736327 J16.872414
G03 X108.632762 Y131.264473 Z-0.125000 I-3.019703 J11.863211
G03 X109.075531 Y131.416130 Z-0.125000 I-2.731107 J8.695778
G03 X109.263100 Y131.498624 Z-0.125000 I-0.608379 J1.637765
G03 X109.445519 Y131.617361 Z-0.125000 I-0.671359 J1.230927
G01 X109.568107 Y131.732765 Z-0.125000
G03 X109.676928 Y131.880993 Z-0.125000 I-0.849568 J0.737769
G01 X109.740944 Y132.013737 Z-0.125000
G01 X109.778906 Y132.168050 Z-0.125000
G01 X109.791850 Y132.329835 Z-0.125000
G01 X109.701316 Y132.728324 Z-0.125000
G01 X109.466520 Y133.008850 Z-0.125000
G01 X109.115513 Y133.178176 Z-0.125000
G03 X108.510841 Y133.254709 Z-0.125000 I-0.604672 J-2.350420
G03 X106.808544 Y133.034749 Z-0.125000 I0.000000 J-6.697109
G03 X104.189949 Y132.119110 Z-0.125000 I4.446380 J-16.918234
G01 X104.189880 Y132.119186 Z-0.125000
G00 Z5.000000

(Change tool to Default tool)

G00 Z5.000000
G00 X107.483932 Y137.200144

G01 Z-0.125000 F100.0(Penetrate)
G01 X107.860091 Y138.171841 Z-0.125000 F400.000000
G03 X107.998150 Y138.513041 Z-0.125000 I-13.574487 J5.691148
G03 X108.175260 Y138.979656 Z-0.125000 I-25.212667 J9.836717
G01 X108.490439 Y139.799158 Z-0.125000
G03 X109.527515 Y139.781432 Z-0.125000 I2.128024 J94.154559
G03 X110.513634 Y139.775720 Z-0.125000 I0.986119 J85.123253
G03 X111.337088 Y139.780419 Z-0.125000 I-0.000000 J72.157836
G03 X112.567324 Y139.799158 Z-0.125000 I-1.838334 J161.079550
G01 X111.682806 Y138.663559 Z-0.125000
G03 X111.583293 Y138.533143 Z-0.125000 I3.914953 J-3.090456
G03 X111.225295 Y138.043073 Z-0.125000 I54.945195 J-40.513467
G02 X110.867536 Y137.552774 Z-0.125000 I-62.420734 J45.171184
G02 X110.605128 Y137.200144 Z-0.125000 I-32.550035 J23.947980
G03 X109.629061 Y137.218984 Z-0.125000 I-2.488104 J-103.610775
G03 X108.998778 Y137.223582 Z-0.125000 I-0.630283 J-43.197340
G03 X108.510815 Y137.219807 Z-0.125000 I-0.000000 J-31.541944
G03 X107.483932 Y137.200144 Z-0.125000 I2.161665 J-139.713402
G01 X107.483932 Y137.200144 Z-0.125000
G00 Z5.000000

(End cutting path id: path16048)


(Start cutting path id: path16046)
(Change tool to Default tool)

G00 Z5.000000
G00 X100.977180 Y127.108466

G01 Z-0.125000 F100.0(Penetrate)
G03 X100.858185 Y126.403876 Z-0.125000 I18.796968 J-3.536863 F400.000000
G03 X100.468831 Y123.713345 Z-0.125000 I273.790380 J-40.994424
G02 X99.284660 Y123.473428 Z-0.125000 I-5.474778 J23.979774
G02 X98.486312 Y123.362134 Z-0.125000 I-1.909690 J10.779852
G02 X97.681763 Y123.292136 Z-0.125000 I-1.597192 J13.699085
G02 X96.859629 Y123.268491 Z-0.125000 I-0.822135 J14.281376
G02 X95.654991 Y123.322225 Z-0.125000 I0.000000 J13.530101
G02 X94.633102 Y123.467518 Z-0.125000 I0.882630 J9.874044
G02 X93.652617 Y123.744489 Z-0.125000 I0.992661 J5.388009
G02 X92.874248 Y124.146534 Z-0.125000 I1.458858 J3.778878
G02 X92.200969 Y124.697556 Z-0.125000 I2.574142 J3.832119
G02 X91.644067 Y125.364089 Z-0.125000 I3.236591 J3.270154
G02 X91.219774 Y126.135116 Z-0.125000 I4.013775 J2.711025
G02 X90.881548 Y127.108477 Z-0.125000 I6.084479 J2.659689
G02 X90.691990 Y128.123326 Z-0.125000 I7.998578 J2.019145
G02 X90.627389 Y129.180670 Z-0.125000 I8.620645 J1.057344
G02 X90.757096 Y130.656383 Z-0.125000 I8.459615 J-0.000000
G02 X91.145899 Y132.107489 Z-0.125000 I8.566469 J-1.517622
