%
(Header)
(Generated by gcodetools from Inkscape.)
(Using default header. To add your own header create file "header" in the output dir.)
M3
(Header end.)
G21 (All units in mm)

(Start cutting path id: path92)
(ZZZanette)
(Change tool to Default tool)

G00 Z5.000000
G00 X41.158580 Y117.555746

G01 Z-0.125000 F100.0(Penetrate)
G01 X41.614972 Y119.591931 Z-0.125000 F400.000000
G01 X41.912204 Y119.536249 Z-0.125000
G03 X41.897388 Y118.606522 Z-0.125000 I5.086790 J-0.546043
G01 X42.260724 Y118.213039 Z-0.125000
G01 X42.781661 Y118.420113 Z-0.125000
G03 X43.333760 Y119.295113 Z-0.125000 I-4.242582 J3.288622
G01 X43.571989 Y119.233712 Z-0.125000
G01 X42.832352 Y117.267362 Z-0.125000
G01 X42.496604 Y117.321873 Z-0.125000
G03 X42.503008 Y117.690215 Z-0.125000 I-2.321002 J0.224577
G01 X42.210214 Y118.021267 Z-0.125000
G01 X41.741894 Y117.815831 Z-0.125000
G03 X41.545898 Y117.483224 Z-0.125000 I5.984571 J-3.750582
G01 X41.158590 Y117.555778 Z-0.125000
G01 X41.158580 Y117.555746 Z-0.125000
G00 Z5.000000

(End cutting path id: path92)


(Start cutting path id: path90)
(ZZZanette)
(Change tool to Default tool)

G00 Z5.000000
G00 X40.999695 Y119.556859

G01 Z-0.125000 F100.0(Penetrate)
G01 X41.337673 Y119.857584 Z-0.125000 F400.000000
G01 X41.628406 Y119.911776 Z-0.125000
G02 X42.735998 Y119.721206 Z-0.125000 I-2.399914 J-17.262254
G02 X43.806103 Y119.442678 Z-0.125000 I-2.141024 J-10.420764
G01 X44.070071 Y119.215095 Z-0.125000
G01 X44.137013 Y118.861815 Z-0.125000
G02 X43.932225 Y118.137161 Z-0.125000 I-5.207299 J1.080325
G02 X43.655742 Y117.388712 Z-0.125000 I-49.490411 J17.856860
G02 X43.367585 Y117.030163 Z-0.125000 I-0.903595 J0.431132
G01 X43.035223 Y116.926282 Z-0.125000
G02 X41.863344 Y117.148871 Z-0.125000 I3.849096 J23.460742
G02 X40.992755 Y117.356638 Z-0.125000 I4.401583 J20.371473
G01 X40.676137 Y117.637225 Z-0.125000
G01 X40.621299 Y117.898159 Z-0.125000
G02 X40.769800 Y118.736963 Z-0.125000 I8.943942 J-1.150878
G02 X40.999725 Y119.556860 Z-0.125000 I8.156259 J-1.845089
G01 X40.999695 Y119.556859 Z-0.125000
G00 Z5.000000

(End cutting path id: path90)


(Start cutting path id: path34)
(ZZZanette)
(Change tool to Default tool)

G00 Z5.000000
G00 X33.877133 Y114.813587

G01 Z-0.125000 F100.0(Penetrate)
G03 X39.683421 Y113.519553 Z-0.125000 I16.703934 J61.276653 F400.000000
G02 X45.799804 Y112.381571 Z-0.125000 I-46.349538 J-266.123760
G02 X46.348683 Y112.098340 Z-0.125000 I-0.272773 J-1.202071
G02 X46.689567 Y111.373186 Z-0.125000 I-0.682969 J-0.763752
G01 X46.986163 Y103.780484 Z-0.125000
G01 X46.878456 Y103.326418 Z-0.125000
G01 X46.116166 Y103.009371 Z-0.125000
G02 X40.306285 Y104.392332 Z-0.125000 I22.744005 J108.443821
G02 X34.213094 Y106.153119 Z-0.125000 I39.534725 J148.232774
G02 X33.797264 Y106.388125 Z-0.125000 I0.388650 J1.173089
G02 X33.382656 Y107.201063 Z-0.125000 I0.780712 J0.910370
G02 X33.098521 Y110.597151 Z-0.125000 I68.106136 J7.408051
G03 X32.848815 Y114.062212 Z-0.125000 I-129.952927 J-7.623400
G01 X33.002947 Y114.509929 Z-0.125000
G01 X33.876965 Y114.813559 Z-0.125000
G01 X33.877133 Y114.813587 Z-0.125000
G00 Z5.000000

(End cutting path id: path34)


(Start cutting path id: path30)
(ZZZanette)
(Change tool to Default tool)

G00 Z5.000000
G00 X33.260202 Y107.819944

G01 Z-0.125000 F100.0(Penetrate)
G02 X31.801208 Y108.376219 Z-0.125000 I19.467778 J53.251383 F400.000000
G02 X30.340927 Y109.098761 Z-0.125000 I3.695712 J9.306066
G00 Z5.000000

(End cutting path id: path30)


(Start cutting path id: path50)
(ZZZanette)
(Change tool to Default tool)

G00 Z5.000000
G00 X28.361785 Y119.617819

G01 Z-0.125000 F100.0(Penetrate)
G02 X28.012730 Y120.704722 Z-0.125000 I9.715922 J3.719735 F400.000000
G02 X27.689529 Y122.227783 Z-0.125000 I16.116710 J4.215867
G02 X27.751535 Y124.154641 Z-0.125000 I8.766128 J0.682336
G02 X28.203604 Y126.538153 Z-0.125000 I26.446180 J-3.781294
G02 X28.681636 Y127.704692 Z-0.125000 I4.053861 J-0.980003
G02 X29.548117 Y128.989935 Z-0.125000 I12.650803 J-7.594175
G02 X31.128233 Y130.525524 Z-0.125000 I15.296189 J-14.158969
G03 X32.355905 Y131.599899 Z-0.125000 I-793.414601 J907.861217
G01 X32.864308 Y131.581287 Z-0.125000
G01 X32.949071 Y131.283536 Z-0.125000
G02 X32.200988 Y129.075243 Z-0.125000 I-110.883949 J36.332264
G02 X31.209105 Y126.379916 Z-0.125000 I-84.705581 J29.641573
G03 X29.461102 Y122.462758 Z-0.125000 I51.935485 J-25.524430
G03 X27.729116 Y117.719700 Z-0.125000 I71.996854 J-28.978288
G02 X26.678066 Y117.150416 Z-0.125000 I-0.969025 J0.534177
G01 X26.226422 Y117.521976 Z-0.125000
G02 X25.733489 Y119.661021 Z-0.125000 I5.155965 J2.314487
G02 X25.811203 Y122.049881 Z-0.125000 I18.803347 J0.583988
G00 Z5.000000

(End cutting path id: path50)


(Start cutting path id: path48)
(ZZZanette)
(Change tool to Default tool)

G00 Z5.000000
G00 X31.167054 Y126.339825

G01 Z-0.125000 F100.0(Penetrate)
G02 X32.278912 Y126.104067 Z-0.125000 I-0.515131 J-5.169110 F400.000000
G02 X34.093268 Y125.351205 Z-0.125000 I-4.118379 J-12.487740
G00 Z5.000000

(End cutting path id: path48)


(Start cutting path id: path24)
(ZZZanette)
(Change tool to Default tool)

G00 Z5.000000
G00 X47.443127 Y107.094281

G01 Z-0.125000 F100.0(Penetrate)
G03 X48.008161 Y106.986578 Z-0.125000 I4.638967 J22.801036 F400.000000
G02 X53.572438 Y105.888631 Z-0.125000 I-26.376750 J-148.323028
G02 X58.884353 Y104.603549 Z-0.125000 I-24.426510 J-112.588581
G02 X59.717686 Y103.958795 Z-0.125000 I-0.351354 J-1.315030
G02 X59.928503 Y103.129637 Z-0.125000 I-2.281182 J-1.021381
G02 X59.915410 Y101.942025 Z-0.125000 I-6.736273 J-0.519610
G02 X59.524772 Y99.201026 Z-0.125000 I-43.440600 J4.792671
G02 X58.847700 Y96.880220 Z-0.125000 I-10.785919 J1.887518
G02 X57.931458 Y95.788515 Z-0.125000 I-2.994716 J1.583051
G02 X56.593659 Y95.140260 Z-0.125000 I-2.194275 J2.823779
G02 X54.247571 Y95.161469 Z-0.125000 I-1.064153 J12.055678
G02 X51.887695 Y95.496150 Z-0.125000 I3.632289 J34.098966
G02 X40.830136 Y97.889776 Z-0.125000 I19.476902 J116.712711
G02 X32.668807 Y100.478722 Z-0.125000 I23.933674 J89.606157
G02 X31.088202 Y101.281517 Z-0.125000 I3.290423 J8.435849
G02 X29.495943 Y102.614142 Z-0.125000 I4.345886 J6.810140
G02 X28.342974 Y104.193189 Z-0.125000 I6.298739 J5.809586
G02 X27.488356 Y105.935949 Z-0.125000 I13.975336 J7.934181
G02 X27.044725 Y107.617332 Z-0.125000 I13.700100 J4.513978
G02 X26.776540 Y109.534643 Z-0.125000 I16.183168 J3.241037
G02 X26.689022 Y110.670926 Z-0.125000 I104.249379 J8.600941
G02 X26.638133 Y111.650297 Z-0.125000 I25.073179 J1.793830
G01 X27.082985 Y112.249706 Z-0.125000
G01 X27.606986 Y112.263229 Z-0.125000
G01 X27.608686 Y112.263089 Z-0.125000
G03 X30.312668 Y111.333613 Z-0.125000 I8.221303 J19.519100
G02 X33.103819 Y110.566271 Z-0.125000 I-79.333678 J-294.030480
G00 Z5.000000

(End cutting path id: path24)


(Start cutting path id: path32)
(ZZZanette)
(Change tool to Default tool)

G00 Z5.000000
G00 X46.828402 Y103.043779

G01 Z-0.125000 F100.0(Penetrate)
G01 X47.340826 Y103.401689 Z-0.125000 F400.000000
G01 X47.478275 Y103.693803 Z-0.125000
G03 X47.467415 Y104.102950 Z-0.125000 I-2.755647 J0.131576
G01 X47.170818 Y111.695652 Z-0.125000
G03 X46.817221 Y112.424761 Z-0.125000 I-1.006757 J-0.037952
G03 X46.281056 Y112.704037 Z-0.125000 I-0.877736 J-1.030801
G03 X40.164676 Y113.842008 Z-0.125000 I-52.458097 J-264.946261
G02 X34.358385 Y115.136053 Z-0.125000 I10.896239 J62.563875
G03 X33.902325 Y115.176335 Z-0.125000 I-0.451647 J-2.511560
G01 X33.672886 Y115.142772 Z-0.125000
G01 X33.047104 Y114.763977 Z-0.125000
G00 Z5.000000

(End cutting path id: path32)


(Start cutting path id: path30)
(ZZZanette)
(Change tool to Default tool)

G00 Z5.000000
G00 X59.936452 Y102.226276

G01 Z-0.125000 F100.0(Penetrate)
G03 X57.867413 Y102.182218 Z-0.125000 I0.599935 J-76.779126 F400.000000
G02 X55.945360 Y102.307396 Z-0.125000 I-0.335985 J9.659833
G02 X51.645862 Y103.029832 Z-0.125000 I15.995190 J108.348884
G02 X47.453911 Y103.946589 Z-0.125000 I13.745445 J72.894615
G00 Z5.000000

(End cutting path id: path30)


(Start cutting path id: path28)
(ZZZanette)
(Change tool to Default tool)

G00 Z5.000000
G00 X59.757274 Y100.510078

G01 Z-0.125000 F100.0(Penetrate)
G02 X59.173099 Y100.122281 Z-0.125000 I-4.241941 J5.756134 F400.000000
G02 X58.374573 Y99.846360 Z-0.125000 I-1.065137 J1.789104
G02 X55.901916 Y99.867618 Z-0.125000 I-1.121325 J13.387604
G02 X53.416359 Y100.202199 Z-0.125000 I3.817335 J37.758167
G02 X41.811730 Y102.591719 Z-0.125000 I20.142984 J127.197304
G02 X33.206389 Y105.183930 Z-0.125000 I25.475328 J100.149864
G02 X32.275014 Y105.572204 Z-0.125000 I2.826471 J8.091219
G02 X31.345729 Y106.080048 Z-0.125000 I5.019661 J10.289452
G00 Z5.000000

(End cutting path id: path28)


(Start cutting path id: path26)
(ZZZanette)
(Change tool to Default tool)

G00 Z5.000000
G00 X59.345722 Y98.432720

G01 Z-0.125000 F100.0(Penetrate)
G02 X58.654519 Y98.000963 Z-0.125000 I-2.092589 J2.580889 F400.000000
G02 X57.931721 Y97.778250 Z-0.125000 I-1.172125 J2.519790
G02 X55.856166 Y97.702331 Z-0.125000 I-1.791436 J20.566436
G02 X53.498726 Y97.922570 Z-0.125000 I0.205444 J14.926232
G02 X43.177057 Y100.116555 Z-0.125000 I18.147357 J110.751086
G02 X35.565726 Y102.487711 Z-0.125000 I22.217610 J84.719419
G02 X33.960608 Y103.268236 Z-0.125000 I5.236290 J12.808917
G02 X32.466772 Y104.444204 Z-0.125000 I3.149997 J5.538245
G02 X31.469338 Y105.846764 Z-0.125000 I4.627128 J4.346538
G02 X30.731873 Y107.487724 Z-0.125000 I13.326229 J6.975142
G02 X30.344722 Y109.156987 Z-0.125000 I12.477642 J3.773462
G02 X30.218162 Y110.570160 Z-0.125000 I9.624328 J1.574180
G02 X30.373422 Y111.079962 Z-0.125000 I1.115491 J-0.061179
G01 X30.570472 Y111.231750 Z-0.125000
G00 Z5.000000

(End cutting path id: path26)


(Start cutting path id: path40)
(ZZZanette)
(Change tool to Default tool)

G00 Z5.000000
G00 X64.446719 Y100.434487

G01 Z-0.125000 F100.0(Penetrate)
G02 X66.124919 Y100.795983 Z-0.125000 I2.594089 J-7.966564 F400.000000
G02 X67.466722 Y100.937812 Z-0.125000 I17.446884 J-158.642132
G03 X74.146919 Y100.873860 Z-0.125000 I4.636766 J135.412348
G02 X80.720915 Y100.965782 Z-0.125000 I45.056993 J-2987.208634
G02 X81.794617 Y100.552868 Z-0.125000 I0.015700 J-1.561609
G01 X82.007195 Y99.959130 Z-0.125000
G02 X81.111996 Y97.604721 Z-0.125000 I-8.098360 J1.731787
G02 X80.049834 Y95.932650 Z-0.125000 I-17.266255 J9.794769
G02 X79.028995 Y95.216446 Z-0.125000 I-2.314367 J2.213148
G02 X77.756906 Y94.814150 Z-0.125000 I-2.465169 J5.582677
G02 X70.609157 Y94.345094 Z-0.125000 I-19.214259 J238.102916
G02 X63.971335 Y94.478610 Z-0.125000 I-2.375529 J46.967578
G00 Z5.000000

(End cutting path id: path40)


(Start cutting path id: path42)
(ZZZanette)
(Change tool to Default tool)

G00 Z5.000000
G00 X75.301036 Y100.893633

G01 Z-0.125000 F100.0(Penetrate)
G03 X74.696225 Y99.788023 Z-0.125000 I1.190863 J-1.369680 F400.000000
G02 X74.272885 Y98.105720 Z-0.125000 I-8.552121 J1.257665
G01 X74.500575 Y97.069417 Z-0.125000
G01 X75.063792 Y96.820510 Z-0.125000
G03 X78.492166 Y96.805598 Z-0.125000 I1.839974 J28.910770
G03 X80.857147 Y97.176400 Z-0.125000 I-0.653057 J11.892531
G00 Z5.000000

(End cutting path id: path42)


(Start cutting path id: path38)
(ZZZanette)
(Change tool to Default tool)

G00 Z5.000000
G00 X85.556223 Y112.319082

G01 Z-0.125000 F100.0(Penetrate)
G03 X87.020249 Y112.324334 Z-0.125000 I0.296733 J121.333358 F400.000000
G03 X88.799920 Y112.458895 Z-0.125000 I-0.130477 J13.561706
G02 X90.409128 Y112.622720 Z-0.125000 I1.652109 J-8.242900
G02 X91.735933 Y112.570744 Z-0.125000 I0.076579 J-15.006023
G02 X92.717259 Y112.438353 Z-0.125000 I-0.527233 J-7.611160
G02 X93.525537 Y112.151298 Z-0.125000 I-0.598324 J-2.966227
G01 X93.666343 Y111.817604 Z-0.125000
G01 X93.413688 Y111.368343 Z-0.125000
G02 X92.556766 Y111.031189 Z-0.125000 I-1.289830 J2.020710
G03 X91.765187 Y110.882544 Z-0.125000 I17.990302 J-97.985456
G02 X89.652922 Y110.750710 Z-0.125000 I-2.276451 J19.486187
G02 X88.001032 Y110.745114 Z-0.125000 I-1.387603 J165.799899
G03 X83.960160 Y110.533499 Z-0.125000 I-0.102461 J-36.730303
G03 X79.285382 Y110.012553 Z-0.125000 I71.065710 J-658.952831
G02 X71.239043 Y109.225051 Z-0.125000 I-11.477928 J75.775579
G02 X64.404861 Y108.984402 Z-0.125000 I-15.960359 J356.095719
G03 X60.754466 Y108.858161 Z-0.125000 I-0.382514 J-41.779925
G02 X58.729932 Y110.131203 Z-0.125000 I-0.156685 J1.997164
G02 X58.768869 Y110.950198 Z-0.125000 I1.054171 J0.360305
G02 X59.906577 Y112.446165 Z-0.125000 I3.824333 J-1.727862
G02 X62.872770 Y114.694341 Z-0.125000 I29.155543 J-35.386316
G02 X66.457803 Y116.932914 Z-0.125000 I24.260088 J-34.862114
G02 X68.541258 Y118.056551 Z-0.125000 I12.243193 J-20.208011
G03 X70.791970 Y119.141937 Z-0.125000 I-110.735578 J232.503262
G02 X73.727798 Y120.059749 Z-0.125000 I4.479175 J-9.173285
G03 X76.384309 Y120.540064 Z-0.125000 I-7.528610 J49.225456
G02 X80.946815 Y121.348618 Z-0.125000 I15.501226 J-74.193373
G02 X83.682486 Y121.714469 Z-0.125000 I16.765000 J-114.950133
G02 X86.827497 Y122.047837 Z-0.125000 I12.353417 J-101.540952
G02 X90.337579 Y122.133915 Z-0.125000 I2.409912 J-26.661312
G02 X91.196766 Y121.776812 Z-0.125000 I0.043902 J-1.106523
G01 X91.358199 Y121.378929 Z-0.125000
G02 X91.113067 Y120.236093 Z-0.125000 I-6.208910 J0.734071
G02 X90.784966 Y119.505446 Z-0.125000 I-3.267828 J1.028443
G02 X88.626898 Y116.608848 Z-0.125000 I-35.123621 J23.916122
G02 X86.227105 Y113.829117 Z-0.125000 I-48.551309 J39.489482
G02 X84.938219 Y112.865745 Z-0.125000 I-5.033686 J5.390638
G02 X83.151109 Y112.235266 Z-0.125000 I-2.503176 J4.247277
G02 X73.498948 Y111.419820 Z-0.125000 I-21.556400 J197.623488
G02 X64.108600 Y111.172707 Z-0.125000 I-8.370188 J139.527708
G02 X63.114681 Y111.324010 Z-0.125000 I0.781690 J8.475186
G01 X62.514749 Y112.095478 Z-0.125000
G02 X62.914836 Y113.229938 Z-0.125000 I2.557463 J-0.264155
G02 X63.493429 Y114.108776 Z-0.125000 I62.567826 J-40.562374
G02 X64.407919 Y115.246455 Z-0.125000 I13.080018 J-9.577600
G02 X65.269035 Y116.219951 Z-0.125000 I230.079122 J-202.651450
G00 Z5.000000

(End cutting path id: path38)


(Start cutting path id: path88)
(ZZZanette)
(Change tool to Default tool)

G00 Z5.000000
G00 X65.633779 Y119.228665

G01 Z-0.125000 F100.0(Penetrate)
G03 X67.861744 Y119.075867 Z-0.125000 I2.146982 J14.985930 F400.000000
G02 X69.631986 Y118.580290 Z-0.125000 I0.017897 J-3.345584
G00 Z5.000000

(End cutting path id: path88)


(Start cutting path id: path60)
(ZZZanette)
(Change tool to Default tool)

G00 Z5.000000
G00 X72.758936 Y146.825003

G01 Z-0.125000 F100.0(Penetrate)
G03 X74.549179 Y148.987380 Z-0.125000 I-20.936721 J19.155877 F400.000000
G02 X79.331159 Y154.723429 Z-0.125000 I56.561676 J-42.292532
G02 X82.383174 Y158.106654 Z-0.125000 I157.455059 J-138.972366
G02 X85.359407 Y161.037242 Z-0.125000 I31.800754 J-29.319468
G02 X87.063318 Y162.447005 Z-0.125000 I26.672475 J-30.503103
G02 X89.490878 Y163.346941 Z-0.125000 I2.623800 J-3.353537
G02 X92.901554 Y163.409557 Z-0.125000 I2.833501 J-61.419284
G02 X96.246759 Y163.316251 Z-0.125000 I-0.849194 J-90.457935
G02 X108.735265 Y162.608339 Z-0.125000 I-28.324158 J-610.186221
G02 X119.760900 Y161.488291 Z-0.125000 I-10.772356 J-160.869616
G02 X122.631460 Y161.015541 Z-0.125000 I-7.123553 J-52.205967
G02 X125.335600 Y160.431584 Z-0.125000 I-12.009642 J-62.166337
G02 X127.155476 Y159.521205 Z-0.125000 I-1.030641 J-4.334467
G02 X128.022300 Y157.645353 Z-0.125000 I-1.539944 J-1.849807
G02 X127.701899 Y153.879430 Z-0.125000 I-24.132920 J0.156616
G03 X127.101580 Y150.047331 Z-0.125000 I243.236704 J-40.067392
G02 X126.432699 Y146.388109 Z-0.125000 I-95.959794 J15.650058
G03 X125.764290 Y143.050679 Z-0.125000 I735.907933 J-149.120745
G02 X125.101676 Y141.683212 Z-0.125000 I-3.006492 J0.612543
G02 X124.394830 Y141.091470 Z-0.125000 I-2.052960 J1.734255
G00 Z5.000000

(End cutting path id: path60)


(Start cutting path id: path44)
(ZZZanette)
(Change tool to Default tool)

G00 Z5.000000
G00 X126.633440 Y141.373132

G01 Z-0.125000 F100.0(Penetrate)
G03 X127.872297 Y141.721115 Z-0.125000 I-2.831075 J12.458145 F400.000000
G03 X132.227950 Y143.266019 Z-0.125000 I-44.268296 J131.721190
G00 Z5.000000

(End cutting path id: path44)


(Start cutting path id: path66)
(ZZZanette)
(Change tool to Default tool)

G00 Z5.000000
G00 X131.927140 Y142.239145

G01 Z-0.125000 F100.0(Penetrate)
G01 X132.309316 Y141.902501 Z-0.125000 F400.000000
G03 X133.741251 Y141.558976 Z-0.125000 I2.516194 J7.332210
G03 X135.175913 Y141.499787 Z-0.125000 I1.014991 J7.185369
G01 X135.762970 Y141.784367 Z-0.125000
G00 Z5.000000

(End cutting path id: path66)


(Start cutting path id: path64)
(ZZZanette)
(Change tool to Default tool)

G00 Z5.000000
G00 X130.742880 Y140.536946

G01 Z-0.125000 F100.0(Penetrate)
G01 X130.964620 Y139.814231 Z-0.125000 F400.000000
G02 X131.454700 Y139.271524 Z-0.125000 I-1.583326 J-1.922420
G03 X132.903304 Y138.215885 Z-0.125000 I2.324799 J1.668470
G03 X133.748300 Y138.164283 Z-0.125000 I0.523459 J1.627444
G03 X134.364989 Y138.534217 Z-0.125000 I-1.613885 J3.389371
G03 X135.092810 Y139.627446 Z-0.125000 I-1.146798 J1.552374
G03 X135.545319 Y141.057367 Z-0.125000 I-25.543293 J8.869925
G03 X135.923250 Y142.553660 Z-0.125000 I-23.671202 J6.774703
G03 X140.123658 Y143.171647 Z-0.125000 I-0.499391 J17.978244
G03 X142.448160 Y143.977263 Z-0.125000 I-4.646286 J17.162590
G03 X143.366757 Y144.995259 Z-0.125000 I-0.639552 J1.500555
G03 X143.080880 Y147.140889 Z-0.125000 I-2.465046 J0.763425
G03 X140.867855 Y148.916681 Z-0.125000 I-3.704554 J-2.349833
G03 X139.363760 Y149.197218 Z-0.125000 I-1.607570 J-4.446597
G02 X135.962548 Y149.400413 Z-0.125000 I0.427261 J35.719288
G03 X134.104300 Y148.445871 Z-0.125000 I-0.203682 J-1.889521
G03 X132.294376 Y143.433070 Z-0.125000 I12.123007 J-7.210286
G02 X131.889790 Y142.118619 Z-0.125000 I-4.794071 J0.756115
G02 X131.173826 Y141.176793 Z-0.125000 I-6.299587 J4.045820
G03 X130.742990 Y140.536834 Z-0.125000 I2.113281 J-1.887716
G01 X130.742880 Y140.536946 Z-0.125000
G00 Z5.000000

(End cutting path id: path64)


(Start cutting path id: path44)
(ZZZanette)
(Change tool to Default tool)

G00 Z5.000000
G00 X120.244120 Y141.024089

G01 Z-0.125000 F100.0(Penetrate)
G02 X118.578355 Y139.731643 Z-0.125000 I-6.016914 J6.035201 F400.000000
G02 X115.784250 Y138.437558 Z-0.125000 I-7.711530 J12.986767
G02 X112.638466 Y137.294658 Z-0.125000 I-27.258337 J70.126621
G03 X107.619290 Y135.585256 Z-0.125000 I422.065359 J-1247.499437
G03 X102.003634 Y133.670884 Z-0.125000 I764.035578 J-2250.430157
G03 X96.159410 Y131.660680 Z-0.125000 I669.320102 J-1955.401115
G02 X90.808866 Y129.835949 Z-0.125000 I-188.821385 J544.912098
G03 X86.052325 Y128.105100 Z-0.125000 I31.919599 J-95.119312
G02 X80.538846 Y125.931500 Z-0.125000 I-559.327932 J1410.692458
G03 X75.210887 Y123.701221 Z-0.125000 I46.101251 J-117.611398
G03 X70.930227 Y121.746221 Z-0.125000 I58.887817 J-134.604471
G03 X66.290861 Y119.534753 Z-0.125000 I2893.163403 J-6075.444887
G02 X64.343567 Y118.802982 Z-0.125000 I-4.010844 J7.716307
G02 X61.145909 Y118.667920 Z-0.125000 I-1.936548 J7.928137
G02 X59.725430 Y118.851670 Z-0.125000 I70.263364 J548.752437
G02 X57.259129 Y119.227154 Z-0.125000 I7.643279 J58.491055
G02 X50.766879 Y120.232200 Z-0.125000 I46.803717 J323.807157
G02 X45.011697 Y121.324330 Z-0.125000 I19.959527 J120.890523
G03 X39.039603 Y122.545727 Z-0.125000 I-96.556427 J-456.907175
G02 X34.721514 Y123.617258 Z-0.125000 I8.987848 J45.455871
G02 X34.025387 Y124.489537 Z-0.125000 I0.629352 J1.216171
G02 X34.106342 Y125.406863 Z-0.125000 I1.329414 J0.344913
G02 X35.311549 Y126.946759 Z-0.125000 I28.230713 J-20.853324
G02 X37.070352 Y128.762266 Z-0.125000 I12.553857 J-10.402073
G02 X38.685341 Y130.110852 Z-0.125000 I75.382714 J-88.632728
G02 X41.096836 Y131.893976 Z-0.125000 I19.020330 J-23.200855
G02 X43.341967 Y133.441459 Z-0.125000 I37.371463 J-51.817177
G02 X45.654697 Y134.941976 Z-0.125000 I114.765210 J-174.353714
G02 X47.830310 Y136.260836 Z-0.125000 I17.341513 J-26.152947
G02 X49.932871 Y137.374692 Z-0.125000 I33.341501 J-60.395446
G02 X53.187584 Y139.070723 Z-0.125000 I57.706785 J-106.769357
G02 X56.084584 Y140.506402 Z-0.125000 I140.466095 J-279.800361
G02 X59.902776 Y142.262065 Z-0.125000 I28.550088 J-57.060634
G03 X63.774155 Y143.917798 Z-0.125000 I-133.881752 J318.391633
G02 X69.812006 Y146.033336 Z-0.125000 I87.783632 J-240.864975
G03 X71.867718 Y147.164015 Z-0.125000 I-2.108782 J6.268126
G03 X73.313408 Y146.642852 Z-0.125000 I2.095507 J3.547145
G03 X74.987109 Y146.434309 Z-0.125000 I3.864394 J24.193796
G01 X91.960382 Y144.169349 Z-0.125000
G01 X105.577970 Y142.491619 Z-0.125000
G03 X111.745881 Y141.799677 Z-0.125000 I19.989063 J150.344632
G03 X117.378020 Y141.289245 Z-0.125000 I295.157687 J3225.462390
G03 X119.913353 Y141.066844 Z-0.125000 I4.481456 J36.525442
G03 X122.550970 Y141.009623 Z-0.125000 I2.234967 J42.201963
G03 X124.585184 Y141.106999 Z-0.125000 I-0.066694 J22.689654
G03 X126.633440 Y141.373132 Z-0.125000 I-2.621699 J28.192652
G00 Z5.000000

(End cutting path id: path44)


(Start cutting path id: path46)
(ZZZanette)
(Change tool to Default tool)

G00 Z5.000000
G00 X115.770250 Y138.451193

G01 Z-0.125000 F100.0(Penetrate)
G01 X115.774586 Y138.455450 Z-0.125000 F400.000000
G01 X115.775500 Y138.456443 Z-0.125000
G01 X115.770250 Y138.451193 Z-0.125000
G01 X115.770250 Y138.451193 Z-0.125000
G00 Z5.000000

(End cutting path id: path46)


(Start cutting path id: path18)
(ZZZanette)
(Change tool to Default tool)

G00 Z5.000000
G00 X103.625290 Y122.241109

G01 Z-0.125000 F100.0(Penetrate)
G02 X105.959879 Y121.812624 Z-0.125000 I-4.096759 J-28.895279 F400.000000
G02 X108.267140 Y121.059117 Z-0.125000 I-2.865514 J-12.683497
G02 X112.700507 Y116.038931 Z-0.125000 I-3.521687 J-7.577694
G02 X113.678060 Y104.025651 Z-0.125000 I-25.180589 J-8.095426
G02 X108.076236 Y90.245444 Z-0.125000 I-31.297501 J4.694112
G02 X101.187620 Y86.713900 Z-0.125000 I-6.888616 J4.952681
G02 X93.636088 Y87.649523 Z-0.125000 I-1.348551 J20.058168
G02 X91.059253 Y88.799090 Z-0.125000 I4.116431 J12.690131
G02 X89.099109 Y90.339289 Z-0.125000 I4.082424 J7.212916
G02 X87.783080 Y92.248560 Z-0.125000 I5.643866 J5.298418
G00 Z5.000000

(End cutting path id: path18)


(Start cutting path id: path16)
(ZZZanette)
(Change tool to Default tool)

G00 Z5.000000
G00 X102.387830 Y87.136060

G01 Z-0.125000 F100.0(Penetrate)
G02 X102.108229 Y87.114482 Z-0.125000 I-0.567180 J5.527180 F400.000000
G02 X101.829330 Y87.107260 Z-0.125000 I-0.278899 J5.381287
G02 X96.575054 Y90.595302 Z-0.125000 I0.000000 J5.701459
G02 X94.842753 Y104.140166 Z-0.125000 I23.462827 J9.883951
G02 X100.682868 Y118.073136 Z-0.125000 I29.907931 J-4.345696
G02 X106.709430 Y121.063046 Z-0.125000 I6.025168 J-4.575905
G02 X106.993971 Y121.055367 Z-0.125000 I-0.001120 J-5.316828
G02 X107.270820 Y121.032986 Z-0.125000 I-0.277292 J-5.153618
G00 Z5.000000

(End cutting path id: path16)


(Start cutting path id: path2)
(ZZZanette)
(Change tool to Default tool)

G00 Z5.000000
G00 X111.089200 Y103.869681

G01 Z-0.125000 F100.0(Penetrate)
G02 X107.333875 Y94.437679 Z-0.125000 I-21.630036 J3.148351 F400.000000
G02 X103.046040 Y92.212140 Z-0.125000 I-4.287835 J3.017810
G02 X99.449761 Y94.674251 Z-0.125000 I0.000000 J3.857506
G02 X98.408104 Y103.869681 Z-0.125000 I16.950097 J6.576818
G02 X102.323713 Y113.287020 Z-0.125000 I20.436119 J-2.974377
G02 X106.197620 Y115.398998 Z-0.125000 I4.251028 J-3.188614
G02 X109.982860 Y113.038605 Z-0.125000 I0.268931 J-3.784023
G02 X111.089200 Y103.869681 Z-0.125000 I-16.365809 J-6.625939
G01 X111.089200 Y103.869681 Z-0.125000
G00 Z5.000000

(End cutting path id: path2)


(Start cutting path id: path4)
(ZZZanette)
(Change tool to Default tool)

G00 Z5.000000
G00 X111.581950 Y103.830486

G01 Z-0.125000 F100.0(Penetrate)
G02 X107.648689 Y94.103173 Z-0.125000 I-22.168706 J3.305098 F400.000000
G02 X102.826260 Y91.622250 Z-0.125000 I-4.822429 J3.446468
G02 X98.938238 Y94.177530 Z-0.125000 I0.000000 J4.235578
G02 X97.671231 Y103.870241 Z-0.125000 I16.351219 J7.066555
G02 X101.744928 Y113.658337 Z-0.125000 I21.494271 J-3.203915
G02 X106.426920 Y116.039002 Z-0.125000 I4.745976 J-3.539480
G02 X110.373330 Y113.448223 Z-0.125000 I0.046304 J-4.230546
G02 X111.581950 Y103.830766 Z-0.125000 I-16.570995 J-6.967138
G01 X111.581950 Y103.830486 Z-0.125000
G00 Z5.000000

(End cutting path id: path4)


(Start cutting path id: path22)
(ZZZanette)
(Change tool to Default tool)

G00 Z5.000000
G00 X113.020980 Y100.624865

G01 Z-0.125000 F100.0(Penetrate)
G03 X113.575754 Y101.155263 Z-0.125000 I-4.035907 J4.776730 F400.000000
G03 X114.103080 Y101.878921 Z-0.125000 I-2.822066 J2.610381
G03 X115.197525 Y104.949189 Z-0.125000 I-11.953945 J5.991369
G03 X115.710980 Y108.165297 Z-0.125000 I-25.679712 J5.748836
G03 X113.901024 Y120.482935 Z-0.125000 I-26.029772 J2.466976
G03 X108.368290 Y124.017863 Z-0.125000 I-5.263339 J-2.140700
G03 X102.017697 Y121.385754 Z-0.125000 I0.481389 J-10.138683
G03 X95.998793 Y112.708320 Z-0.125000 I15.862619 J-17.428899
G03 X92.569298 Y101.709931 Z-0.125000 I68.922478 J-27.525152
G03 X91.773532 Y97.196470 Z-0.125000 I44.651225 J-10.199311
G03 X91.591489 Y95.647037 Z-0.125000 I103.781946 J-12.978730
G02 X91.376343 Y94.033410 Z-0.125000 I-35.098443 J3.858553
G02 X90.817480 Y92.935947 Z-0.125000 I-1.748564 J0.199397
G02 X88.627992 Y92.214350 Z-0.125000 I-1.894140 J2.064750
G03 X81.382154 Y92.257068 Z-0.125000 I-3.838045 J-36.468217
G02 X76.349204 Y91.818900 Z-0.125000 I-37.706626 J403.987037
G02 X68.905517 Y91.405149 Z-0.125000 I-14.410917 J192.097507
G02 X61.618745 Y91.542080 Z-0.125000 I-2.399021 J66.287256
G02 X59.445949 Y91.728075 Z-0.125000 I3.027297 J48.149304
G02 X55.904621 Y92.214340 Z-0.125000 I6.769420 J62.438075
G02 X52.329871 Y92.903227 Z-0.125000 I8.533484 J53.901126
G02 X48.811660 Y93.710260 Z-0.125000 I228.822565 J1005.609983
G02 X40.242660 Y95.828555 Z-0.125000 I42.386265 J189.853317
G02 X31.367482 Y98.730350 Z-0.125000 I24.006692 J88.448109
G02 X29.005786 Y99.960522 Z-0.125000 I4.005205 J10.571319
G02 X27.760389 Y101.079184 Z-0.125000 I3.539845 J5.193455
G02 X26.479895 Y103.476333 Z-0.125000 I2.795392 J3.033802
G02 X26.362262 Y104.714274 Z-0.125000 I10.209088 J1.594660
G02 X26.362608 Y105.515815 Z-0.125000 I1.752555 J0.400013
G01 X26.557998 Y105.804801 Z-0.125000
G03 X26.566799 Y106.477523 Z-0.125000 I-1.376071 J0.354421
G02 X26.418185 Y107.146991 Z-0.125000 I44.724629 J10.279561
G01 X25.914861 Y109.607676 Z-0.125000
G03 X25.639115 Y110.509238 Z-0.125000 I-7.420156 J-1.776534
G03 X25.355599 Y111.117649 Z-0.125000 I-4.062514 J-1.522842
G02 X25.015828 Y114.640488 Z-0.125000 I21.754794 J3.876012
G02 X25.103937 Y118.220129 Z-0.125000 I44.112595 J0.705123
G02 X26.994126 Y125.148108 Z-0.125000 I21.532894 J-2.153064
G02 X29.836497 Y130.204392 Z-0.125000 I33.325525 J-15.406764
G02 X31.444921 Y132.127751 Z-0.125000 I9.904667 J-6.648648
G02 X33.784030 Y133.997664 Z-0.125000 I11.016104 J-11.382275
G02 X35.769041 Y135.217295 Z-0.125000 I10.576103 J-14.987969
G02 X38.106719 Y136.339727 Z-0.125000 I15.273117 J-28.813633
G02 X40.488117 Y137.309187 Z-0.125000 I17.416967 J-39.373722
G02 X43.139964 Y138.241178 Z-0.125000 I26.136571 J-70.129202
G02 X46.383423 Y139.190473 Z-0.125000 I21.695640 J-68.111960
G02 X51.787022 Y140.564036 Z-0.125000 I59.155811 J-221.403345
G00 Z5.000000

(End cutting path id: path22)


(Start cutting path id: path54)
(ZZZanette)
(Change tool to Default tool)

G00 Z5.000000
G00 X71.860243 Y147.160963

G01 Z-0.125000 F100.0(Penetrate)
G03 X73.586684 Y148.883291 Z-0.125000 I-4.504817 J6.242023 F400.000000
G02 X79.531896 Y156.038713 Z-0.125000 I57.300118 J-41.561281
G02 X82.833314 Y159.617427 Z-0.125000 I166.180065 J-149.991462
G02 X86.056804 Y162.721803 Z-0.125000 I33.770853 J-31.840857
G02 X87.885733 Y164.083830 Z-0.125000 I7.755341 J-8.504911
G02 X90.485881 Y164.936313 Z-0.125000 I3.170408 J-5.278441
G02 X93.898123 Y165.048871 Z-0.125000 I2.646651 J-28.456336
G02 X97.889325 Y164.941613 Z-0.125000 I-709.064815 J-26459.549577
G02 X111.177099 Y164.144466 Z-0.125000 I-17.021762 J-394.885320
G02 X123.111540 Y162.903314 Z-0.125000 I-17.126525 J-222.681102
G02 X126.153586 Y162.454895 Z-0.125000 I-4.346260 J-40.027447
G02 X129.039560 Y161.784818 Z-0.125000 I-6.237685 J-33.415169
G02 X130.658323 Y161.026170 Z-0.125000 I-1.185613 J-4.636142
G02 X131.947580 Y159.072471 Z-0.125000 I-1.940142 J-2.682554
G02 X131.996108 Y155.152245 Z-0.125000 I-12.800145 J-2.118863
G02 X131.388320 Y151.131210 Z-0.125000 I-187.740617 J26.320923
G03 X131.297823 Y147.512160 Z-0.125000 I23.570529 J-2.400052
G03 X131.566380 Y144.431882 Z-0.125000 I43.509791 J2.241592
G01 X131.658850 Y144.277708 Z-0.125000
G01 X131.926370 Y144.241504 Z-0.125000
G01 X132.440400 Y144.411925 Z-0.125000
G00 Z5.000000

(End cutting path id: path54)


(Start cutting path id: path80)
(ZZZanette)
(Change tool to Default tool)

G00 Z5.000000
G00 X131.931340 Y154.400683

G01 Z-0.125000 F100.0(Penetrate)
G02 X132.661769 Y156.515650 Z-0.125000 I29.156942 J-8.886081 F400.000000
G02 X134.172310 Y159.090968 Z-0.125000 I8.672990 J-3.356443
G02 X135.466398 Y160.043390 Z-0.125000 I2.973656 J-2.685036
G02 X137.314940 Y160.246000 Z-0.125000 I1.226517 J-2.656282
G02 X138.294757 Y159.924404 Z-0.125000 I-1.349428 J-5.764764
G02 X139.635810 Y158.931779 Z-0.125000 I-1.422310 J-3.323769
G02 X140.755923 Y156.938145 Z-0.125000 I-2.478538 J-2.704036
G02 X141.061900 Y155.296689 Z-0.125000 I-77.189487 J-15.237809
G03 X141.478358 Y153.270963 Z-0.125000 I35.031081 J6.146184
G03 X142.543910 Y151.605605 Z-0.125000 I2.906661 J0.686212
G02 X143.484985 Y150.278140 Z-0.125000 I-1.091539 J-1.771129
G02 X143.690370 Y148.529609 Z-0.125000 I-8.791977 J-1.919048
G00 Z5.000000

(End cutting path id: path80)


(Start cutting path id: path54)
(ZZZanette)
(Change tool to Default tool)

G00 Z5.000000
G00 X142.457070 Y147.947222

G01 Z-0.125000 F100.0(Penetrate)
G01 X147.333170 Y149.841710 Z-0.125000 F400.000000
G03 X148.173746 Y150.116639 Z-0.125000 I-2.560111 J9.249845
G02 X149.116610 Y150.376363 Z-0.125000 I1.857815 J-4.903048
G02 X150.424942 Y150.395062 Z-0.125000 I0.737055 J-5.790281
G02 X151.018060 Y150.236550 Z-0.125000 I-0.184999 J-1.881145
G00 Z5.000000

(End cutting path id: path54)


(Start cutting path id: path44)
(ZZZanette)
(Change tool to Default tool)

G00 Z5.000000
G00 X154.256380 Y151.488616

G01 Z-0.125000 F100.0(Penetrate)
G03 X155.137548 Y152.517053 Z-0.125000 I-0.812008 J1.587443 F400.000000
G03 X154.309980 Y154.339239 Z-0.125000 I-1.401247 J0.462625
G03 X150.257404 Y155.536864 Z-0.125000 I-18.765491 J-56.044040
G03 X145.765990 Y156.331952 Z-0.125000 I-7.440623 J-28.948284
G00 Z5.000000

(End cutting path id: path44)


(Start cutting path id: path72)
(ZZZanette)
(Change tool to Default tool)

G00 Z5.000000
G00 X145.576260 Y157.102516

G01 Z-0.125000 F100.0(Penetrate)
G02 X155.540383 Y155.532850 Z-0.125000 I-9.627006 J-93.522108 F400.000000
G03 X163.656070 Y153.843217 Z-0.125000 I185.460451 J870.472645
G00 Z5.000000

(End cutting path id: path72)


(Start cutting path id: path74)
(ZZZanette)
(Change tool to Default tool)

G00 Z5.000000
G00 X162.211160 Y154.160135

G01 Z-0.125000 F100.0(Penetrate)
G03 X159.619884 Y153.845369 Z-0.125000 I0.490955 J-14.865291 F400.000000
G03 X157.467120 Y153.371133 Z-0.125000 I28.252848 J-133.375394
G02 X156.706142 Y153.276332 Z-0.125000 I-0.889173 J4.035854
G02 X156.139690 Y153.317603 Z-0.125000 I-0.085054 J2.740575
G00 Z5.000000

(End cutting path id: path74)


(Start cutting path id: path76)
(ZZZanette)
(Change tool to Default tool)

G00 Z5.000000
G00 X165.103220 Y147.986865

G01 Z-0.125000 F100.0(Penetrate)
G03 X165.549176 Y147.008696 Z-0.125000 I47.773085 J21.189434 F400.000000
G01 X166.215110 Y146.729142 Z-0.125000
G03 X166.864455 Y146.961095 Z-0.125000 I-21.706420 J61.791428
G01 X167.231610 Y147.201782 Z-0.125000
G03 X167.575663 Y148.186249 Z-0.125000 I-0.923082 J0.874954
G03 X167.207410 Y150.102799 Z-0.125000 I-9.399112 J-0.812326
G03 X166.723986 Y151.199428 Z-0.125000 I-4.723066 J-1.427189
G03 X165.932440 Y152.317645 Z-0.125000 I-7.455209 J-4.438014
G03 X165.038217 Y152.913863 Z-0.125000 I-1.369129 J-1.084757
G03 X164.215070 Y152.950930 Z-0.125000 I-0.490607 J-1.736555
G03 X163.738037 Y152.822600 Z-0.125000 I0.588661 J-3.138983
G03 X163.124960 Y152.600804 Z-0.125000 I15.730144 J-44.438637
G01 X162.946893 Y152.396771 Z-0.125000
G03 X163.197360 Y151.327122 Z-0.125000 I1.237003 J-0.274495
G02 X164.195883 Y149.829491 Z-0.125000 I-7.765211 J-6.259031
G02 X165.103180 Y147.987117 Z-0.125000 I-22.510689 J-12.230220
G01 X165.103220 Y147.986865 Z-0.125000
G00 Z5.000000

(End cutting path id: path76)


(Start cutting path id: path70)
(ZZZanette)
(Change tool to Default tool)

G00 Z5.000000
G00 X169.624680 Y143.219029

G01 Z-0.125000 F100.0(Penetrate)
G03 X168.924746 Y149.223629 Z-0.125000 I-94.924538 J-8.021908 F400.000000
G03 X166.412060 Y153.429982 Z-0.125000 I-6.362779 J-0.947179
G03 X164.828624 Y153.950818 Z-0.125000 I-1.567542 J-2.098226
G03 X163.129730 Y153.706793 Z-0.125000 I0.038244 J-6.302077
G03 X160.436479 Y152.869093 Z-0.125000 I17.472531 J-60.923477
G02 X157.751570 Y152.045918 Z-0.125000 I-16.983004 J50.602401
G02 X156.980778 Y151.958334 Z-0.125000 I-0.806136 J3.658957
G02 X156.407050 Y152.006368 Z-0.125000 I-0.029253 J3.100952
G00 Z5.000000

(End cutting path id: path70)


(Start cutting path id: path78)
(ZZZanette)
(Change tool to Default tool)

G00 Z5.000000
G00 X145.690310 Y149.277513

G01 Z-0.125000 F100.0(Penetrate)
G02 X145.721608 Y149.870420 Z-0.125000 I1.991784 J0.192140 F400.000000
G02 X146.085770 Y150.780207 Z-0.125000 I2.694793 J-0.550875
G03 X146.407715 Y152.191351 Z-0.125000 I-4.680295 J1.810080
G03 X146.303260 Y153.528558 Z-0.125000 I-4.261119 J0.339830
G02 X145.587185 Y156.818288 Z-0.125000 I77.414171 J18.573528
G03 X142.880950 Y160.779141 Z-0.125000 I-5.957306 J-1.165365
G03 X138.024315 Y161.675454 Z-0.125000 I-3.541787 J-5.585134
G03 X135.443070 Y160.108032 Z-0.125000 I0.886220 J-4.368554
G00 Z5.000000

(End cutting path id: path78)


(Start cutting path id: path80)
(ZZZanette)
(Change tool to Default tool)

G00 Z5.000000
G00 X135.547110 Y156.898212

G01 Z-0.125000 F100.0(Penetrate)
G03 X134.688752 Y155.139609 Z-0.125000 I3.565513 J-2.829073 F400.000000
G03 X134.518120 Y154.064387 Z-0.125000 I6.617974 J-1.601390
G03 X135.058680 Y152.590668 Z-0.125000 I1.881743 J-0.145775
G03 X135.637070 Y152.276938 Z-0.125000 I0.808497 J0.800516
G03 X137.687193 Y152.582454 Z-0.125000 I0.608666 J2.946928
G01 X138.069780 Y153.031925 Z-0.125000
G03 X138.265542 Y155.407722 Z-0.125000 I-4.422886 J1.560404
G03 X137.693280 Y156.869431 Z-0.125000 I-3.921104 J-0.692247
G03 X136.669269 Y157.382267 Z-0.125000 I-0.944736 J-0.607642
G03 X135.547090 Y156.898171 Z-0.125000 I0.130561 J-1.845358
G01 X135.547110 Y156.898212 Z-0.125000
G00 Z5.000000

(End cutting path id: path80)


(Start cutting path id: path72)
(ZZZanette)
(Change tool to Default tool)

G00 Z5.000000
G00 X132.030730 Y157.953687

G01 Z-0.125000 F100.0(Penetrate)
G03 X132.606456 Y157.919298 Z-0.125000 I3.887108 J60.240064 F400.000000
G03 X133.300920 Y157.888137 Z-0.125000 I1.898634 J34.559323
G00 Z5.000000

(End cutting path id: path72)


(Start cutting path id: path78)
(ZZZanette)
(Change tool to Default tool)

G00 Z5.000000
G00 X137.987150 Y152.863721

G01 Z-0.125000 F100.0(Penetrate)
G02 X136.822640 Y154.459653 Z-0.125000 I0.175554 J1.350919 F400.000000
G02 X137.644980 Y156.847382 Z-0.125000 I8.265795 J-1.511288
G00 Z5.000000

(End cutting path id: path78)


(Start cutting path id: path78)
(ZZZanette)
(Change tool to Default tool)

G00 Z5.000000
G00 X141.759450 Y152.637170

G01 Z-0.125000 F100.0(Penetrate)
G03 X142.143018 Y153.085159 Z-0.125000 I-0.933019 J1.187051 F400.000000
G03 X142.277280 Y153.563638 Z-0.125000 I-0.919255 J0.516021
G03 X142.140053 Y155.987890 Z-0.125000 I-13.178429 J0.470034
G03 X141.350930 Y158.139137 Z-0.125000 I-5.624496 J-0.842828
G03 X140.429706 Y158.862903 Z-0.125000 I-1.450617 J-0.898217
G03 X139.652310 Y158.928644 Z-0.125000 I-0.528380 J-1.618878
G00 Z5.000000

(End cutting path id: path78)


(Start cutting path id: path44)
(ZZZanette)
(Change tool to Default tool)

G00 Z5.000000
G00 X142.956600 Y147.292331

G01 Z-0.125000 F100.0(Penetrate)
G02 X153.398210 Y151.126419 Z-0.125000 I818.974239 J-2214.228150 F400.000000
G03 X154.256380 Y151.488616 Z-0.125000 I-3.202782 J8.786249
G00 Z5.000000

(End cutting path id: path44)


(Start cutting path id: path86)
(ZZZanette)
(Change tool to Default tool)

G00 Z5.000000
G00 X150.122190 Y141.483234

G01 Z-0.125000 F100.0(Penetrate)
G03 X151.359599 Y142.194052 Z-0.125000 I-2.278910 J5.399644 F400.000000
G02 X152.331210 Y142.350068 Z-0.125000 I0.634105 J-0.845545
G01 X152.576211 Y142.135480 Z-0.125000
G02 X152.666750 Y141.902681 Z-0.125000 I-1.300819 J-0.639912
G00 Z5.000000

(End cutting path id: path86)


(Start cutting path id: path84)
(ZZZanette)
(Change tool to Default tool)

G00 Z5.000000
G00 X150.152990 Y141.418842

G01 Z-0.125000 F100.0(Penetrate)
G02 X150.183257 Y142.156987 Z-0.125000 I4.638024 J0.179516 F400.000000
G02 X150.784590 Y143.175522 Z-0.125000 I1.463865 J-0.177474
G02 X152.042619 Y143.813589 Z-0.125000 I2.665516 J-3.696183
G01 X152.638700 Y143.598832 Z-0.125000
G02 X152.871880 Y142.166954 Z-0.125000 I-1.559117 J-0.988827
G01 X152.720200 Y141.926814 Z-0.125000
G02 X151.983665 Y141.371153 Z-0.125000 I-7.294465 J8.902934
G02 X150.927210 Y140.868567 Z-0.125000 I-2.063970 J2.976893
G01 X150.367774 Y140.984561 Z-0.125000
G01 X150.152960 Y141.418842 Z-0.125000
G01 X150.152990 Y141.418842 Z-0.125000
G00 Z5.000000

(End cutting path id: path84)


(Start cutting path id: path82)
(ZZZanette)
(Change tool to Default tool)

G00 Z5.000000
G00 X149.562260 Y141.066084

G01 Z-0.125000 F100.0(Penetrate)
G02 X149.605184 Y142.032356 Z-0.125000 I5.721687 J0.229921 F400.000000
G02 X150.429090 Y143.386953 Z-0.125000 I1.938850 J-0.251406
G02 X152.161118 Y144.235484 Z-0.125000 I3.648557 J-5.255482
G01 X152.973650 Y143.946215 Z-0.125000
G02 X153.292718 Y142.056595 Z-0.125000 I-1.983314 J-1.306637
G01 X153.085500 Y141.737192 Z-0.125000
G02 X152.078082 Y141.005681 Z-0.125000 I-9.694903 J12.292118
G02 X150.624820 Y140.339065 Z-0.125000 I-2.815850 J4.221312
G01 X149.851274 Y140.496087 Z-0.125000
G01 X149.562260 Y141.066084 Z-0.125000
G01 X149.562260 Y141.066084 Z-0.125000
G00 Z5.000000

(End cutting path id: path82)


(Start cutting path id: path20)
(ZZZanette)
(Change tool to Default tool)

G00 Z5.000000
G00 X143.351560 Y146.618338

G01 Z-0.125000 F100.0(Penetrate)
G02 X149.510551 Y148.867964 Z-0.125000 I913.571937 J-2491.606789 F400.000000
G02 X154.975670 Y150.845129 Z-0.125000 I540.463155 J-1485.362944
G03 X156.226904 Y151.828063 Z-0.125000 I-1.372064 J3.034430
G03 X156.386340 Y152.985224 Z-0.125000 I-0.915121 J0.715652
G01 X155.844255 Y153.498468 Z-0.125000
G02 X155.318630 Y153.736571 Z-0.125000 I1.946284 J4.995760
G00 Z5.000000

(End cutting path id: path20)


(Start cutting path id: path68)
(ZZZanette)
(Change tool to Default tool)

G00 Z5.000000
G00 X165.581960 Y140.973694

G01 Z-0.125000 F100.0(Penetrate)
G03 X167.992134 Y142.251477 Z-0.125000 I-5.649325 J13.567790 F400.000000
G03 X169.061950 Y143.109114 Z-0.125000 I-3.949628 J6.022826
G01 X169.784762 Y143.119870 Z-0.125000
G01 X170.050570 Y142.674129 Z-0.125000
G02 X168.915526 Y131.996000 Z-0.125000 I-50.884883 J0.009477
G02 X167.994240 Y129.901200 Z-0.125000 I-5.556258 J1.193634
G00 Z5.000000

(End cutting path id: path68)


(Start cutting path id: path10)
(ZZZanette)
(Change tool to Default tool)

G00 Z5.000000
G00 X167.306560 Y125.345942

G01 Z-0.125000 F100.0(Penetrate)
G03 X167.651471 Y127.386499 Z-0.125000 I-76.733372 J14.019508 F400.000000
G02 X167.980580 Y129.420860 Z-0.125000 I164.059695 J-25.496974
G03 X167.494023 Y138.931972 Z-0.125000 I-39.093546 J2.768104
G03 X164.888900 Y140.990492 Z-0.125000 I-2.454631 J-0.428720
G03 X161.695764 Y139.335151 Z-0.125000 I0.267381 J-4.423210
G03 X158.634232 Y134.400842 Z-0.125000 I19.048044 J-15.235439
G03 X156.378459 Y128.365468 Z-0.125000 I37.320694 J-17.388181
G03 X155.748820 Y125.594273 Z-0.125000 I24.428290 J-7.007439
G03 X155.351929 Y121.620540 Z-0.125000 I28.999003 J-4.903069
G02 X155.219830 Y119.528790 Z-0.125000 I-33.294864 J1.052600
G02 X155.002555 Y118.632839 Z-0.125000 I-2.912848 J0.232067
G02 X154.428720 Y117.957000 Z-0.125000 I-1.350517 J0.565152
G01 X140.943840 Y112.302228 Z-0.125000
G01 X114.358180 Y101.609732 Z-0.125000
G01 X113.787830 Y101.365705 Z-0.125000
G00 Z5.000000

(End cutting path id: path10)


(Start cutting path id: path14)
(ZZZanette)
(Change tool to Default tool)

G00 Z5.000000
G00 X150.290170 Y116.205023

G01 Z-0.125000 F100.0(Penetrate)
G03 X151.669812 Y114.460755 Z-0.125000 I5.911079 J3.257660 F400.000000
G03 X153.194830 Y113.590888 Z-0.125000 I2.728542 J3.011842
G03 X157.418875 Y112.665902 Z-0.125000 I7.199606 J22.770485
G03 X159.470280 Y112.569625 Z-0.125000 I1.641423 J13.071246
G03 X164.073193 Y115.402523 Z-0.125000 I-0.121051 J5.352556
G03 X167.320280 Y125.692513 Z-0.125000 I-25.972415 J13.853115
G03 X166.226568 Y135.997695 Z-0.125000 I-22.846199 J2.785911
G03 X162.845010 Y138.875315 Z-0.125000 I-4.130070 J-1.427658
G03 X162.176761 Y138.986904 Z-0.125000 I-5.676048 J-31.934275
G03 X161.516900 Y139.048499 Z-0.125000 I-0.826511 J-5.289003
G00 Z5.000000

(End cutting path id: path14)


(Start cutting path id: path6)
(ZZZanette)
(Change tool to Default tool)

G00 Z5.000000
G00 X165.903920 Y125.597912

G01 Z-0.125000 F100.0(Penetrate)
G02 X163.401347 Y117.941160 Z-0.125000 I-19.449382 J2.119585 F400.000000
G02 X161.187880 Y116.708963 Z-0.125000 I-2.135501 J1.231936
G02 X159.277101 Y118.092742 Z-0.125000 I0.064337 J2.099971
G02 X158.365260 Y125.607151 Z-0.125000 I15.802459 J5.730088
G02 X160.974085 Y133.270084 Z-0.125000 I18.292858 J-1.952204
G02 X163.104260 Y134.487141 Z-0.125000 I2.174363 J-1.332999
G02 X165.162908 Y133.007863 Z-0.125000 I0.035543 J-2.122642
G02 X165.903810 Y125.598192 Z-0.125000 I-17.163230 J-5.458049
G01 X165.903920 Y125.597912 Z-0.125000
G00 Z5.000000

(End cutting path id: path6)


(Start cutting path id: path8)
(ZZZanette)
(Change tool to Default tool)

G00 Z5.000000
G00 X166.301480 Y125.606311

G01 Z-0.125000 F100.0(Penetrate)
G02 X163.781628 Y117.892934 Z-0.125000 I-20.438349 J2.408634 F400.000000
G02 X161.012340 Y116.276694 Z-0.125000 I-2.769288 J1.564348
G02 X158.721116 Y117.914437 Z-0.125000 I0.000000 J2.421598
G02 X157.898270 Y125.636548 Z-0.125000 I16.577443 J5.671340
G02 X160.508068 Y133.380897 Z-0.125000 I19.676950 J-2.319095
G02 X163.187410 Y134.935928 Z-0.125000 I2.722651 J-1.605379
G02 X165.517961 Y133.278882 Z-0.125000 I0.033510 J-2.420294
G02 X166.301480 Y125.606311 Z-0.125000 I-16.842112 J-5.596199
G01 X166.301480 Y125.606311 Z-0.125000
G00 Z5.000000

(End cutting path id: path8)


(Start cutting path id: path12)
(ZZZanette)
(Change tool to Default tool)

G00 Z5.000000
G00 X161.278870 Y113.578933

G01 Z-0.125000 F100.0(Penetrate)
G02 X160.771776 Y113.430328 Z-0.125000 I-1.098812 J2.810044 F400.000000
G02 X160.279280 Y113.381562 Z-0.125000 I-0.492496 J2.462528
G02 X157.332407 Y115.496895 Z-0.125000 I0.000000 J3.110313
G02 X156.269310 Y125.593718 Z-0.125000 I21.968611 J7.417459
G02 X159.639923 Y135.716742 Z-0.125000 I25.954975 J-3.019438
G02 X163.080350 Y137.726924 Z-0.125000 I3.496222 J-2.034548
G02 X163.827601 Y137.614506 Z-0.125000 I0.032561 J-2.323299
G02 X164.527020 Y137.269038 Z-0.125000 I-0.823945 J-2.548859
G00 Z5.000000

(End cutting path id: path12)


(Start cutting path id: path52)
(ZZZanette)
(Change tool to Default tool)

G00 Z5.000000
G00 X154.380490 Y119.113879

G01 Z-0.125000 F100.0(Penetrate)
G03 X153.470994 Y118.937020 Z-0.125000 I-0.068243 J-2.076034 F400.000000
G02 X151.633400 Y118.228680 Z-0.125000 I-8.131842 J18.358083
G01 X120.540270 Y105.524062 Z-0.125000
G02 X119.215801 Y105.300254 Z-0.125000 I-1.441744 J4.501131
G01 X118.837709 Y105.456508 Z-0.125000
G01 X118.716860 Y105.848716 Z-0.125000
G02 X119.030300 Y106.810342 Z-0.125000 I3.323436 J-0.551373
G02 X120.526345 Y109.282488 Z-0.125000 I19.326584 J-10.006933
G02 X121.882600 Y110.781112 Z-0.125000 I6.644666 J-4.650409
G02 X123.633193 Y111.983517 Z-0.125000 I5.392963 J-5.976111
G02 X125.405980 Y112.794410 Z-0.125000 I10.879823 J-21.442351
G02 X138.700039 Y118.439041 Z-0.125000 I161.672496 J-362.288847
G03 X152.082070 Y123.930093 Z-0.125000 I-446.860601 J1108.078627
G02 X153.799565 Y124.595116 Z-0.125000 I15.962614 J-38.674893
G02 X154.823450 Y124.804346 Z-0.125000 I1.224165 J-3.380705
G00 Z5.000000

(End cutting path id: path52)


(Start cutting path id: path62)
(ZZZanette)
(Change tool to Default tool)

G00 Z5.000000
G00 X89.307780 Y164.062565

G01 Z-0.125000 F100.0(Penetrate)
G02 X93.863557 Y164.144052 Z-0.125000 I2.990432 J-39.796076 F400.000000
G02 X98.422102 Y163.949147 Z-0.125000 I-25.593433 J-651.999130
G02 X110.637603 Y163.194150 Z-0.125000 I-18.249405 J-394.464810
G02 X121.422220 Y162.042125 Z-0.125000 I-14.333701 J-185.239985
G02 X124.313026 Y161.592736 Z-0.125000 I-10.628675 J-77.894125
G02 X126.996920 Y160.901512 Z-0.125000 I-3.010539 J-17.245511
G02 X128.826637 Y159.592645 Z-0.125000 I-1.281198 J-3.724390
G02 X129.459900 Y157.667894 Z-0.125000 I-2.383584 J-1.850774
G02 X129.134077 Y154.178813 Z-0.125000 I-25.544468 J0.625679
G03 X128.567150 Y150.628966 Z-0.125000 I526.259635 J-85.866330
G03 X127.543876 Y145.553708 Z-0.125000 I502.179423 J-103.890223
G02 X126.606510 Y141.372980 Z-0.125000 I-78.861872 J15.486271
G03 X126.957509 Y141.012173 Z-0.125000 I6.146889 J5.628668
G02 X127.249650 Y140.673931 Z-0.125000 I-1.740056 J-1.798174
G02 X129.179963 Y133.515571 Z-0.125000 I-12.168697 J-7.120836
G02 X129.011290 Y126.133570 Z-0.125000 I-182.928982 J0.486856
G02 X128.481692 Y119.314786 Z-0.125000 I-117.094485 J5.664477
G02 X127.752970 Y112.963367 Z-0.125000 I-421.088515 J45.095552
G01 X127.959360 Y112.273938 Z-0.125000
G01 X128.817520 Y112.029034 Z-0.125000
G02 X140.227674 Y116.733104 Z-0.125000 I751.779932 J-1807.321138
G03 X149.959500 Y121.058806 Z-0.125000 I-66.315476 J162.304457
G03 X150.839956 Y121.768774 Z-0.125000 I-1.076032 J2.235351
G03 X151.245780 Y122.400995 Z-0.125000 I-3.240325 J2.526332
G03 X153.333272 Y128.328562 Z-0.125000 I-20.311036 J10.484228
G02 X154.596700 Y134.494446 Z-0.125000 I2184.601835 J-444.426074
G03 X155.369714 Y140.806414 Z-0.125000 I-60.975141 J10.670821
G03 X154.652600 Y145.064316 Z-0.125000 I-9.160016 J0.646613
G03 X152.131612 Y148.338524 Z-0.125000 I-7.619863 J-3.259316
G03 X150.626110 Y149.314494 Z-0.125000 I-6.313688 J-8.090144
G02 X150.429844 Y149.613698 Z-0.125000 I1.568234 J1.242673
G02 X150.277250 Y149.989354 Z-0.125000 I1.703042 J0.910607
G00 Z5.000000

(End cutting path id: path62)


(Start cutting path id: path20)
(ZZZanette)
(Change tool to Default tool)

G00 Z5.000000
G00 X72.666547 Y147.916874

G01 Z-0.125000 F100.0(Penetrate)
G03 X72.106594 Y147.805757 Z-0.125000 I91.318725 J-461.649985 F400.000000
G03 X71.603989 Y147.665209 Z-0.125000 I0.669475 J-3.363006
G03 X61.455729 Y144.273256 Z-0.125000 I71.552256 J-230.951676
G03 X51.701422 Y140.536691 Z-0.125000 I83.529230 J-232.653222
G01 X44.720167 Y136.844488 Z-0.125000
G02 X40.765955 Y134.261595 Z-0.125000 I-207.363234 J313.138960
G03 X37.257650 Y131.403611 Z-0.125000 I11.035788 J-17.129228
G03 X34.366903 Y128.424605 Z-0.125000 I13.668015 J-16.155129
G02 X32.512211 Y126.104678 Z-0.125000 I-508.099247 J404.304282
G03 X30.408163 Y122.513729 Z-0.125000 I33.988341 J-22.326705
G03 X29.625472 Y120.647563 Z-0.125000 I11.005848 J-5.713196
G03 X29.754239 Y118.251147 Z-0.125000 I2.857942 J-1.048101
G03 X31.246816 Y116.930442 Z-0.125000 I2.364035 J1.167922
G03 X33.778809 Y116.126251 Z-0.125000 I16.029020 J46.079230
G03 X36.387569 Y115.427748 Z-0.125000 I19.989616 J69.436146
G03 X41.174911 Y114.375890 Z-0.125000 I89.482830 J395.844737
G03 X45.950678 Y113.383010 Z-0.125000 I96.744722 J453.361227
G03 X50.528039 Y112.554124 Z-0.125000 I28.400226 J143.781491
G03 X54.413237 Y112.157119 Z-0.125000 I5.169304 J31.378886
G03 X56.445194 Y112.287751 Z-0.125000 I0.454032 J8.806278
G03 X57.979176 Y112.936434 Z-0.125000 I-0.682362 J3.751720
G03 X59.877248 Y114.158287 Z-0.125000 I-9.958417 J17.554982
G03 X60.865915 Y114.913673 Z-0.125000 I-14.905309 J20.533086
G02 X62.362102 Y116.018803 Z-0.125000 I41.287627 J-54.332148
G02 X63.831884 Y117.049092 Z-0.125000 I46.845656 J-65.265185
G02 X66.087400 Y118.391602 Z-0.125000 I35.677979 J-57.375647
G02 X68.537847 Y119.659056 Z-0.125000 I17.010014 J-29.883994
G02 X71.069743 Y120.972862 Z-0.125000 I33.246172 J-60.973681
G02 X73.639124 Y122.110838 Z-0.125000 I15.092853 J-30.607781
G02 X78.012262 Y124.091994 Z-0.125000 I61.684070 J-130.342212
G02 X82.655458 Y125.986140 Z-0.125000 I46.592108 J-107.575020
G02 X87.096674 Y127.662948 Z-0.125000 I45.244851 J-113.116146
G02 X91.981156 Y129.380178 Z-0.125000 I251.018861 J-706.191903
G01 X101.043680 Y132.431818 Z-0.125000
G02 X108.769062 Y135.022280 Z-0.125000 I131.213490 J-378.495534
G02 X115.437900 Y137.098026 Z-0.125000 I92.721377 J-286.139442
G01 X121.742760 Y138.933349 Z-0.125000
G03 X124.828348 Y139.895941 Z-0.125000 I-17.455528 J61.380431
G03 X127.182510 Y140.696608 Z-0.125000 I-3632.641989 J10684.734855
G03 X130.237235 Y141.788786 Z-0.125000 I-33.728893 J99.154743
G03 X131.984600 Y142.444722 Z-0.125000 I-1323.745838 J3529.014281
G00 Z5.000000

(End cutting path id: path20)


(Start cutting path id: path56)
(ZZZanette)
(Change tool to Default tool)

G00 Z5.000000
G00 X72.294191 Y147.891677

G01 Z-0.125000 F100.0(Penetrate)
G03 X72.420603 Y149.225023 Z-0.125000 I-3.479520 J1.002553 F400.000000
G03 X72.294191 Y150.462081 Z-0.125000 I-59.797491 J-5.485583
G02 X71.659587 Y151.368304 Z-0.125000 I0.988775 J1.367724
G02 X71.582376 Y152.518410 Z-0.125000 I2.660110 J0.756227
G02 X72.287203 Y154.167984 Z-0.125000 I4.070061 J-0.763684
G02 X73.401432 Y155.345795 Z-0.125000 I4.875208 J-3.496082
G02 X74.029519 Y155.725913 Z-0.125000 I2.163446 J-2.865793
G02 X74.726180 Y155.938961 Z-0.125000 I1.077592 J-2.278143
G02 X76.318225 Y155.804540 Z-0.125000 I0.129639 J-7.959653
G02 X77.197728 Y155.286470 Z-0.125000 I-0.275255 J-1.472868
G02 X77.319954 Y154.833125 Z-0.125000 I-0.946852 J-0.498430
G02 X77.237278 Y153.506945 Z-0.125000 I-6.369198 J-0.268600
G00 Z5.000000

(End cutting path id: path56)


(Start cutting path id: path58)
(ZZZanette)
(Change tool to Default tool)

G00 Z5.000000
G00 X72.414577 Y149.375501

G01 Z-0.125000 F100.0(Penetrate)
G01 X72.991443 Y149.176023 Z-0.125000 F400.000000
G03 X73.680000 Y149.197549 Z-0.125000 I-0.052660 J12.707883
G00 Z5.000000

(End cutting path id: path58)
