%
(Header)
(Generated by gcodetools from Inkscape.)
(Using default header. To add your own header create file "header" in the output dir.)
M3
(Header end.)
G21 (All units in mm)

(Start cutting path id: path40)
(ZZZanette)
(Change tool to Default tool)

G00 Z5.000000
G00 X133.138627 Y141.778692

G01 Z-0.125000 F100.0(Penetrate)
G03 X125.325777 Y140.157845 Z-0.125000 I7.935311 J-57.890270 F400.000000
G03 X118.084244 Y137.570590 Z-0.125000 I14.761761 J-52.744939
G01 X118.084243 Y137.570589 Z-0.125000
G03 X111.291327 Y133.876450 Z-0.125000 I18.147490 J-41.462855
G03 X105.976313 Y129.196853 Z-0.125000 I14.153530 J-21.433519
G03 X103.893538 Y126.329553 Z-0.125000 I16.410480 J-14.110489
G03 X102.403536 Y123.325041 Z-0.125000 I16.705789 J-10.156478
G02 X104.045003 Y126.272450 Z-0.125000 I18.121602 J-8.161468
G02 X106.245192 Y129.028513 Z-0.125000 I18.161549 J-12.242280
G02 X111.718119 Y133.449967 Z-0.125000 I18.720903 J-17.574996
G02 X118.533100 Y136.820249 Z-0.125000 I23.707375 J-39.362853
G02 X124.834502 Y138.953397 Z-0.125000 I24.805968 J-62.903952
G02 X131.478678 Y140.223216 Z-0.125000 I10.489048 J-36.865348
G00 Z5.000000

(End cutting path id: path40)


(Start cutting path id: path38)
(ZZZanette)
(Change tool to Default tool)

G00 Z5.000000
G00 X131.637729 Y142.433146

G01 Z-0.125000 F100.0(Penetrate)
G03 X123.331171 Y142.156059 Z-0.125000 I-2.004152 J-64.565427 F400.000000
G03 X115.228182 Y140.937686 Z-0.125000 I7.761922 J-79.176289
G01 X115.228181 Y140.937686 Z-0.125000
G03 X107.747993 Y138.948181 Z-0.125000 I12.970792 J-63.824729
G03 X100.939250 Y136.040155 Z-0.125000 I13.815013 J-41.770834
G03 X99.923657 Y135.482026 Z-0.125000 I18.616573 J-35.078490
G03 X98.936218 Y134.901039 Z-0.125000 I19.221843 J-33.798869
G02 X99.955987 Y135.441965 Z-0.125000 I19.128662 J-34.830178
G02 X100.999187 Y135.957242 Z-0.125000 I18.424461 J-35.987485
G02 X107.946064 Y138.579237 Z-0.125000 I19.128809 J-40.167322
G02 X115.411173 Y140.240224 Z-0.125000 I17.931348 J-62.984269
G01 X115.411174 Y140.240224 Z-0.125000
G02 X122.773172 Y141.265224 Z-0.125000 I27.079363 J-167.544883
G02 X130.156699 Y141.432771 Z-0.125000 I4.582715 J-39.179053
G00 Z5.000000

(End cutting path id: path38)


(Start cutting path id: path36)
(ZZZanette)
(Change tool to Default tool)

G00 Z5.000000
G00 X133.303247 Y143.160535

G01 Z-0.125000 F100.0(Penetrate)
G03 X129.399150 Y144.953191 Z-0.125000 I-16.391400 J-30.550099 F400.000000
G03 X125.179186 Y146.248987 Z-0.125000 I-11.280116 J-29.216079
G03 X117.109678 Y147.152433 Z-0.125000 I-7.879280 J-33.887287
G03 X109.284013 Y145.913800 Z-0.125000 I0.143514 J-26.247262
G01 X109.284011 Y145.913800 Z-0.125000
G03 X106.270178 Y144.715104 Z-0.125000 I7.087282 J-22.207399
G03 X103.601052 Y143.184164 Z-0.125000 I9.192495 J-19.118917
G02 X106.366083 Y144.597238 Z-0.125000 I11.230003 J-18.562509
G02 X109.398360 Y145.643477 Z-0.125000 I9.131926 J-21.549457
G02 X117.168139 Y146.514314 Z-0.125000 I6.718812 J-24.849406
G02 X124.834966 Y145.308290 Z-0.125000 I-1.378488 J-33.735650
G01 X124.834968 Y145.308289 Z-0.125000
G02 X129.146321 Y143.791897 Z-0.125000 I-9.330351 J-33.414885
G02 X133.027074 Y141.808196 Z-0.125000 I-12.534022 J-29.308392
G01 X133.027141 Y141.808099 Z-0.125000
G00 Z5.000000

(End cutting path id: path36)


(Start cutting path id: path20)
(ZZZanette)
(Change tool to Default tool)

G00 Z5.000000
G00 X129.296315 Y149.852472

G01 Z-0.125000 F100.0(Penetrate)
G02 X128.822126 Y149.765231 Z-0.125000 I-0.323679 J0.427000 F400.000000
G03 X128.395905 Y149.856306 Z-0.125000 I-0.825552 J-2.820620
G02 X126.415880 Y150.926654 Z-0.125000 I1.995162 J6.057414
G02 X125.143908 Y152.361904 Z-0.125000 I3.478741 J4.364249
G02 X124.774986 Y153.249967 Z-0.125000 I3.024755 J1.777214
G02 X124.674358 Y154.411981 Z-0.125000 I3.337239 J0.874364
G02 X125.162317 Y155.733111 Z-0.125000 I2.765632 J-0.270808
G02 X126.058750 Y156.674718 Z-0.125000 I3.546197 J-2.478551
G02 X127.397194 Y157.078792 Z-0.125000 I1.410166 J-2.252244
G02 X128.660381 Y156.991019 Z-0.125000 I0.177597 J-6.577556
G02 X129.755074 Y156.218663 Z-0.125000 I-0.907213 J-2.447787
G02 X130.432304 Y155.198051 Z-0.125000 I-4.239560 J-3.548167
G02 X130.510111 Y154.282057 Z-0.125000 I-1.828917 J-0.616653
G02 X130.323765 Y153.452061 Z-0.125000 I-6.455921 J1.013529
G00 Z5.000000

(End cutting path id: path20)


(Start cutting path id: path22)
(ZZZanette)
(Change tool to Default tool)

G00 Z5.000000
G00 X129.238297 Y153.377518

G01 Z-0.125000 F100.0(Penetrate)
G02 X128.854496 Y151.134256 Z-0.125000 I-6.747682 J0.000000 F400.000000
G02 X128.312218 Y150.750426 Z-0.125000 I-0.542278 J0.191153
G02 X127.769961 Y151.134236 Z-0.125000 I0.000000 J0.574964
G02 X127.386140 Y153.377518 Z-0.125000 I6.363645 J2.243283
G02 X127.769940 Y155.620781 Z-0.125000 I6.747682 J-0.000000
G02 X128.312218 Y156.004611 Z-0.125000 I0.542278 J-0.191153
G02 X128.849088 Y155.626389 Z-0.125000 I0.000000 J-0.570142
G02 X129.238208 Y153.414259 Z-0.125000 I-6.279867 J-2.244935
G01 X128.312218 Y153.377580 Z-0.125000
G01 X129.238297 Y153.377518 Z-0.125000
G00 Z5.000000

(End cutting path id: path22)


(Start cutting path id: path12)
(ZZZanette)
(Change tool to Default tool)

G00 Z5.000000
G00 X106.229061 Y162.383902

G01 Z-0.125000 F100.0(Penetrate)
G02 X105.972282 Y164.854642 Z-0.125000 I47.255244 J6.159859 F400.000000
G02 X106.056065 Y167.235615 Z-0.125000 I10.563785 J0.820236
G02 X106.639025 Y169.837722 Z-0.125000 I18.193102 J-2.709514
G02 X109.072548 Y174.472155 Z-0.125000 I13.228129 J-3.989906
G02 X112.302118 Y177.522056 Z-0.125000 I12.442881 J-9.941027
G02 X114.807667 Y178.990058 Z-0.125000 I9.678616 J-13.647018
G02 X117.958706 Y180.012857 Z-0.125000 I5.511219 J-11.613695
G02 X120.460730 Y180.357789 Z-0.125000 I4.867702 J-26.061857
G01 X120.460724 Y180.357747 Z-0.125000
G00 Z5.000000

(End cutting path id: path12)


(Start cutting path id: path10)
(ZZZanette)
(Change tool to Default tool)

G00 Z5.000000
G00 X121.374308 Y179.133296

G01 Z-0.125000 F100.0(Penetrate)
G03 X120.638010 Y177.971976 Z-0.125000 I5.082076 J-4.036206 F400.000000
G02 X120.037519 Y176.774718 Z-0.125000 I-100.562842 J49.688564
G03 X119.395186 Y175.073274 Z-0.125000 I7.389834 J-3.761794
G03 X119.164054 Y172.990990 Z-0.125000 I7.243146 J-1.857956
G03 X119.352075 Y171.103022 Z-0.125000 I13.702225 J0.411248
G03 X120.102276 Y169.168817 Z-0.125000 I5.110023 J0.869385
G03 X121.717225 Y167.376792 Z-0.125000 I6.288979 J4.043845
G03 X123.377125 Y166.396440 Z-0.125000 I4.263264 J5.322999
G02 X120.681012 Y166.925113 Z-0.125000 I-0.367579 J5.264550
G02 X118.935079 Y168.318171 Z-0.125000 I2.294104 J4.665848
G02 X117.837676 Y169.771827 Z-0.125000 I20.660123 J16.737925
G02 X116.862565 Y172.900562 Z-0.125000 I4.391599 J3.085019
G02 X117.528720 Y175.783330 Z-0.125000 I6.811829 J-0.055737
G02 X118.465802 Y177.193376 Z-0.125000 I5.451812 J-2.606740
G02 X119.965145 Y178.537784 Z-0.125000 I6.688095 J-5.950589
G02 X121.374184 Y179.133151 Z-0.125000 I2.045340 J-2.875595
G01 X121.374308 Y179.133296 Z-0.125000
G00 Z5.000000

(End cutting path id: path10)


(Start cutting path id: path8)
(ZZZanette)
(Change tool to Default tool)

G00 Z5.000000
G00 X115.998215 Y180.588004

G01 Z-0.125000 F100.0(Penetrate)
G03 X113.488821 Y179.595202 Z-0.125000 I45.742492 J-119.285963 F400.000000
G03 X111.046049 Y178.460509 Z-0.125000 I10.699641 J-26.230983
G03 X108.218722 Y176.759983 Z-0.125000 I12.960888 J-24.749656
G03 X105.639985 Y174.723701 Z-0.125000 I13.700231 J-20.000893
G03 X103.392705 Y172.442375 Z-0.125000 I18.968727 J-20.933175
G03 X101.875893 Y170.513151 Z-0.125000 I16.799864 J-14.769439
G03 X100.476192 Y168.310792 Z-0.125000 I23.610928 J-16.551806
G03 X98.837708 Y165.385709 Z-0.125000 I141.445940 J-81.152341
G02 X99.017782 Y167.863259 Z-0.125000 I47.599379 J-2.214324
G02 X99.517398 Y170.192569 Z-0.125000 I10.543261 J-1.043196
G02 X100.547225 Y172.652322 Z-0.125000 I17.439020 J-5.855755
G02 X103.755025 Y176.788774 Z-0.125000 I12.324505 J-6.245555
G02 X107.468996 Y179.225670 Z-0.125000 I10.508521 J-11.966992
G02 X110.193109 Y180.232078 Z-0.125000 I7.139764 J-15.135714
G02 X113.474678 Y180.686997 Z-0.125000 I3.391362 J-12.400368
G02 X115.998504 Y180.588231 Z-0.125000 I0.226414 J-26.510117
G01 X115.998215 Y180.588004 Z-0.125000
G00 Z5.000000

(End cutting path id: path8)


(Start cutting path id: path28)
(ZZZanette)
(Change tool to Default tool)

G00 Z5.000000
G00 X122.509158 Y115.068699

G01 Z-0.125000 F100.0(Penetrate)
G02 X120.595058 Y117.123926 Z-0.125000 I2.427880 J4.180110 F400.000000
G02 X119.531689 Y119.463619 Z-0.125000 I40.454847 J19.797841
G02 X118.799225 Y122.142502 Z-0.125000 I11.109341 J4.477108
G02 X118.709277 Y124.687586 Z-0.125000 I10.935625 J1.660618
G02 X120.566651 Y129.877504 Z-0.125000 I12.799232 J-1.653287
G02 X124.251345 Y133.539642 Z-0.125000 I9.677795 J-6.052641
G02 X127.958162 Y135.196804 Z-0.125000 I8.802326 J-14.715079
G03 X131.408515 Y136.700809 Z-0.125000 I-5.125060 J16.467192
G03 X134.685917 Y139.934726 Z-0.125000 I-5.283993 J8.632739
G03 X135.782972 Y144.269506 Z-0.125000 I-6.108871 J3.852260
G03 X134.586628 Y147.981251 Z-0.125000 I-10.595782 J-1.366489
G02 X133.031264 Y151.227216 Z-0.125000 I32.660618 J17.645554
G02 X132.398862 Y153.525090 Z-0.125000 I9.365446 J3.813441
G03 X131.936575 Y155.714322 Z-0.125000 I-19.193139 J-2.909476
G03 X130.864448 Y159.360813 Z-0.125000 I-48.430314 J-12.258433
G03 X129.274572 Y162.169148 Z-0.125000 I-8.051792 J-2.704140
G03 X126.669182 Y164.687270 Z-0.125000 I-7.239581 J-4.883572
G03 X123.209776 Y166.595279 Z-0.125000 I-18.944081 J-30.257343
G01 X123.209745 Y166.595279 Z-0.125000
G00 Z5.000000

(End cutting path id: path28)


(Start cutting path id: path6)
(ZZZanette)
(Change tool to Default tool)

G00 Z5.000000
G00 X99.572296 Y81.007706

G01 Z-0.125000 F100.0(Penetrate)
G03 X99.213798 Y77.193385 Z-0.125000 I91.149174 J-10.490877 F400.000000
G02 X98.928446 Y73.435702 Z-0.125000 I-634.860851 J46.320537
G03 X98.778449 Y70.380046 Z-0.125000 I51.348678 J-4.052132
G03 X98.857608 Y66.362036 Z-0.125000 I51.466109 J-0.995846
G03 X99.220566 Y62.622840 Z-0.125000 I49.319550 J2.900158
G03 X100.113994 Y57.825602 Z-0.125000 I49.027664 J6.648994
G03 X101.514215 Y52.707159 Z-0.125000 I76.896674 J18.285413
G03 X103.529188 Y47.502304 Z-0.125000 I38.795697 J12.026643
G03 X106.443480 Y42.446377 Z-0.125000 I31.204564 J14.618779
G03 X109.740735 Y37.847865 Z-0.125000 I161.411332 J112.254857
G02 X105.847231 Y40.279404 Z-0.125000 I16.027775 J29.997501
G02 X101.061683 Y44.994907 Z-0.125000 I12.974235 J17.953027
G02 X97.168430 Y52.264758 Z-0.125000 I22.291298 J16.615157
G02 X95.905924 Y56.556505 Z-0.125000 I37.167854 J13.265263
G02 X95.307012 Y61.495552 Z-0.125000 I22.325705 J5.213068
G02 X95.370258 Y65.641297 Z-0.125000 I76.201542 J0.910847
G02 X95.741239 Y69.523942 Z-0.125000 I36.913753 J-1.568009
G02 X96.359740 Y72.792886 Z-0.125000 I42.274925 J-6.305652
G02 X97.103187 Y75.508565 Z-0.125000 I33.233486 J-7.638429
G02 X99.572375 Y81.007706 Z-0.125000 I25.350854 J-8.078952
G01 X99.572296 Y81.007706 Z-0.125000
G00 Z5.000000

(End cutting path id: path6)


(Start cutting path id: path4)
(ZZZanette)
(Change tool to Default tool)

G00 Z5.000000
G00 X116.033305 Y46.272948

G01 Z-0.125000 F100.0(Penetrate)
G01 X116.033353 Y46.272892 Z-0.125000 F400.000000
G02 X116.102118 Y46.387570 Z-0.125000 I0.154897 J-0.014926
G02 X116.431713 Y46.527166 Z-0.125000 I0.535879 J-0.806347
G02 X116.819610 Y46.572335 Z-0.125000 I0.421932 J-1.935276
G02 X117.528159 Y46.518237 Z-0.125000 I0.065470 J-3.809675
G02 X118.218576 Y46.342581 Z-0.125000 I-0.756516 J-4.418167
G02 X119.131520 Y45.931476 Z-0.125000 I-1.713956 J-5.025441
G02 X119.952520 Y45.360176 Z-0.125000 I-2.740458 J-4.813807
G02 X120.817518 Y44.456078 Z-0.125000 I-3.692684 J-4.398828
G02 X121.291346 Y43.724471 Z-0.125000 I-4.656615 J-3.535116
G02 X121.680090 Y42.857987 Z-0.125000 I-5.321558 J-2.907943
G02 X121.929754 Y41.941432 Z-0.125000 I-5.782508 J-2.067401
G02 X122.037401 Y40.935078 Z-0.125000 I-6.071915 J-1.158428
G02 X121.985299 Y39.971297 Z-0.125000 I-6.140915 J-0.151318
G02 X121.794020 Y39.071345 Z-0.125000 I-5.945072 J0.793283
G02 X121.404712 Y38.090240 Z-0.125000 I-5.746670 J1.712520
G02 X120.915738 Y37.284295 Z-0.125000 I-5.305174 J2.667385
G02 X120.304291 Y36.566363 Z-0.125000 I-4.745860 J3.422603
G02 X119.690378 Y36.036880 Z-0.125000 I-3.928682 J3.934499
G02 X118.973442 Y35.588780 Z-0.125000 I-3.194919 J4.314115
G02 X118.364626 Y35.322300 Z-0.125000 I-2.283896 J4.389217
G02 X117.724654 Y35.143010 Z-0.125000 I-1.559077 J4.333279
G02 X117.262000 Y35.079725 Z-0.125000 I-0.717580 J3.523133
G02 X116.796620 Y35.084258 Z-0.125000 I-0.204644 J2.881380
G02 X116.541136 Y35.133064 Z-0.125000 I0.119522 J1.318754
G03 X116.282927 Y35.195879 Z-0.125000 I-0.776254 J-2.628764
G02 X110.545114 Y37.280322 Z-0.125000 I3.659246 J19.012164
G00 Z5.000000

(End cutting path id: path4)


(Start cutting path id: path26)
(ZZZanette)
(Change tool to Default tool)

G00 Z5.000000
G00 X106.436581 Y34.981235

G01 Z-0.125000 F100.0(Penetrate)
G03 X100.321659 Y37.354026 Z-0.125000 I-7.248090 J-9.613284 F400.000000
G03 X82.148048 Y38.677739 Z-0.125000 I-39.792545 J-420.905398
G02 X59.172409 Y41.689878 Z-0.125000 I7.488107 J146.248405
G02 X53.866200 Y43.202256 Z-0.125000 I8.434030 J39.655627
G03 X50.798223 Y43.955855 Z-0.125000 I-5.112746 J-14.192682
G03 X50.519512 Y43.713109 Z-0.125000 I-0.033269 J-0.243177
G03 X50.754085 Y43.206450 Z-0.125000 I0.661945 J-0.001163
G03 X53.862170 Y40.950125 Z-0.125000 I16.789014 J19.857990
G03 X60.240806 Y38.342593 Z-0.125000 I10.973886 J17.739115
G03 X83.617741 Y35.691847 Z-0.125000 I23.775942 J105.274093
G03 X99.777469 Y35.955636 Z-0.125000 I1.492131 J403.696393
G02 X104.826544 Y35.014885 Z-0.125000 I0.426494 J-11.730715
G03 X106.762817 Y34.248325 Z-0.125000 I14.744020 J34.413561
G03 X107.136737 Y34.178327 Z-0.125000 I0.398334 J1.094138
G03 X107.187045 Y34.286655 Z-0.125000 I0.001368 J0.065210
G03 X106.437574 Y34.981088 Z-0.125000 I-3.791832 J-3.340704
G01 X106.436581 Y34.981235 Z-0.125000
G00 Z5.000000

(End cutting path id: path26)


(Start cutting path id: path18)
(ZZZanette)
(Change tool to Default tool)

G00 Z5.000000
G00 X116.590825 Y46.152390

G01 Z-0.125000 F100.0(Penetrate)
G02 X113.945748 Y50.358961 Z-0.125000 I9.117947 J8.668227 F400.000000
G02 X111.772804 Y57.572403 Z-0.125000 I50.397475 J19.115508
G02 X110.609770 Y63.659922 Z-0.125000 I89.194985 J20.195761
G02 X110.409951 Y70.109593 Z-0.125000 I25.791288 J4.026978
G02 X112.315885 Y77.209293 Z-0.125000 I21.716889 J-2.024283
G02 X115.129586 Y82.890888 Z-0.125000 I102.009309 J-46.980638
G02 X119.985959 Y91.068332 Z-0.125000 I87.740486 J-46.576048
G02 X121.952326 Y94.043647 Z-0.125000 I7346.161494 J-4852.896181
G03 X124.040613 Y97.350265 Z-0.125000 I-78.074835 J51.620704
G03 X126.302394 Y104.617871 Z-0.125000 I-13.674043 J8.241307
G03 X125.100838 Y110.591968 Z-0.125000 I-11.851696 J0.724177
G03 X122.508745 Y115.068286 Z-0.125000 I-34.701621 J-17.105945
G01 X122.509158 Y115.068699 Z-0.125000
G00 Z5.000000

(End cutting path id: path18)


(Start cutting path id: path16)
(ZZZanette)
(Change tool to Default tool)

G00 Z5.000000
G00 X52.155028 Y69.506594

G01 Z-0.125000 F100.0(Penetrate)
G02 X54.375306 Y71.653738 Z-0.125000 I9.355691 J-7.452835 F400.000000
G02 X56.173869 Y72.710994 Z-0.125000 I5.786030 J-7.784520
G02 X66.035072 Y74.617239 Z-0.125000 I10.288461 J-26.763637
G02 X73.245291 Y72.965268 Z-0.125000 I0.231729 J-15.549497
G02 X77.236972 Y70.225464 Z-0.125000 I-8.003312 J-15.937885
G02 X80.543219 Y66.332686 Z-0.125000 I-13.349899 J-14.688885
G02 X81.661273 Y64.259058 Z-0.125000 I-12.282064 J-7.960443
G02 X82.695140 Y61.586516 Z-0.125000 I-29.282472 J-12.864102
G02 X83.379988 Y58.917152 Z-0.125000 I-17.867616 J-6.006625
G02 X83.134740 Y58.623852 Z-0.125000 I-0.245248 J-0.044116
G00 Z5.000000

(End cutting path id: path16)


(Start cutting path id: path14)
(ZZZanette)
(Change tool to Default tool)

G00 Z5.000000
G00 X40.814110 Y45.061745

G01 Z-0.125000 F100.0(Penetrate)
G03 X46.852359 Y38.981845 Z-0.125000 I34.977469 J28.699460 F400.000000
G03 X56.336123 Y32.246416 Z-0.125000 I48.704160 J58.533004
G03 X66.633228 Y27.237431 Z-0.125000 I33.424739 J55.623620
G03 X75.170082 Y25.590165 Z-0.125000 I8.959940 J23.489842
G03 X92.165747 Y25.698944 Z-0.125000 I6.157612 J365.690485
G02 X109.051252 Y24.570444 Z-0.125000 I2.605887 J-87.899971
G02 X129.355629 Y17.767750 Z-0.125000 I-10.903759 J-66.248201
G02 X146.485481 Y4.918042 Z-0.125000 I-31.209054 J-59.447255
G03 X139.334063 Y18.371603 Z-0.125000 I-36.189631 J-10.609579
G03 X127.442824 Y27.898206 Z-0.125000 I-29.042846 J-24.066979
G00 Z5.000000

(End cutting path id: path14)


(Start cutting path id: path14)
(ZZZanette)
(Change tool to Default tool)

G00 Z5.000000
G00 X127.442824 Y27.899922

G01 Z-0.125000 F100.0(Penetrate)
G03 X117.620678 Y31.436598 Z-0.125000 I-18.826509 J-36.877967 F400.000000
G03 X107.234418 Y32.922363 Z-0.125000 I-14.805350 J-66.451449
G03 X96.759739 Y33.057274 Z-0.125000 I-6.531046 J-100.378103
G03 X86.279848 Y32.620177 Z-0.125000 I83.276767 J-2122.509895
G02 X75.790462 Y32.392101 Z-0.125000 I-10.331921 J233.850997
G02 X65.350082 Y33.152041 Z-0.125000 I0.048952 J72.769732
G02 X55.165903 Y35.663349 Z-0.125000 I7.796408 J53.522732
G02 X45.942198 Y40.525618 Z-0.125000 I11.893001 J33.740774
G02 X39.407374 Y46.804027 Z-0.125000 I20.014905 J27.372392
G02 X34.645168 Y54.533845 Z-0.125000 I29.882814 J23.742145
G02 X31.779846 Y63.140766 Z-0.125000 I36.978966 J17.091037
G02 X30.754786 Y72.168300 Z-0.125000 I46.003202 J9.795545
G02 X32.373757 Y85.439453 Z-0.125000 I48.678050 J0.796008
G02 X37.574632 Y97.748666 Z-0.125000 I46.075333 J-12.214359
G02 X46.004910 Y108.121531 Z-0.125000 I40.464682 J-24.274445
G02 X57.022821 Y115.679933 Z-0.125000 I31.397033 J-33.957951
G02 X65.065921 Y118.973801 Z-0.125000 I28.338463 J-57.731082
G03 X73.208975 Y122.048981 Z-0.125000 I-34.329082 J103.222129
G03 X80.892092 Y126.204635 Z-0.125000 I-18.031925 J42.518281
G03 X86.936719 Y132.319572 Z-0.125000 I-12.009974 J17.916913
G03 X90.338772 Y140.474517 Z-0.125000 I-20.238406 J13.230092
G02 X92.365933 Y149.229153 Z-0.125000 I273.348464 J-58.682597
G02 X95.370006 Y158.417903 Z-0.125000 I64.886759 J-16.127960
G02 X99.667995 Y167.077536 Z-0.125000 I61.873805 J-25.313077
G00 Z5.000000

(End cutting path id: path14)
