%
(Header)
(Generated by gcodetools from Inkscape.)
(Using default header. To add your own header create file "header" in the output dir.)
M3
(Header end.)
G21 (All units in mm)

G00 Z5.000000
G00 X136.354977 Y127.031412

G01 Z-0.125000 F100.0(Penetrate)
G03 X135.381347 Y129.376755 Z-0.125000 I-3.311620 J0.000000 F400.000000
G03 X133.022713 Y130.351564 Z-0.125000 I-2.358634 J-2.366053
G03 X130.668152 Y129.378099 Z-0.125000 I0.000000 J-3.334269
G03 X129.694302 Y127.031412 Z-0.125000 I2.340481 J-2.346687
G03 X130.671655 Y124.666813 Z-0.125000 I3.349119 J-0.000000
G03 X133.022713 Y123.690889 Z-0.125000 I2.351057 J2.343953
G03 X135.377842 Y124.668164 Z-0.125000 I0.000000 J3.326443
G03 X136.354977 Y127.031412 Z-0.125000 I-2.369245 J2.363248
G00 Z5.000000

(End cutting path id: path835)
%