%
(Header)
(Generated by gcodetools from Inkscape.)
(Using default header. To add your own header create file "header" in the output dir.)
M3
(Header end.)
G21 (All units in mm)

(Start cutting path id: path36)
(DuduZanette)
(Change tool to Default tool)

G00 Z5.000000
G00 X76.026486 Y227.526087

G01 Z-0.125000 F100.0(Penetrate)
G01 X83.756269 Y220.092814 Z-0.125000 F400.000000
G02 X84.556428 Y217.780066 Z-0.125000 I-1.710950 J-1.886742
G02 X82.423652 Y211.303575 Z-0.125000 I-22.481356 J3.813927
G02 X78.654072 Y205.060503 Z-0.125000 I-43.422952 J21.959288
G02 X71.921705 Y196.690700 Z-0.125000 I-74.000578 J52.630856
G02 X64.248152 Y189.174445 Z-0.125000 I-67.267446 J61.000001
G02 X58.402397 Y184.814245 Z-0.125000 I-31.932945 J36.713927
G02 X52.164767 Y182.060298 Z-0.125000 I-12.224781 J19.247846
G02 X49.785029 Y182.631180 Z-0.125000 I-0.668775 J2.457638
G01 X41.281757 Y189.573170 Z-0.125000
G00 Z5.000000

(End cutting path id: path36)


(Start cutting path id: path32)
(DuduZanette)
(Change tool to Default tool)

G00 Z5.000000
G00 X61.489786 Y187.105529

G01 Z-0.125000 F100.0(Penetrate)
G03 X61.003468 Y183.025763 Z-0.125000 I10.927799 J-3.371487 F400.000000
G03 X61.982263 Y180.989625 Z-0.125000 I2.993677 J0.185767
G03 X67.077252 Y180.317370 Z-0.125000 I3.033175 J3.344821
G03 X80.039559 Y190.257794 Z-0.125000 I-20.830650 J40.584791
G03 X88.668941 Y204.127473 Z-0.125000 I-33.793399 J30.644780
G03 X87.503185 Y209.132610 Z-0.125000 I-4.198895 J1.660355
G03 X86.436006 Y209.732306 Z-0.125000 I-1.846051 J-2.035723
G03 X84.908512 Y209.924810 Z-0.125000 I-1.352708 J-4.577075
G03 X83.385485 Y209.704178 Z-0.125000 I0.263296 J-7.184580
G03 X81.368159 Y209.026674 Z-0.125000 I3.629223 J-14.148464
G00 Z5.000000

(End cutting path id: path32)


(Start cutting path id: path30)
(DuduZanette)
(Change tool to Default tool)

G00 Z5.000000
G00 X87.503072 Y209.132625

G01 Z-0.125000 F100.0(Penetrate)
G01 X95.805413 Y200.734565 Z-0.125000 F400.000000
G01 X95.805219 Y200.734351 Z-0.125000
G01 X95.805142 Y200.734266 Z-0.125000
G02 X97.012800 Y195.275035 Z-0.125000 I-3.731591 J-3.688671
G02 X89.082733 Y182.057260 Z-0.125000 I-37.218212 J13.341515
G02 X76.538344 Y172.823997 Z-0.125000 I-29.080645 J26.371124
G02 X71.011663 Y173.664287 Z-0.125000 I-2.129951 J4.586020
G01 X61.982362 Y180.989770 Z-0.125000
G00 Z5.000000

(End cutting path id: path30)


(Start cutting path id: path24)
(DuduZanette)
(Change tool to Default tool)

G00 Z5.000000
G00 X63.873136 Y179.456058

G01 Z-0.125000 F100.0(Penetrate)
G01 X53.769588 Y155.716243 Z-0.125000 F400.000000
G01 X98.141893 Y173.474226 Z-0.125000
G01 X111.855519 Y219.770256 Z-0.125000
G01 X89.039689 Y207.578259 Z-0.125000
G00 Z5.000000

(End cutting path id: path24)


(Start cutting path id: path28)
(DuduZanette)
(Change tool to Default tool)

G00 Z5.000000
G00 X98.141893 Y173.474226

G01 Z-0.125000 F100.0(Penetrate)
G01 X115.668856 Y157.580297 Z-0.125000 F400.000000
G01 X126.414386 Y203.639473 Z-0.125000
G01 X111.855519 Y219.770256 Z-0.125000
G00 Z5.000000

(End cutting path id: path28)


(Start cutting path id: path20)
(DuduZanette)
(Change tool to Default tool)

G00 Z5.000000
G00 X120.063236 Y176.417101

G01 Z-0.125000 F100.0(Penetrate)
G01 X125.076073 Y171.715582 Z-0.125000 F400.000000
G01 X125.075105 Y171.714514 Z-0.125000
G02 X126.682566 Y165.932487 Z-0.125000 I-3.951613 J-4.213047
G02 X120.056322 Y153.969483 Z-0.125000 I-28.773875 J8.121075
G02 X109.122523 Y146.296982 Z-0.125000 I-22.435595 J20.345211
G02 X103.208578 Y146.987528 Z-0.125000 I-2.333548 J5.684388
G01 X103.207803 Y146.986673 Z-0.125000
G01 X103.191280 Y146.999710 Z-0.125000
G02 X103.075656 Y147.086833 Z-0.125000 I2.516752 J3.460360
G02 X102.962331 Y147.177969 Z-0.125000 I3.054543 J3.914219
G01 X97.523809 Y151.412127 Z-0.125000
G00 Z5.000000

(End cutting path id: path20)


(Start cutting path id: path14)
(DuduZanette)
(Change tool to Default tool)

G00 Z5.000000
G00 X92.195087 Y149.600588

G01 Z-0.125000 F100.0(Penetrate)
G01 X86.718699 Y131.328565 Z-0.125000 F400.000000
G01 X131.632035 Y143.324940 Z-0.125000
G01 X139.313240 Y189.199796 Z-0.125000
G01 X121.391039 Y182.108227 Z-0.125000
G00 Z5.000000

(End cutting path id: path14)


(Start cutting path id: path16)
(DuduZanette)
(Change tool to Default tool)

G00 Z5.000000
G00 X86.718699 Y131.328565

G01 Z-0.125000 F100.0(Penetrate)
G01 X125.591411 Y101.835288 Z-0.125000 F400.000000
G01 X170.441143 Y108.279227 Z-0.125000
G01 X131.632035 Y143.324940 Z-0.125000
G00 Z5.000000

(End cutting path id: path16)


(Start cutting path id: path4293)
(DuduZanette)
(Change tool to Default tool)

G00 Z5.000000
G00 X98.102375 Y103.652660

G01 Z-0.125000 F100.0(Penetrate)
G02 X97.750276 Y100.255621 Z-0.125000 I-16.563305 J0.000000 F400.000000
G02 X96.812628 Y97.497784 Z-0.125000 I-11.792826 J2.471172
G02 X95.214368 Y95.099847 Z-0.125000 I-9.369771 J4.513491
G02 X93.139292 Y93.367324 Z-0.125000 I-6.838540 J6.081710
G02 X90.664967 Y92.313421 Z-0.125000 I-4.901855 J8.076916
G02 X87.735410 Y91.930642 Z-0.125000 I-2.929557 J11.019127
G02 X84.800371 Y92.302570 Z-0.125000 I-0.000000 J11.766782
G02 X82.347855 Y93.318346 Z-0.125000 I2.362924 J9.173707
G02 X80.288176 Y94.994687 Z-0.125000 I4.719103 J7.901754
G02 X78.674522 Y97.318197 Z-0.125000 I7.692098 J7.064172
G02 X77.707873 Y99.998088 Z-0.125000 I10.631051 J5.348952
G02 X77.303142 Y103.277163 Z-0.125000 I15.598650 J3.589829
G01 X77.303142 Y104.615888 Z-0.125000
G02 X77.652658 Y108.030318 Z-0.125000 I16.852594 J-0.000000
G02 X78.576565 Y110.770764 Z-0.125000 I11.716480 J-2.424099
G02 X80.174824 Y113.168699 Z-0.125000 I9.369792 J-4.513506
G02 X82.249898 Y114.901224 Z-0.125000 I6.838567 J-6.081729
G02 X84.757468 Y115.968548 Z-0.125000 I4.986742 J-8.236545
G02 X87.702758 Y116.354230 Z-0.125000 I2.945290 J-11.053126
G02 X90.616263 Y115.972433 Z-0.125000 I0.000000 J-11.307441
G02 X93.090317 Y114.917548 Z-0.125000 I-2.440909 J-9.153411
G02 X95.154929 Y113.204086 Z-0.125000 I-4.743960 J-7.816766
G02 X96.763650 Y110.819742 Z-0.125000 I-7.824863 J-7.014322
G02 X97.730181 Y108.090036 Z-0.125000 I-10.526016 J-5.263008
G02 X98.102375 Y104.746496 Z-0.125000 I-15.511356 J-3.419167
G01 X98.102375 Y103.652660 Z-0.125000
G00 Z5.000000

(End cutting path id: path4293)


(Start cutting path id: path4293)
(DuduZanette)
(Change tool to Default tool)

G00 Z5.000000
G00 X92.274017 Y104.648539

G01 Z-0.125000 F100.0(Penetrate)
G03 X91.897950 Y108.079529 Z-0.125000 I-15.839062 J-0.000000 F400.000000
G03 X91.082227 Y110.019770 Z-0.125000 I-5.749971 J-1.275826
G03 X89.636123 Y111.371256 Z-0.125000 I-3.348606 J-2.133629
G03 X87.702758 Y111.864600 Z-0.125000 I-1.933364 J-3.541651
G03 X84.828332 Y110.373571 Z-0.125000 I0.000000 J-3.516193
G03 X83.147824 Y105.399533 Z-0.125000 I7.556539 J-5.323926
G01 X83.131503 Y103.652660 Z-0.125000
G03 X83.493245 Y100.261582 Z-0.125000 I16.075358 J0.000000
G03 X84.290642 Y98.281429 Z-0.125000 I6.156746 J1.328657
G03 X85.734244 Y96.913879 Z-0.125000 I3.299061 J2.036814
G03 X87.735413 Y96.403947 Z-0.125000 I2.001168 J3.671710
G03 X89.638138 Y96.893624 Z-0.125000 I0.000000 J3.941525
G03 X91.082231 Y98.248777 Z-0.125000 I-1.933137 J3.507020
G03 X91.893953 Y100.200574 Z-0.125000 I-5.172968 J3.296047
G03 X92.274020 Y103.554703 Z-0.125000 I-15.261230 J3.427900
G01 X92.274020 Y104.648539 Z-0.125000
G01 X92.274017 Y104.648539 Z-0.125000
G00 Z5.000000

(End cutting path id: path4293)


(Start cutting path id: path4265)
(DuduZanette)
(Change tool to Default tool)

G00 Z5.000000
G00 X84.519947 Y78.800496

G01 Z-0.125000 F100.0(Penetrate)
G01 X87.187235 Y78.800496 Z-0.125000 F400.000000
G03 X88.791722 Y79.009772 Z-0.125000 I-0.058232 J6.701790
G03 X89.577589 Y79.412661 Z-0.125000 I-0.495293 J1.933999
G03 X90.083587 Y80.107506 Z-0.125000 I-1.138692 J1.360876
G03 X90.291779 Y81.176276 Z-0.125000 I-2.639212 J1.068770
G03 X90.055388 Y82.399458 Z-0.125000 I-3.282812 J0.000000
G03 X89.519287 Y83.100223 Z-0.125000 I-1.528016 J-0.613520
G03 X88.680034 Y83.502398 Z-0.125000 I-1.355944 J-1.752807
G03 X87.026904 Y83.697810 Z-0.125000 I-1.653129 J-6.894773
G01 X84.519947 Y83.697810 Z-0.125000
G01 X84.519947 Y78.800496 Z-0.125000
G00 Z5.000000

(End cutting path id: path4265)


(Start cutting path id: path4265)
(DuduZanette)
(Change tool to Default tool)

G00 Z5.000000
G00 X84.519947 Y75.448169

G01 Z-0.125000 F100.0(Penetrate)
G01 X84.519947 Y70.361377 Z-0.125000 F400.000000
G01 X87.872275 Y70.361377 Z-0.125000
G03 X89.187642 Y70.551050 Z-0.125000 I-0.000000 J4.655808
G03 X90.000272 Y70.988115 Z-0.125000 I-0.634083 J2.152936
G03 X90.533521 Y71.725651 Z-0.125000 I-1.287702 J1.492567
G03 X90.743617 Y72.780882 Z-0.125000 I-2.544959 J1.055230
G03 X89.969687 Y74.663929 Z-0.125000 I-2.677784 J0.000000
G03 X88.105480 Y75.448169 Z-0.125000 I-1.878805 J-1.858271
G01 X84.519947 Y75.448169 Z-0.125000
G00 Z5.000000

(End cutting path id: path4265)


(Start cutting path id: path4265)
(DuduZanette)
(Change tool to Default tool)

G00 Z5.000000
G00 X79.404005 Y66.426036

G01 Z-0.125000 F100.0(Penetrate)
G01 X79.404005 Y87.647725 Z-0.125000 F400.000000
G01 X87.026904 Y87.647725 Z-0.125000
G02 X90.973699 Y87.178437 Z-0.125000 I-0.000000 J-16.831248
G02 X93.250574 Y86.146466 Z-0.125000 I-1.561268 J-6.472443
G02 X94.800572 Y84.336850 Z-0.125000 I-2.748829 J-3.923087
G02 X95.393148 Y81.788441 Z-0.125000 I-5.183496 J-2.548409
G02 X95.183388 Y80.203610 Z-0.125000 I-6.091920 J0.000000
G02 X94.635230 Y78.975400 Z-0.125000 I-4.163525 J1.121779
G02 X93.729352 Y77.993417 Z-0.125000 I-3.335164 J2.167857
G02 X92.405203 Y77.255512 Z-0.125000 I-3.127439 J4.055073
G02 X93.914853 Y76.593406 Z-0.125000 I-1.350137 J-5.130520
G02 X94.955888 Y75.623073 Z-0.125000 I-2.131401 J-3.330311
G02 X95.600599 Y74.346964 Z-0.125000 I-3.355528 J-2.496181
G02 X95.844983 Y72.708006 Z-0.125000 I-5.373636 J-1.638958
G02 X95.269569 Y69.866718 Z-0.125000 I-7.302589 J-0.000000
G02 X93.862738 Y68.014747 Z-0.125000 I-4.329721 J1.828700
G02 X91.725888 Y66.935186 Z-0.125000 I-3.698807 J4.666720
G02 X88.018028 Y66.426036 Z-0.125000 I-3.817277 J14.043381
G01 X79.404005 Y66.426036 Z-0.125000
G00 Z5.000000

(End cutting path id: path4265)


(Start cutting path id: path4263)
(DuduZanette)
(Change tool to Default tool)

G00 Z5.000000
G00 X68.968058 Y69.049595

G01 Z-0.125000 F100.0(Penetrate)
G02 X67.645649 Y67.950313 Z-0.125000 I-4.439511 J3.995565 F400.000000
G02 X65.513705 Y66.936171 Z-0.125000 I-5.875075 J9.602703
G02 X63.203386 Y66.348206 Z-0.125000 I-4.421869 J12.542052
G02 X60.528938 Y66.134529 Z-0.125000 I-2.674447 J16.630222
G02 X56.661478 Y66.849695 Z-0.125000 I0.000000 J10.814762
G02 X53.868008 Y68.685213 Z-0.125000 I2.793353 J7.294642
G02 X52.058353 Y71.529505 Z-0.125000 I5.860437 J5.726484
G02 X51.200721 Y75.783400 Z-0.125000 I12.709077 J4.775693
G01 X51.186157 Y77.619894 Z-0.125000
G02 X51.493558 Y80.684295 Z-0.125000 I15.427787 J-0.000000
G02 X52.293883 Y83.085646 Z-0.125000 I10.213588 J-2.069956
G02 X53.673845 Y85.187626 Z-0.125000 I8.153486 J-3.848842
G02 X55.456729 Y86.685755 Z-0.125000 I5.809821 J-5.104169
G02 X57.622555 Y87.612912 Z-0.125000 I4.252978 J-6.941650
G02 X60.237441 Y87.953809 Z-0.125000 I2.614886 J-9.858425
G02 X64.004201 Y87.407664 Z-0.125000 I-0.000000 J-13.262725
G02 X66.388232 Y86.131892 Z-0.125000 I-1.901014 J-6.417823
G02 X68.032855 Y84.026370 Z-0.125000 I-3.882064 J-4.727349
G02 X68.953493 Y80.724442 Z-0.125000 I-9.097812 J-4.315947
G01 X64.027028 Y80.724442 Z-0.125000
G03 X63.543483 Y82.381337 Z-0.125000 I-6.230255 J-0.919220
G03 X62.890151 Y83.260550 Z-0.125000 I-2.314523 J-1.037546
G03 X61.930931 Y83.791406 Z-0.125000 I-1.733379 J-2.000045
G03 X60.412345 Y84.018468 Z-0.125000 I-1.518586 J-4.964603
G03 X58.724691 Y83.585660 Z-0.125000 I0.000000 J-3.506745
G03 X57.438977 Y82.386029 Z-0.125000 I1.719165 J-3.131333
G03 X56.712755 Y80.657823 Z-0.125000 I4.566495 J-2.935610
G03 X56.374975 Y77.721920 Z-0.125000 I13.154050 J-3.000774
G01 X56.374975 Y76.439293 Z-0.125000
G03 X56.717321 Y73.366306 Z-0.125000 I13.963142 J-0.000000
G03 X57.453551 Y71.658581 Z-0.125000 I4.927133 J1.111610
G03 X58.789103 Y70.530902 Z-0.125000 I2.729822 J1.878317
G03 X60.878756 Y70.069870 Z-0.125000 I2.089653 J4.505219
G03 X62.768564 Y70.346366 Z-0.125000 I-0.000000 J6.596514
G03 X63.852124 Y70.958964 Z-0.125000 I-0.802678 J2.684369
G01 X63.852124 Y74.252990 Z-0.125000
G01 X60.295742 Y74.252990 Z-0.125000
G01 X60.295742 Y77.765648 Z-0.125000
G01 X68.968067 Y77.765648 Z-0.125000
G01 X68.968067 Y69.049595 Z-0.125000
G01 X68.968058 Y69.049595 Z-0.125000
G00 Z5.000000

(End cutting path id: path4263)


(Start cutting path id: path4280)
(DuduZanette)
(Change tool to Default tool)

G00 Z5.000000
G00 X80.805485 Y45.867196

G01 Z-0.125000 F100.0(Penetrate)
G03 X80.329860 Y50.279653 Z-0.125000 I-20.705366 J0.000000 F400.000000
G03 X79.324437 Y52.657338 Z-0.125000 I-6.844857 J-1.492982
G03 X77.489969 Y54.267097 Z-0.125000 I-3.812858 J-2.494949
G03 X74.628434 Y54.920720 Z-0.125000 I-2.861535 J-5.937035
G03 X71.806716 Y54.308446 Z-0.125000 I-0.000000 J-6.808200
G03 X70.040801 Y52.831444 Z-0.125000 I1.793828 J-3.938887
G03 X69.061566 Y50.604842 Z-0.125000 I5.665490 J-3.820248
G03 X68.523630 Y46.505584 Z-0.125000 I19.196700 J-4.604066
G01 X68.523630 Y35.710998 Z-0.125000
G03 X69.007480 Y31.128505 Z-0.125000 I21.942077 J0.000000
G03 X70.004677 Y28.775766 Z-0.125000 I6.598940 J1.409231
G03 X71.821541 Y27.234171 Z-0.125000 I3.697411 J2.516184
G03 X74.700681 Y26.599438 Z-0.125000 I2.879140 J6.212507
G03 X77.488161 Y27.211913 Z-0.125000 I-0.000000 J6.649385
G03 X79.288314 Y28.717730 Z-0.125000 I-1.884986 J4.082357
G03 X80.295381 Y31.014709 Z-0.125000 I-5.448876 J3.758211
G03 X80.805485 Y35.420820 Z-0.125000 I-20.192109 J4.570263
G01 X80.805485 Y45.867196 Z-0.125000
G00 Z5.000000

(End cutting path id: path4280)


(Start cutting path id: path4280)
(DuduZanette)
(Change tool to Default tool)

G00 Z5.000000
G00 X92.978973 Y36.900724

G01 Z-0.125000 F100.0(Penetrate)
G02 X91.574924 Y28.936188 Z-0.125000 I-23.291643 J0.000000 F400.000000
G02 X88.174598 Y23.697668 Z-0.125000 I-13.052646 J4.749643
G02 X82.851599 Y20.419773 Z-0.125000 I-9.986637 J10.256399
G02 X74.700681 Y19.054834 Z-0.125000 I-8.150919 J23.654691
G02 X66.480748 Y20.429015 Z-0.125000 I0.000000 J25.271663
G02 X61.118393 Y23.726686 Z-0.125000 I4.690066 J13.635241
G02 X57.711657 Y28.988937 Z-0.125000 I9.800845 J10.078855
G02 X56.314022 Y36.900724 Z-0.125000 I21.694863 J7.911787
G01 X56.314022 Y44.619434 Z-0.125000
G02 X57.709334 Y52.590779 Z-0.125000 I23.467596 J0.000000
G02 X61.082269 Y57.822490 Z-0.125000 I13.059331 J-4.716342
G02 X66.438258 Y61.100730 Z-0.125000 I10.040671 J-10.390021
G02 X74.628434 Y62.465324 Z-0.125000 I8.190175 J-23.896062
G02 X82.813231 Y61.093567 Z-0.125000 I-0.000000 J-25.103800
G02 X88.174598 Y57.793472 Z-0.125000 I-4.710196 J-13.657342
G02 X91.579262 Y52.530344 Z-0.125000 I-9.785093 J-10.062664
G02 X92.978973 Y44.590416 Z-0.125000 I-21.819969 J-7.939928
G01 X92.978973 Y36.900724 Z-0.125000
G00 Z5.000000

(End cutting path id: path4280)


(Start cutting path id: path4282)
(DuduZanette)
(Change tool to Default tool)

G00 Z5.000000
G00 X126.356720 Y19.635189

G01 Z-0.125000 F100.0(Penetrate)
G01 X114.147108 Y19.635189 Z-0.125000 F400.000000
G01 X114.147108 Y50.858240 Z-0.125000
G01 X102.154239 Y48.043524 Z-0.125000
G01 X102.154239 Y55.472056 Z-0.125000
G01 X125.236901 Y61.884967 Z-0.125000
G01 X126.356720 Y61.884967 Z-0.125000
G01 X126.356720 Y19.635189 Z-0.125000
G00 Z5.000000

(End cutting path id: path4282)


(Start cutting path id: path4284)
(DuduZanette)
(Change tool to Default tool)

G00 Z5.000000
G00 X160.745910 Y40.179724

G01 Z-0.125000 F100.0(Penetrate)
G03 X164.273519 Y40.987019 Z-0.125000 I-0.000000 J8.110877 F400.000000
G03 X166.453361 Y42.936405 Z-0.125000 I-2.303609 J4.769407
G01 X166.453361 Y46.998886 Z-0.125000
G03 X165.918097 Y50.860547 Z-0.125000 I-14.197588 J0.000000
G03 X164.755576 Y53.005549 Z-0.125000 I-5.350697 J-1.512376
G03 X162.813588 Y54.412276 Z-0.125000 I-4.029303 J-3.518636
G03 X160.167943 Y54.949738 Z-0.125000 I-2.645645 J-6.242834
G03 X157.872572 Y54.395293 Z-0.125000 I0.000000 J-5.028573
G03 X155.869292 Y52.744392 Z-0.125000 I2.773890 J-5.406855
G03 X154.605729 Y50.376286 Z-0.125000 I6.020689 J-4.733646
G03 X154.135383 Y47.405134 Z-0.125000 I9.149123 J-2.971152
G03 X154.643271 Y44.291530 Z-0.125000 I9.797908 J0.000000
G03 X155.905415 Y42.123909 Z-0.125000 I5.872809 J1.968306
G03 X157.917124 Y40.726584 Z-0.125000 I4.056174 J3.692837
G03 X160.745910 Y40.179724 Z-0.125000 I2.828786 J7.042909
G01 X160.745910 Y40.179724 Z-0.125000
G00 Z5.000000

(End cutting path id: path4284)


(Start cutting path id: path4284)
(DuduZanette)
(Change tool to Default tool)

G00 Z5.000000
G00 X166.272747 Y35.972158

G01 Z-0.125000 F100.0(Penetrate)
G02 X162.099252 Y33.858499 Z-0.125000 I-8.775759 J12.150857 F400.000000
G02 X157.458710 Y33.128422 Z-0.125000 I-4.640542 J14.383158
G02 X150.745435 Y34.247154 Z-0.125000 I0.000000 J20.701830
G02 X146.116055 Y37.016794 Z-0.125000 I4.217870 J12.303824
G02 X143.088839 Y41.412576 Z-0.125000 I8.330155 J8.976934
G02 X141.925775 Y47.405134 Z-0.125000 I14.856462 J5.992558
G02 X142.515902 Y51.287238 Z-0.125000 I13.064119 J0.000000
G02 X144.273775 Y54.949738 Z-0.125000 I13.351798 J-4.155291
G02 X147.007591 Y57.985504 Z-0.125000 I12.150414 J-8.193051
G02 X150.848182 Y60.463102 Z-0.125000 I11.785760 J-14.053922
G02 X155.231755 Y61.958934 Z-0.125000 I8.618594 J-18.086001
G02 X160.240190 Y62.494339 Z-0.125000 I5.008435 J-23.157934
G02 X165.307376 Y61.929996 Z-0.125000 I-0.000000 J-23.031047
G02 X169.632194 Y60.376048 Z-0.125000 I-4.116696 J-18.252455
G02 X173.415306 Y57.802911 Z-0.125000 I-7.359871 J-14.888326
G02 X176.206602 Y54.427418 Z-0.125000 I-10.212667 J-11.287008
G02 X177.941196 Y50.419261 Z-0.125000 I-13.201720 J-8.092670
G02 X178.626849 Y45.577018 Z-0.125000 I-18.728939 J-5.121652
G01 X178.626849 Y41.833734 Z-0.125000
G02 X177.695794 Y35.122887 Z-0.125000 I-24.650694 J-0.000000
G02 X175.195154 Y29.704332 Z-0.125000 I-18.403202 J5.206701
G02 X171.193267 Y25.289604 Z-0.125000 I-16.388168 J10.834451
G02 X165.478038 Y21.811517 Z-0.125000 I-15.615348 J19.224594
G02 X158.996832 Y19.820405 Z-0.125000 I-12.001204 J27.520805
G02 X150.739812 Y19.054834 Z-0.125000 I-8.257020 J44.145035
G01 X149.981226 Y19.054834 Z-0.125000
G01 X149.981226 Y26.889616 Z-0.125000
G01 X152.293106 Y26.918632 Z-0.125000
G03 X162.454803 Y30.139694 Z-0.125000 I-0.790004 J20.131693
G03 X166.272747 Y35.972158 Z-0.125000 I-4.683320 J7.231561
G01 X166.272747 Y35.972158 Z-0.125000
G00 Z5.000000

(End cutting path id: path4284)


(Start cutting path id: path4273)
(DuduZanette)
(Change tool to Default tool)

G00 Z5.000000
G00 X162.629179 Y66.426036

G01 Z-0.125000 F100.0(Penetrate)
G01 X157.527814 Y66.426036 Z-0.125000 F400.000000
G01 X157.527814 Y87.647725 Z-0.125000
G01 X162.629179 Y87.647725 Z-0.125000
G01 X162.629179 Y66.426036 Z-0.125000
G00 Z5.000000

(End cutting path id: path4273)


(Start cutting path id: path4275)
(DuduZanette)
(Change tool to Default tool)

G00 Z5.000000
G00 X171.330655 Y70.361377

G01 Z-0.125000 F100.0(Penetrate)
G01 X180.236186 Y70.361377 Z-0.125000 F400.000000
G01 X180.236186 Y66.426036 Z-0.125000
G01 X166.214712 Y66.426036 Z-0.125000
G01 X166.214712 Y87.647725 Z-0.125000
G01 X171.330655 Y87.647725 Z-0.125000
G01 X171.330655 Y70.361377 Z-0.125000
G00 Z5.000000

(End cutting path id: path4275)


(Start cutting path id: path4271)
(DuduZanette)
(Change tool to Default tool)

G00 Z5.000000
G00 X149.409345 Y72.066691

G01 Z-0.125000 F100.0(Penetrate)
G03 X149.187959 Y73.081059 Z-0.125000 I-2.434554 J0.000000 F400.000000
G03 X148.607703 Y73.815730 Z-0.125000 I-1.799430 J-0.824739
G03 X147.763843 Y74.338072 Z-0.125000 I-2.620963 J-3.291433
G03 X145.823813 Y75.112937 Z-0.125000 I-7.874089 J-16.898294
G02 X143.848811 Y75.836257 Z-0.125000 I12.340463 J36.753263
G02 X142.558938 Y76.410142 Z-0.125000 I6.449709 J16.232978
G02 X139.403768 Y79.040154 Z-0.125000 I3.835498 J7.808967
G02 X138.434115 Y81.977919 Z-0.125000 I3.965460 J2.937765
G02 X138.702020 Y83.651202 Z-0.125000 I5.359463 J0.000000
G02 X139.454390 Y85.082467 Z-0.125000 I4.635763 J-1.523491
G02 X140.641466 Y86.236734 Z-0.125000 I4.481568 J-3.421411
G02 X142.369456 Y87.181317 Z-0.125000 I4.660492 J-6.472898
G02 X144.289474 Y87.734050 Z-0.125000 I3.636937 J-9.022432
G02 X146.596305 Y87.939232 Z-0.125000 I2.306831 J-12.865064
G02 X148.837022 Y87.718132 Z-0.125000 I-0.000000 J-11.464741
G02 X150.691976 Y87.123016 Z-0.125000 I-1.677330 J-8.416634
G02 X152.339243 Y86.100746 Z-0.125000 I-2.961410 J-6.610285
G02 X153.519591 Y84.790960 Z-0.125000 I-3.811939 J-4.621970
G02 X154.259292 Y83.208838 Z-0.125000 I-4.763570 J-3.191128
G02 X154.525288 Y81.351181 Z-0.125000 I-6.353732 J-1.857658
G01 X149.423919 Y81.351181 Z-0.125000
G03 X149.194671 Y82.545593 Z-0.125000 I-3.226144 J-0.000000
G03 X148.622277 Y83.362579 Z-0.125000 I-2.016132 J-0.803529
G03 X147.755290 Y83.869770 Z-0.125000 I-1.637628 J-1.804737
G03 X146.479702 Y84.076769 Z-0.125000 I-1.275588 J-3.826771
G03 X145.170811 Y83.895820 Z-0.125000 I0.000000 J-4.824391
G03 X144.307976 Y83.464605 Z-0.125000 I0.697524 J-2.474547
G03 X143.722500 Y82.766963 Z-0.125000 I1.244091 J-1.638563
G03 X143.520908 Y81.934195 Z-0.125000 I1.619270 J-0.832768
G03 X143.716845 Y81.214651 Z-0.125000 I1.419161 J0.000000
G03 X144.395428 Y80.447509 Z-0.125000 I2.307251 J1.357206
G03 X145.326399 Y79.900409 Z-0.125000 I2.893333 J3.857787
G03 X147.470826 Y79.077429 Z-0.125000 I8.879031 J19.930627
G02 X149.629993 Y78.283321 Z-0.125000 I-7.807080 J-24.559756
G02 X151.085509 Y77.561593 Z-0.125000 I-4.970151 J-11.851889
G02 X153.663959 Y75.081595 Z-0.125000 I-3.709624 J-6.437292
G02 X154.525288 Y72.095842 Z-0.125000 I-4.744311 J-2.985753
G02 X153.956157 Y69.594943 Z-0.125000 I-5.779341 J-0.000000
G02 X152.426441 Y67.723240 Z-0.125000 I-4.627997 J2.221437
G02 X150.168440 Y66.608480 Z-0.125000 I-4.037529 J5.333989
G02 X146.669183 Y66.134529 Z-0.125000 I-3.499257 J12.680796
G02 X144.140758 Y66.380300 Z-0.125000 I0.000000 J13.128718
G02 X141.990497 Y67.052774 Z-0.125000 I1.988720 J10.133017
G02 X140.097846 Y68.211784 Z-0.125000 I3.533255 J7.894611
G02 X138.842225 Y69.588885 Z-0.125000 I3.825882 J4.749366
G02 X138.071987 Y71.289365 Z-0.125000 I5.236092 J3.396387
G02 X137.792800 Y73.305594 Z-0.125000 I7.140803 J2.016229
G01 X142.923320 Y73.305594 Z-0.125000
G03 X143.191043 Y71.716619 Z-0.125000 I4.849264 J-0.000000
G03 X143.797841 Y70.784060 Z-0.125000 I2.184217 J0.757532
G03 X144.786051 Y70.240359 Z-0.125000 I1.651329 J1.831475
G03 X146.669183 Y69.982418 Z-0.125000 I1.883132 J6.745047
G03 X147.884089 Y70.143587 Z-0.125000 I0.000000 J4.659615
G03 X148.666004 Y70.521704 Z-0.125000 I-0.610185 J2.259340
G03 X149.206533 Y71.177372 Z-0.125000 I-1.063605 J1.427467
G03 X149.409345 Y72.066691 Z-0.125000 I-1.848392 J0.889319
G01 X149.409345 Y72.066691 Z-0.125000
G00 Z5.000000

(End cutting path id: path4271)


(Start cutting path id: path4269)
(DuduZanette)
(Change tool to Default tool)

G00 Z5.000000
G00 X130.169907 Y70.390527

G01 Z-0.125000 F100.0(Penetrate)
G01 X123.159168 Y70.390527 Z-0.125000 F400.000000
G01 X121.934839 Y66.426036 Z-0.125000
G01 X116.469088 Y66.426036 Z-0.125000
G01 X124.252318 Y87.647725 Z-0.125000
G01 X129.062180 Y87.647725 Z-0.125000
G01 X136.903712 Y66.426036 Z-0.125000
G01 X131.408810 Y66.426036 Z-0.125000
G01 X130.169907 Y70.390527 Z-0.125000
G00 Z5.000000

(End cutting path id: path4269)


(Start cutting path id: path4269)
(DuduZanette)
(Change tool to Default tool)

G00 Z5.000000
G00 X124.383498 Y74.340442

G01 Z-0.125000 F100.0(Penetrate)
G01 X128.945577 Y74.340442 Z-0.125000 F400.000000
G01 X126.657249 Y81.700989 Z-0.125000
G01 X124.383498 Y74.340442 Z-0.125000
G00 Z5.000000

(End cutting path id: path4269)


(Start cutting path id: path4267)
(DuduZanette)
(Change tool to Default tool)

G00 Z5.000000
G00 X106.528703 Y73.917759

G01 Z-0.125000 F100.0(Penetrate)
G01 X103.759389 Y73.917759 Z-0.125000 F400.000000
G01 X103.759389 Y66.426036 Z-0.125000
G01 X98.643447 Y66.426036 Z-0.125000
G01 X98.643447 Y87.647725 Z-0.125000
G01 X106.995114 Y87.647725 Z-0.125000
G02 X110.596379 Y87.146345 Z-0.125000 I0.000000 J-13.184100
G02 X112.898126 Y85.971562 Z-0.125000 I-1.819130 J-6.406501
G02 X114.431982 Y84.007066 Z-0.125000 I-3.234716 J-4.106687
G02 X115.026127 Y81.234578 Z-0.125000 I-6.171629 J-2.772488
G02 X114.766557 Y79.093066 Z-0.125000 I-8.963773 J0.000000
G02 X114.122455 Y77.561593 Z-0.125000 I-5.163050 J1.270275
G02 X113.048666 Y76.309383 Z-0.125000 I-4.389618 J2.677662
G02 X111.323991 Y75.200390 Z-0.125000 I-5.123374 J6.072148
G01 X115.754894 Y66.644664 Z-0.125000
G01 X115.754894 Y66.426036 Z-0.125000
G01 X110.274566 Y66.426036 Z-0.125000
G01 X106.528703 Y73.917759 Z-0.125000
G00 Z5.000000

(End cutting path id: path4267)


(Start cutting path id: path4267)
(DuduZanette)
(Change tool to Default tool)

G00 Z5.000000
G00 X103.759389 Y77.867674

G01 Z-0.125000 F100.0(Penetrate)
G01 X106.995114 Y77.867674 Z-0.125000 F400.000000
G03 X108.355132 Y78.096724 Z-0.125000 I0.000000 J4.152179
G03 X109.181416 Y78.625592 Z-0.125000 I-0.688154 J1.985059
G03 X109.708529 Y79.485226 Z-0.125000 I-1.694251 J1.630310
G03 X109.924757 Y80.768167 Z-0.125000 I-3.697894 J1.282941
G03 X109.708528 Y82.051110 Z-0.125000 I-3.914131 J-0.000000
G03 X109.181416 Y82.910741 Z-0.125000 I-2.221347 J-0.770670
G03 X108.337119 Y83.463606 Z-0.125000 I-1.580802 J-1.492983
G03 X106.995114 Y83.697810 Z-0.125000 I-1.342005 J-3.727793
G01 X103.759389 Y83.697810 Z-0.125000
G01 X103.759389 Y77.867674 Z-0.125000
G00 Z5.000000

(End cutting path id: path4267)


(Start cutting path id: path4291)
(DuduZanette)
(Change tool to Default tool)

G00 Z5.000000
G00 X61.956773 Y100.322169

G01 Z-0.125000 F100.0(Penetrate)
G01 X61.956773 Y92.257161 Z-0.125000 F400.000000
G01 X56.226372 Y92.257161 Z-0.125000
G01 X56.226372 Y116.027711 Z-0.125000
G01 X65.711736 Y116.027711 Z-0.125000
G02 X68.374657 Y115.750903 Z-0.125000 I-0.000000 J-12.947177
G02 X70.527887 Y115.015504 Z-0.125000 I-1.923400 J-9.151673
G02 X72.414781 Y113.775190 Z-0.125000 I-3.463538 J-7.324518
G02 X73.776744 Y112.158468 Z-0.125000 I-4.689322 J-5.332427
G02 X74.629100 Y110.225257 Z-0.125000 I-6.160091 J-3.870503
G02 X74.935886 Y107.962703 Z-0.125000 I-8.189805 J-2.262554
G02 X74.259184 Y104.801436 Z-0.125000 I-7.722400 J0.000000
G02 X72.438019 Y102.395561 Z-0.125000 I-6.137878 J2.753945
G02 X69.734398 Y100.934332 Z-0.125000 I-4.946201 J5.919862
G02 X65.613782 Y100.322169 Z-0.125000 I-4.120616 J13.562348
G01 X61.956773 Y100.322169 Z-0.125000
G00 Z5.000000

(End cutting path id: path4291)


(Start cutting path id: path4291)
(DuduZanette)
(Change tool to Default tool)

G00 Z5.000000
G00 X61.956773 Y104.746496

G01 Z-0.125000 F100.0(Penetrate)
G01 X65.711736 Y104.746496 Z-0.125000 F400.000000
G03 X67.275942 Y104.997222 Z-0.125000 I-0.000000 J5.004683
G03 X68.242257 Y105.579119 Z-0.125000 I-0.793054 J2.410261
G03 X68.868494 Y106.521813 Z-0.125000 I-1.721979 J1.823273
G03 X69.123856 Y107.930051 Z-0.125000 I-3.755306 J1.408239
G03 X68.866703 Y109.496483 Z-0.125000 I-4.899487 J-0.000000
G03 X68.225930 Y110.591178 Z-0.125000 I-2.964190 J-1.000187
G03 X67.204040 Y111.312281 Z-0.125000 I-2.104092 J-1.897129
G03 X65.777041 Y111.603384 Z-0.125000 I-1.467429 J-3.550235
G01 X61.956773 Y111.603384 Z-0.125000
G01 X61.956773 Y104.746496 Z-0.125000
G00 Z5.000000

(End cutting path id: path4291)


(Start cutting path id: path4289)
(DuduZanette)
(Change tool to Default tool)

G00 Z5.000000
G00 X43.737037 Y108.125962

G01 Z-0.125000 F100.0(Penetrate)
G01 X47.622611 Y116.027711 Z-0.125000 F400.000000
G01 X54.169308 Y116.027711 Z-0.125000
G01 X47.524654 Y104.240391 Z-0.125000
G01 X54.348891 Y92.257161 Z-0.125000
G01 X47.736892 Y92.257161 Z-0.125000
G01 X43.737037 Y100.305842 Z-0.125000
G01 X39.737185 Y92.257161 Z-0.125000
G01 X33.141511 Y92.257161 Z-0.125000
G01 X39.949423 Y104.240391 Z-0.125000
G01 X33.321096 Y116.027711 Z-0.125000
G01 X39.851466 Y116.027711 Z-0.125000
G01 X43.737037 Y108.125962 Z-0.125000
G00 Z5.000000

(End cutting path id: path4289)


(Start cutting path id: path4287)
(DuduZanette)
(Change tool to Default tool)

G00 Z5.000000
G00 X30.872207 Y102.330259

G01 Z-0.125000 F100.0(Penetrate)
G01 X21.860294 Y102.330259 Z-0.125000 F400.000000
G01 X21.860294 Y96.665160 Z-0.125000
G01 X32.504799 Y96.665160 Z-0.125000
G01 X32.504799 Y92.257161 Z-0.125000
G01 X16.129893 Y92.257161 Z-0.125000
G01 X16.129893 Y116.027711 Z-0.125000
G01 X32.537451 Y116.027711 Z-0.125000
G01 X32.537451 Y111.603384 Z-0.125000
G01 X21.860294 Y111.603384 Z-0.125000
G01 X21.860294 Y106.591326 Z-0.125000
G01 X30.872207 Y106.591326 Z-0.125000
G01 X30.872207 Y102.330259 Z-0.125000
G00 Z5.000000

(End cutting path id: path4287)


(Start cutting path id: path4261)
(DuduZanette)
(Change tool to Default tool)

G00 Z5.000000
G00 X48.416834 Y87.647725

G01 Z-0.125000 F100.0(Penetrate)
G01 X48.416834 Y73.757432 Z-0.125000 F400.000000
G02 X48.140180 Y71.470630 Z-0.125000 I-9.589582 J0.000000
G02 X47.411136 Y69.661760 Z-0.125000 I-6.675812 J1.639254
G02 X46.198879 Y68.165900 Z-0.125000 I-5.491171 J3.210950
G02 X44.525217 Y67.038200 Z-0.125000 I-4.700994 J5.171099
G02 X42.587514 Y66.386837 Z-0.125000 I-3.587410 J7.464122
G02 X40.079741 Y66.134529 Z-0.125000 I-2.507773 J12.336614
G02 X36.427894 Y66.720426 Z-0.125000 I0.000000 J11.673758
G02 X33.972674 Y68.145924 Z-0.125000 I2.151757 J6.533237
G02 X32.358142 Y70.435661 Z-0.125000 I4.247224 J4.708874
G02 X31.698922 Y73.655403 Z-0.125000 I8.065957 J3.328806
G01 X31.698922 Y87.647725 Z-0.125000
G01 X36.844016 Y87.647725 Z-0.125000
G01 X36.844016 Y73.553377 Z-0.125000
G03 X37.870685 Y71.032961 Z-0.125000 I3.843982 J0.096502
G03 X40.079741 Y70.069870 Z-0.125000 I2.209056 J2.051925
G03 X41.555474 Y70.329857 Z-0.125000 I-0.000000 J4.318251
G03 X42.484672 Y70.944391 Z-0.125000 I-0.815662 J2.243069
G03 X43.038507 Y71.922334 Z-0.125000 I-1.759633 J1.642324
G03 X43.300891 Y73.786582 Z-0.125000 I-6.491575 J1.864248
G01 X43.300891 Y87.647725 Z-0.125000
G01 X48.416834 Y87.647725 Z-0.125000
G00 Z5.000000

(End cutting path id: path4261)


(Start cutting path id: path4259)
(DuduZanette)
(Change tool to Default tool)

G00 Z5.000000
G00 X21.029774 Y70.361377

G01 Z-0.125000 F100.0(Penetrate)
G01 X29.935305 Y70.361377 Z-0.125000 F400.000000
G01 X29.935305 Y66.426036 Z-0.125000
G01 X15.913831 Y66.426036 Z-0.125000
G01 X15.913831 Y87.647725 Z-0.125000
G01 X21.029774 Y87.647725 Z-0.125000
G01 X21.029774 Y70.361377 Z-0.125000
G00 Z5.000000

(End cutting path id: path4259)


(Start cutting path id: path4278)
(DuduZanette)
(Change tool to Default tool)

G00 Z5.000000
G00 X50.245342 Y19.635189

G01 Z-0.125000 F100.0(Penetrate)
G01 X13.544267 Y19.635189 Z-0.125000 F400.000000
G01 X13.544267 Y26.019084 Z-0.125000
G01 X30.449880 Y40.295796 Z-0.125000
G03 X35.779003 Y46.417645 Z-0.125000 I-24.160412 J26.412299
G03 X36.699177 Y49.378338 Z-0.125000 I-4.302983 J2.960693
G03 X36.259432 Y51.918580 Z-0.125000 I-7.556882 J-0.000000
G03 X35.218130 Y53.527870 Z-0.125000 I-3.934461 J-1.404284
G03 X33.565584 Y54.523468 Z-0.125000 I-3.023608 J-3.149453
G03 X30.919480 Y54.949738 Z-0.125000 I-2.646104 J-7.999807
G03 X28.368099 Y54.431027 Z-0.125000 I-0.000000 J-6.534090
G03 X26.404092 Y53.034568 Z-0.125000 I2.185840 J-5.153544
G03 X25.142324 Y50.964377 Z-0.125000 I4.582488 J-4.212612
G03 X24.670183 Y48.304682 Z-0.125000 I7.255315 J-2.659695
G01 X12.460574 Y48.304682 Z-0.125000
G02 X13.066598 Y51.993623 Z-0.125000 I11.530534 J-0.000000
G02 X14.880822 Y55.472056 Z-0.125000 I12.030876 J-4.062534
G02 X17.665361 Y58.323533 Z-0.125000 I11.373585 J-8.321266
G02 X21.599719 Y60.637208 Z-0.125000 I11.264343 J-14.652805
G02 X26.001464 Y61.995761 Z-0.125000 I8.440196 J-19.536283
G02 X31.208465 Y62.494339 Z-0.125000 I5.207002 J-26.940879
G02 X39.429224 Y61.516886 Z-0.125000 I0.000000 J-35.058588
G02 X44.321152 Y59.331409 Z-0.125000 I-3.443366 J-14.275301
G02 X47.684360 Y55.503509 Z-0.125000 I-5.814634 J-8.500172
G02 X48.944909 Y50.248867 Z-0.125000 I-10.321802 J-5.254641
G02 X48.660734 Y47.818719 Z-0.125000 I-10.532914 J-0.000000
G02 X47.788971 Y45.373894 Z-0.125000 I-11.534056 J2.734919
G02 X46.447518 Y43.151994 Z-0.125000 I-13.541809 J6.659853
G02 X44.176658 Y40.411866 Z-0.125000 I-22.938126 J16.698754
G02 X41.643943 Y37.950672 Z-0.125000 I-27.566278 J25.833590
G02 X36.337946 Y33.476634 Z-0.125000 I-96.686275 J109.281977
G01 X29.546802 Y27.179792 Z-0.125000
G01 X50.245342 Y27.179792 Z-0.125000
G01 X50.245342 Y19.635189 Z-0.125000
G00 Z5.000000

(End cutting path id: path4278)


(Start cutting path id: path26)
(DuduZanette)
(Change tool to Default tool)

G00 Z5.000000
G00 X53.769588 Y155.716243

G01 Z-0.125000 F100.0(Penetrate)
G01 X71.352299 Y142.515064 Z-0.125000 F400.000000
G01 X115.668856 Y157.580297 Z-0.125000
G00 Z5.000000

(End cutting path id: path26)


(Start cutting path id: path18)
(DuduZanette)
(Change tool to Default tool)

G00 Z5.000000
G00 X170.441143 Y108.279227

G01 Z-0.125000 F100.0(Penetrate)
G01 X172.665759 Y152.770137 Z-0.125000 F400.000000
G01 X139.313240 Y189.199796 Z-0.125000
G00 Z5.000000

(End cutting path id: path18)


(Start cutting path id: path38)
(DuduZanette)
(Change tool to Default tool)

G00 Z5.000000
G00 X69.508428 Y245.399761

G01 Z-0.125000 F100.0(Penetrate)
G01 X77.873466 Y236.262231 Z-0.125000 F400.000000
G01 X77.872498 Y236.261163 Z-0.125000
G01 X77.872420 Y236.261077 Z-0.125000
G02 X78.458847 Y233.782167 Z-0.125000 I-1.928257 J-1.764981
G02 X75.024730 Y225.645177 Z-0.125000 I-34.699445 J9.851319
G02 X69.927616 Y217.901259 Z-0.125000 I-66.969745 J38.530621
G02 X61.213742 Y207.329622 Z-0.125000 I-116.239345 J86.935403
G02 X51.402719 Y197.500007 Z-0.125000 I-107.481527 J97.467189
G02 X44.141621 Y191.663395 Z-0.125000 I-51.098644 J56.134872
G02 X36.381857 Y187.555620 Z-0.125000 I-19.738183 J27.903124
G02 X33.925187 Y188.026184 Z-0.125000 I-0.842262 J2.250846
G01 X24.257478 Y195.260788 Z-0.125000
G00 Z5.000000

(End cutting path id: path38)


(Start cutting path id: path42)
(DuduZanette)
(Change tool to Default tool)

G00 Z5.000000
G00 X22.201956 Y214.771607

G01 Z-0.125000 F100.0(Penetrate)
G01 X33.314685 Y205.526679 Z-0.125000 F400.000000
G01 X33.323936 Y205.517170 Z-0.125000
G01 X33.333330 Y205.507825 Z-0.125000
G01 X33.380338 Y205.468025 Z-0.125000
G03 X33.429739 Y205.431105 Z-0.125000 I0.715509 J0.905884
G01 X33.433430 Y205.427875 Z-0.125000
G01 X33.434011 Y205.428516 Z-0.125000
G00 Z5.000000

(End cutting path id: path42)


(Start cutting path id: path44)
(DuduZanette)
(Change tool to Default tool)

G00 Z5.000000
G00 X39.023541 Y227.452304

G01 Z-0.125000 F100.0(Penetrate)
G03 X44.658372 Y234.205830 Z-0.125000 I-79.028926 J71.665592 F400.000000
G03 X47.988040 Y239.060231 Z-0.125000 I-44.173810 J33.868250
G03 X50.344042 Y244.132309 Z-0.125000 I-21.079163 J12.874587
G03 X50.003812 Y245.429986 Z-0.125000 I-1.165202 J0.387942
G03 X48.679148 Y245.642081 Z-0.125000 I-0.824972 J-0.909734
G03 X43.860924 Y242.802813 Z-0.125000 I10.050093 J-22.562840
G03 X39.354266 Y239.015739 Z-0.125000 I33.506869 J-44.448550
G03 X33.182266 Y232.749332 Z-0.125000 I72.856927 J-77.931999
G03 X27.547444 Y225.995818 Z-0.125000 I79.028952 J-71.665616
G03 X24.217755 Y221.141392 Z-0.125000 I44.174348 J-33.868674
G03 X21.861728 Y216.069285 Z-0.125000 I21.079482 J-12.874807
G03 X22.201956 Y214.771607 Z-0.125000 I1.165199 J-0.387945
G03 X23.526622 Y214.559514 Z-0.125000 I0.824970 J0.909733
G03 X28.344871 Y217.398810 Z-0.125000 I-10.050318 J22.563163
G03 X32.851552 Y221.185907 Z-0.125000 I-33.507320 J44.449067
G03 X39.023541 Y227.452304 Z-0.125000 I-72.856964 J77.932013
G01 X39.023541 Y227.452304 Z-0.125000
G00 Z5.000000

(End cutting path id: path44)


(Start cutting path id: path42)
(DuduZanette)
(Change tool to Default tool)

G00 Z5.000000
G00 X60.308884 Y235.255002

G01 Z-0.125000 F100.0(Penetrate)
G01 X60.308768 Y235.254874 Z-0.125000 F400.000000
G01 X50.003812 Y245.429986 Z-0.125000
G00 Z5.000000

(End cutting path id: path42)


(Start cutting path id: path40-3)
(DuduZanette)
(Change tool to Default tool)

G00 Z5.000000
G00 X67.809751 Y246.002255

G01 Z-0.125000 F100.0(Penetrate)
G03 X64.247504 Y245.069196 Z-0.125000 I0.076384 J-7.558152 F400.000000
G03 X55.929340 Y239.560788 Z-0.125000 I29.080630 J-52.948992
G01 X60.190060 Y235.353808 Z-0.125000
G02 X60.625574 Y233.877643 Z-0.125000 I-0.993328 J-1.095390
G02 X58.575424 Y228.879203 Z-0.125000 I-20.322593 J5.415809
G02 X55.436674 Y224.082433 Z-0.125000 I-40.582339 J23.129618
G02 X50.005671 Y217.484618 Z-0.125000 I-71.569305 J53.378221
G02 X44.085088 Y211.541964 Z-0.125000 I-66.182745 J60.016318
G02 X39.659999 Y207.958048 Z-0.125000 I-32.272773 J35.323640
G02 X34.884149 Y205.345501 Z-0.125000 I-13.162359 J18.389868
G02 X33.315214 Y205.527208 Z-0.125000 I-0.616253 J1.543289
G01 X33.314685 Y205.526679 Z-0.125000
G01 X33.310585 Y205.529779 Z-0.125000
G02 X33.261329 Y205.566840 Z-0.125000 I0.593580 J0.840156
G01 X33.214465 Y205.606779 Z-0.125000
G01 X33.205123 Y205.615974 Z-0.125000
G01 X33.195865 Y205.625379 Z-0.125000
G01 X28.613174 Y209.438062 Z-0.125000
G03 X23.261476 Y198.404950 Z-0.125000 I43.725058 J-28.023681
G03 X24.014489 Y195.461670 Z-0.125000 I2.604399 J-0.901653
G03 X26.552193 Y194.977284 Z-0.125000 I1.665689 J1.836838
G03 X34.598444 Y199.243391 Z-0.125000 I-12.529999 J33.353692
G03 X42.126012 Y205.292382 Z-0.125000 I-45.553187 J64.396192
G03 X52.258760 Y215.441312 Z-0.125000 I-100.513278 J110.485775
G03 X61.371596 Y226.515316 Z-0.125000 I-110.653653 J100.343760
G03 X66.657778 Y234.596492 Z-0.125000 I-63.241692 J47.138148
G03 X70.118986 Y243.020021 Z-0.125000 I-30.952613 J17.641221
G03 X69.389496 Y245.498392 Z-0.125000 I-2.395174 J0.641544
G03 X68.753251 Y245.862766 Z-0.125000 I-1.146542 J-1.264342
G03 X67.809748 Y246.002237 Z-0.125000 I-0.912654 J-2.912921
G01 X67.809751 Y246.002255 Z-0.125000
G00 Z5.000000

(End cutting path id: path40-3)


(Footer)
M5
G00 X0.0000 Y0.0000
M2
(Using default footer. To add your own footer create file "footer" in the output dir.)
(end)
%