%
(Header)
(Generated by gcodetools from Inkscape.)
(Using default header. To add your own header create file "header" in the output dir.)
M3
(Header end.)
G21 (All units in mm)

(Start cutting path id: path77)
(ZZZanette)
(Change tool to Default tool)

G00 Z5.000000
G00 X149.622615 Y140.193612

G01 Z-0.125000 F100.0(Penetrate)
G01 X159.091817 Y140.193612 Z-0.125000 F400.000000
G01 X159.091817 Y143.280258 Z-0.125000
G01 X153.049564 Y143.280258 Z-0.125000
G01 X153.049564 Y156.446736 Z-0.125000
G01 X149.622615 Y156.446736 Z-0.125000
G01 X149.622615 Y140.193612 Z-0.125000
G00 Z5.000000

(End cutting path id: path77)


(Start cutting path id: path75)
(ZZZanette)
(Change tool to Default tool)

G00 Z5.000000
G00 X143.197084 Y156.446736

G01 Z-0.125000 F100.0(Penetrate)
G01 X143.197084 Y140.193612 Z-0.125000 F400.000000
G01 X146.624033 Y140.193612 Z-0.125000
G01 X146.624033 Y156.446736 Z-0.125000
G01 X143.197084 Y156.446736 Z-0.125000
G00 Z5.000000

(End cutting path id: path75)


(Start cutting path id: path73)
(ZZZanette)
(Change tool to Default tool)

G00 Z5.000000
G00 X130.413659 Y140.965273

G01 Z-0.125000 F100.0(Penetrate)
G03 X131.910254 Y140.331026 Z-0.125000 I3.118804 J5.276425 F400.000000
G03 X134.719892 Y139.952467 Z-0.125000 I2.809638 J10.237180
G03 X139.519350 Y141.896937 Z-0.125000 I0.000000 J6.895390
G03 X140.829782 Y144.992382 Z-0.125000 I-3.000747 J3.095445
G03 X139.875452 Y147.669277 Z-0.125000 I-4.231512 J0.000000
G03 X136.906826 Y149.839383 Z-0.125000 I-5.652946 J-4.617485
G02 X134.607869 Y151.110590 Z-0.125000 I3.964317 J9.883815
G02 X134.088611 Y152.130252 Z-0.125000 I0.741520 J1.019662
G02 X134.514442 Y153.046183 Z-0.125000 I1.197965 J0.000000
G02 X136.298092 Y153.697690 Z-0.125000 I1.783650 J-2.115823
G02 X138.511432 Y153.334086 Z-0.125000 I0.000000 J-6.918344
G02 X139.454493 Y152.926029 Z-0.125000 I-1.989319 J-5.891309
G01 X140.221047 Y155.867989 Z-0.125000
G03 X138.844054 Y156.381488 Z-0.125000 I-2.948381 J-5.803337
G03 X136.343184 Y156.687879 Z-0.125000 I-2.500870 J-10.053272
G03 X132.026983 Y155.032572 Z-0.125000 I-0.000000 J-6.454884
G03 X130.594025 Y151.816765 Z-0.125000 I2.891936 J-3.215807
G03 X131.734254 Y149.005382 Z-0.125000 I4.036030 J0.000000
G03 X134.787529 Y146.993880 Z-0.125000 I6.074375 J5.897295
G02 X136.854726 Y145.775283 Z-0.125000 I-2.343232 J-6.337668
G02 X137.335196 Y144.727124 Z-0.125000 I-0.903061 J-1.048159
G02 X136.782845 Y143.601932 Z-0.125000 I-1.422239 J0.000000
G02 X134.922803 Y142.966771 Z-0.125000 I-1.860043 J2.405946
G02 X132.626782 Y143.322380 Z-0.125000 I-0.000000 J7.590012
G02 X131.112577 Y143.979576 Z-0.125000 I2.448021 J7.713334
G01 X130.413659 Y140.965273 Z-0.125000
G00 Z5.000000

(End cutting path id: path73)


(Start cutting path id: path71)
(ZZZanette)
(Change tool to Default tool)

G00 Z5.000000
G00 X124.100856 Y144.365407

G01 Z-0.125000 F100.0(Penetrate)
G01 X125.273233 Y140.193612 Z-0.125000 F400.000000
G01 X128.970731 Y140.193612 Z-0.125000
G01 X124.236130 Y156.446736 Z-0.125000
G01 X119.749532 Y156.446736 Z-0.125000
G01 X115.105113 Y140.193612 Z-0.125000
G01 X118.667337 Y140.193612 Z-0.125000
G01 X119.726986 Y144.365407 Z-0.125000
G01 X124.100856 Y144.365407 Z-0.125000
G00 Z5.000000

(End cutting path id: path71)


(Start cutting path id: path71)
(ZZZanette)
(Change tool to Default tool)

G00 Z5.000000
G00 X120.222992 Y147.114452

G01 Z-0.125000 F100.0(Penetrate)
G01 X121.147366 Y150.562815 Z-0.125000 F400.000000
G03 X121.493265 Y152.112881 Z-0.125000 I-49.075271 J11.764834
G02 X121.823738 Y153.697690 Z-0.125000 I450.105536 J-93.031457
G01 X121.891375 Y153.697690 Z-0.125000
G02 X122.251517 Y152.151692 Z-0.125000 I-120.217668 J-28.819734
G03 X122.635384 Y150.562815 Z-0.125000 I54.582422 J12.346107
G01 X123.582304 Y147.114452 Z-0.125000
G01 X120.222992 Y147.114452 Z-0.125000
G00 Z5.000000

(End cutting path id: path71)


(Start cutting path id: path69)
(ZZZanette)
(Change tool to Default tool)

G00 Z5.000000
G00 X106.041735 Y153.697690

G01 Z-0.125000 F100.0(Penetrate)
G02 X106.403927 Y153.765791 Z-0.125000 I0.527517 J-1.808387 F400.000000
G02 X107.597389 Y153.818263 Z-0.125000 I1.193462 J-13.546156
G02 X109.398293 Y153.151459 Z-0.125000 I0.000000 J-2.765342
G02 X110.122510 Y151.575622 Z-0.125000 I-1.352338 J-1.575837
G02 X109.405798 Y149.993626 Z-0.125000 I-2.104322 J-0.000000
G02 X107.394478 Y149.236522 Z-0.125000 I-2.011319 J2.293080
G01 X106.041735 Y149.236522 Z-0.125000
G01 X106.041735 Y153.697690 Z-0.125000
G00 Z5.000000

(End cutting path id: path69)


(Start cutting path id: path67)
(ZZZanette)
(Change tool to Default tool)

G00 Z5.000000
G00 X92.424116 Y153.770034

G01 Z-0.125000 F100.0(Penetrate)
G02 X92.811344 Y153.839645 Z-0.125000 I0.609909 J-2.280924 F400.000000
G02 X93.889588 Y153.890606 Z-0.125000 I1.078244 J-11.381511
G02 X95.692657 Y153.283330 Z-0.125000 I0.000000 J-2.980394
G02 X96.324526 Y152.009681 Z-0.125000 I-0.967705 J-1.273649
G02 X95.697804 Y150.737655 Z-0.125000 I-1.604244 J-0.000000
G02 X93.551402 Y150.008184 Z-0.125000 I-2.146402 J2.793060
G01 X92.424116 Y150.008184 Z-0.125000
G01 X92.424116 Y153.770034 Z-0.125000
G00 Z5.000000

(End cutting path id: path67)


(Start cutting path id: path67)
(ZZZanette)
(Change tool to Default tool)

G00 Z5.000000
G00 X92.424116 Y147.379711

G01 Z-0.125000 F100.0(Penetrate)
G01 X93.596494 Y147.379711 Z-0.125000 F400.000000
G02 X95.740796 Y146.775082 Z-0.125000 I0.000000 J-4.104671
G02 X96.685257 Y145.088840 Z-0.125000 I-1.033077 J-1.686242
G02 X95.704142 Y143.296128 Z-0.125000 I-2.128396 J0.000000
G02 X93.754314 Y142.725626 Z-0.125000 I-1.949828 J3.046753
G02 X92.914250 Y142.738515 Z-0.125000 I-0.000000 J27.381997
G02 X92.424116 Y142.797970 Z-0.125000 I0.084239 J2.744479
G01 X92.424116 Y147.379711 Z-0.125000
G00 Z5.000000

(End cutting path id: path67)


(Start cutting path id: path67)
(ZZZanette)
(Change tool to Default tool)

G00 Z5.000000
G00 X89.019713 Y140.265954

G01 Z-0.125000 F100.0(Penetrate)
G03 X90.184984 Y140.127567 Z-0.125000 I2.411967 J15.334457 F400.000000
G03 X92.739756 Y140.024811 Z-0.125000 I2.554772 J31.707503
G03 X96.941348 Y140.569339 Z-0.125000 I0.000000 J16.482037
G03 X98.714373 Y141.495790 Z-0.125000 I-1.149190 J4.359114
G03 X99.806273 Y142.881221 Z-0.125000 I-2.794902 J3.325742
G03 X100.292573 Y144.944154 Z-0.125000 I-4.132436 J2.062933
G03 X99.336260 Y147.606130 Z-0.125000 I-4.183071 J0.000000
G03 X97.271446 Y148.947149 Z-0.125000 I-3.162074 J-2.608613
G01 X97.271446 Y148.995377 Z-0.125000
G03 X99.193796 Y150.582919 Z-0.125000 I-1.621823 J3.921516
G03 X99.751475 Y152.443741 Z-0.125000 I-2.825685 J1.860822
G03 X99.182393 Y154.457235 Z-0.125000 I-3.846557 J0.000000
G03 X97.947818 Y155.650959 Z-0.125000 I-2.941979 J-1.807384
G03 X96.310223 Y156.298147 Z-0.125000 I-2.519940 J-3.980846
G03 X93.461220 Y156.567308 Z-0.125000 I-2.849003 J-14.943451
G03 X90.549414 Y156.436952 Z-0.125000 I-0.000000 J-32.586248
G03 X89.019713 Y156.205591 Z-0.125000 I1.140727 J-12.714897
G01 X89.019713 Y140.265954 Z-0.125000
G00 Z5.000000

(End cutting path id: path67)


(Start cutting path id: path69)
(ZZZanette)
(Change tool to Default tool)

G00 Z5.000000
G00 X102.637331 Y140.193612

G01 Z-0.125000 F100.0(Penetrate)
G01 X106.041735 Y140.193612 Z-0.125000 F400.000000
G01 X106.041735 Y146.583934 Z-0.125000
G01 X107.056292 Y146.583934 Z-0.125000
G02 X108.454385 Y145.998799 Z-0.125000 I-0.034733 J-2.045821
G02 X109.558867 Y143.979576 Z-0.125000 I-2.776271 J-2.830254
G03 X110.312882 Y140.951904 Z-0.125000 I45.912969 J9.826499
G03 X110.595970 Y140.193612 Z-0.125000 I4.871300 J1.386580
G01 X114.113102 Y140.193612 Z-0.125000
G02 X113.707934 Y141.386370 Z-0.125000 I5.205631 J2.433495
G03 X112.895634 Y144.799467 Z-0.125000 I-106.942623 J-23.648613
G03 X112.048512 Y146.791834 Z-0.125000 I-6.967347 J-1.786126
G03 X110.866519 Y147.813770 Z-0.125000 I-2.215191 J-1.367611
G01 X110.866519 Y147.886114 Z-0.125000
G03 X112.549238 Y149.096259 Z-0.125000 I-1.489431 J3.846062
G03 X113.549460 Y151.864994 Z-0.125000 I-3.331988 J2.768735
G03 X113.129273 Y153.919815 Z-0.125000 I-5.234398 J0.000000
G03 X112.129080 Y155.265128 Z-0.125000 I-3.298560 J-1.407905
G03 X110.371230 Y156.179888 Z-0.125000 I-2.784066 J-3.203637
G03 X107.214112 Y156.567308 Z-0.125000 I-3.157117 J-12.670103
G03 X104.359443 Y156.446822 Z-0.125000 I-0.000000 J-33.878167
G03 X102.637331 Y156.205591 Z-0.125000 I1.337344 J-15.814664
G01 X102.637331 Y140.193612 Z-0.125000
G00 Z5.000000

(End cutting path id: path69)


(Start cutting path id: path60)
(ZZZanette)
(Change tool to Default tool)

G00 Z5.000000
G00 X89.145978 Y159.937100

G01 Z-0.125000 F100.0(Penetrate)
G01 X105.708881 Y159.937100 Z-0.125000 F400.000000
G01 X105.708881 Y165.336004 Z-0.125000
G01 X95.140171 Y165.336004 Z-0.125000
G01 X95.140171 Y188.365706 Z-0.125000
G01 X89.145978 Y188.365706 Z-0.125000
G01 X89.145978 Y159.937100 Z-0.125000
G00 Z5.000000

(End cutting path id: path60)


(Start cutting path id: path4262)
(ZZZanette)
(Change tool to Default tool)

G00 Z5.000000
G00 X82.886404 Y189.068890

G01 Z-0.125000 F100.0(Penetrate)
G01 X69.024945 Y194.055487 Z-0.125000 F400.000000
G00 Z5.000000

(End cutting path id: path4262)


(Start cutting path id: path14543)
(ZZZanette)
(Change tool to Default tool)

G00 Z5.000000
G00 X78.359396 Y211.528096

G01 Z-0.125000 F100.0(Penetrate)
G01 X67.970366 Y211.528096 Z-0.125000 F400.000000
G01 X67.970366 Y225.891388 Z-0.125000
G01 X78.359396 Y225.891388 Z-0.125000
G01 X78.359396 Y223.113263 Z-0.125000
G01 X71.655240 Y223.113263 Z-0.125000
G01 X71.655240 Y220.634172 Z-0.125000
G01 X77.877083 Y220.634172 Z-0.125000
G01 X77.877083 Y217.856047 Z-0.125000
G01 X71.655240 Y217.856047 Z-0.125000
G01 X71.655240 Y214.306221 Z-0.125000
G01 X78.359396 Y214.306221 Z-0.125000
G01 X78.359396 Y211.528096 Z-0.125000
G01 X78.359396 Y211.528096 Z-0.125000
G00 Z5.000000

(End cutting path id: path14543)


(Start cutting path id: path14545)
(ZZZanette)
(Change tool to Default tool)

G00 Z5.000000
G00 X92.606934 Y211.528096

G01 Z-0.125000 F100.0(Penetrate)
G01 X88.555501 Y211.528096 Z-0.125000 F400.000000
G01 X86.240397 Y214.769241 Z-0.125000
G01 X83.867415 Y211.528096 Z-0.125000
G01 X79.893153 Y211.528096 Z-0.125000
G01 X84.166449 Y216.939652 Z-0.125000
G01 X79.960677 Y222.360854 Z-0.125000
G01 X84.012109 Y222.360854 Z-0.125000
G01 X86.288628 Y219.177586 Z-0.125000
G01 X88.574794 Y222.360854 Z-0.125000
G01 X92.558702 Y222.360854 Z-0.125000
G01 X88.343283 Y217.026468 Z-0.125000
G01 X92.606934 Y211.528096 Z-0.125000
G01 X92.606934 Y211.528096 Z-0.125000
G00 Z5.000000

(End cutting path id: path14545)


(Start cutting path id: path14547)
(ZZZanette)
(Change tool to Default tool)

G00 Z5.000000
G00 X102.243550 Y217.026472

G01 Z-0.125000 F100.0(Penetrate)
G03 X102.066827 Y218.549129 Z-0.125000 I-6.648028 J0.000000 F400.000000
G03 X101.703360 Y219.322284 Z-0.125000 I-2.010140 J-0.472973
G03 X101.057280 Y219.823182 Z-0.125000 I-1.251428 J-0.947025
G03 X99.995975 Y220.036108 Z-0.125000 I-1.061305 J-2.538520
G03 X99.509361 Y219.999245 Z-0.125000 I0.000000 J-3.230250
G03 X98.983117 Y219.881767 Z-0.125000 I0.594055 J-3.898468
G03 X98.476302 Y219.704007 Z-0.125000 I1.083457 J-3.900450
G03 X97.989551 Y219.457332 Z-0.125000 I1.641629 J-3.842912
G01 X97.989551 Y214.007190 Z-0.125000
G03 X98.342929 Y213.897775 Z-0.125000 I0.950034 J2.442960
G03 X98.732314 Y213.833558 Z-0.125000 I0.679048 J2.904832
G03 X99.128274 Y213.804479 Z-0.125000 I0.804728 J8.247408
G03 X99.513661 Y213.794968 Z-0.125000 I0.385387 J7.803085
G03 X100.782258 Y214.033404 Z-0.125000 I0.000000 J3.493997
G03 X101.568320 Y214.595609 Z-0.125000 I-0.711100 J1.824872
G03 X102.033043 Y215.482108 Z-0.125000 I-1.828079 J1.523381
G03 X102.243550 Y217.026468 Z-0.125000 I-5.559766 J1.544360
G01 X102.243550 Y217.026472 Z-0.125000
G00 Z5.000000

(End cutting path id: path14547)


(Start cutting path id: path14547)
(ZZZanette)
(Change tool to Default tool)

G00 Z5.000000
G00 X105.822320 Y217.093992

G01 Z-0.125000 F100.0(Penetrate)
G02 X105.710901 Y215.773476 Z-0.125000 I-7.880960 J0.000000 F400.000000
G02 X105.407530 Y214.653486 Z-0.125000 I-5.956684 J1.012402
G02 X104.911976 Y213.609459 Z-0.125000 I-6.020666 J2.218123
G02 X104.336800 Y212.839988 Z-0.125000 I-3.818006 J2.254236
G02 X103.582913 Y212.170751 Z-0.125000 I-3.732758 J3.445666
G02 X102.764450 Y211.701728 Z-0.125000 I-2.608477 J3.603253
G02 X101.865694 Y211.415585 Z-0.125000 I-1.795224 J4.084142
G02 X100.883430 Y211.315878 Z-0.125000 I-0.982264 J4.788538
G02 X99.966394 Y211.374708 Z-0.125000 I-0.000000 J7.176793
G02 X99.311090 Y211.518449 Z-0.125000 I0.488792 J3.793961
G02 X98.678097 Y211.743916 Z-0.125000 I1.845644 J6.182889
G02 X97.989551 Y212.068287 Z-0.125000 I3.180180 J7.643582
G01 X97.989551 Y207.553833 Z-0.125000
G01 X94.516895 Y207.553833 Z-0.125000
G01 X94.516895 Y222.360854 Z-0.125000
G01 X97.989551 Y222.360854 Z-0.125000
G01 X97.989551 Y221.232241 Z-0.125000
G02 X98.819321 Y221.822259 Z-0.125000 I5.904959 J-7.425939
G02 X99.619770 Y222.264391 Z-0.125000 I4.093878 J-6.466035
G02 X100.483201 Y222.551766 Z-0.125000 I1.632474 J-3.464049
G02 X101.549020 Y222.659888 Z-0.125000 I1.065819 J-5.199109
G02 X103.370932 Y222.251212 Z-0.125000 I-0.000000 J-4.265460
G02 X104.693710 Y221.174363 Z-0.125000 I-1.520366 J-3.218444
G02 X105.485472 Y219.575393 Z-0.125000 I-3.762791 J-2.858736
G02 X105.822320 Y217.093992 Z-0.125000 I-8.971246 J-2.481401
G01 X105.822320 Y217.093992 Z-0.125000
G00 Z5.000000

(End cutting path id: path14547)


(Start cutting path id: path14549)
(ZZZanette)
(Change tool to Default tool)

G00 Z5.000000
G00 X115.130970 Y214.306221

G01 Z-0.125000 F100.0(Penetrate)
G03 X115.417288 Y214.747695 Z-0.125000 I-1.895850 J1.543139 F400.000000
G03 X115.632570 Y215.299786 Z-0.125000 I-2.767546 J1.397192
G03 X115.751494 Y215.896114 Z-0.125000 I-3.240656 J0.956298
G03 X115.806210 Y216.920359 Z-0.125000 I-9.559228 J1.024245
G03 X115.754949 Y217.868574 Z-0.125000 I-8.795551 J0.000000
G03 X115.632570 Y218.521640 Z-0.125000 I-4.281015 J-0.464225
G03 X115.406488 Y219.141388 Z-0.125000 I-3.651904 J-0.981092
G03 X115.150260 Y219.553790 Z-0.125000 I-1.855603 J-0.867099
G03 X114.802256 Y219.895876 Z-0.125000 I-1.469744 J-1.147115
G03 X114.407500 Y220.113274 Z-0.125000 I-0.956706 J-1.270104
G03 X113.965579 Y220.234319 Z-0.125000 I-0.863919 J-2.286841
G03 X113.471810 Y220.277260 Z-0.125000 I-0.493769 J-2.817405
G03 X112.976357 Y220.240177 Z-0.125000 I-0.000000 J-3.328315
G03 X112.574710 Y220.142213 Z-0.125000 I0.343049 J-2.278834
G03 X112.222294 Y219.957514 Z-0.125000 I0.451557 J-1.290157
G03 X111.831950 Y219.602022 Z-0.125000 I1.415584 J-1.946422
G03 X111.566263 Y219.197456 Z-0.125000 I1.528305 J-1.293192
G03 X111.320690 Y218.569871 Z-0.125000 I3.478033 J-1.722790
G03 X111.192024 Y217.906438 Z-0.125000 I4.026871 J-1.125161
G03 X111.137410 Y216.920359 Z-0.125000 I8.874671 J-0.986079
G03 X111.184120 Y216.038653 Z-0.125000 I8.344942 J-0.000000
G03 X111.301400 Y215.376956 Z-0.125000 I4.806990 J0.510753
G03 X111.520931 Y214.758388 Z-0.125000 I3.442269 J0.873430
G03 X111.783710 Y214.335159 Z-0.125000 I1.856472 J0.859471
G03 X112.127302 Y214.006239 Z-0.125000 I1.534713 J1.259251
G03 X112.516830 Y213.785322 Z-0.125000 I1.055782 J1.407717
G03 X112.960028 Y213.659034 Z-0.125000 I0.832968 J2.082407
G03 X113.500750 Y213.611689 Z-0.125000 I0.540722 J3.064091
G03 X113.966414 Y213.651454 Z-0.125000 I0.000000 J2.746417
G03 X114.397850 Y213.766030 Z-0.125000 I-0.424816 J2.469226
G03 X114.794281 Y213.981632 Z-0.125000 I-0.584243 J1.546522
G03 X115.130970 Y214.306221 Z-0.125000 I-1.053275 J1.429452
G01 X115.130970 Y214.306221 Z-0.125000
G00 Z5.000000

(End cutting path id: path14549)


(Start cutting path id: path14549)
(ZZZanette)
(Change tool to Default tool)

G00 Z5.000000
G00 X119.404270 Y216.939652

G01 Z-0.125000 F100.0(Penetrate)
G02 X118.958361 Y214.453962 Z-0.125000 I-7.151114 J0.000000 F400.000000
G02 X117.841570 Y212.724233 Z-0.125000 I-4.457023 J1.652265
G02 X116.104349 Y211.639063 Z-0.125000 I-3.285970 J3.327304
G02 X113.471810 Y211.190476 Z-0.125000 I-2.632539 J7.500253
G02 X110.838157 Y211.638321 Z-0.125000 I0.000000 J7.967824
G02 X109.092410 Y212.724233 Z-0.125000 I1.559829 J4.453845
G02 X107.982998 Y214.452207 Z-0.125000 I3.349964 J3.370903
G02 X107.539360 Y216.939652 Z-0.125000 I6.751632 J2.487445
G02 X107.987454 Y219.442896 Z-0.125000 I7.216147 J0.000000
G02 X109.102050 Y221.164717 Z-0.125000 I4.402824 J-1.628436
G02 X110.855799 Y222.252703 Z-0.125000 I3.335990 J-3.419912
G02 X113.471810 Y222.698473 Z-0.125000 I2.616011 J-7.453168
G02 X116.120166 Y222.245458 Z-0.125000 I-0.000000 J-7.967736
G02 X117.851220 Y221.155071 Z-0.125000 I-1.535484 J-4.356942
G02 X118.960632 Y219.427097 Z-0.125000 I-3.349964 J-3.370903
G02 X119.404270 Y216.939652 Z-0.125000 I-6.751632 J-2.487445
G01 X119.404270 Y216.939652 Z-0.125000
G00 Z5.000000

(End cutting path id: path14549)


(Start cutting path id: path14533)
(ZZZanette)
(Change tool to Default tool)

G00 Z5.000000
G00 X124.359690 Y235.436831

G01 Z-0.125000 F100.0(Penetrate)
G02 X124.178890 Y235.301717 Z-0.125000 I-9.443191 J12.447638 F400.000000
G02 X123.913210 Y235.108169 Z-0.125000 I-19.644445 J26.686541
G02 X123.639816 Y234.927351 Z-0.125000 I-2.378947 J3.299831
G02 X123.410910 Y234.804312 Z-0.125000 I-1.323557 J2.187946
G02 X123.075837 Y234.675647 Z-0.125000 I-1.264526 J2.792480
G02 X122.728780 Y234.587271 Z-0.125000 I-0.925347 J2.908239
G02 X122.373228 Y234.532954 Z-0.125000 I-0.663167 J3.150156
G02 X121.953640 Y234.512861 Z-0.125000 I-0.419588 J4.370910
G02 X121.025968 Y234.678725 Z-0.125000 I0.000000 J2.677146
G02 X120.291720 Y235.126777 Z-0.125000 I0.772850 J2.092168
G02 X119.801183 Y235.819515 Z-0.125000 I1.358587 J1.482080
G02 X119.622000 Y236.695673 Z-0.125000 I2.052500 J0.876158
G02 X119.720284 Y237.427251 Z-0.125000 I2.771903 J0.000000
G02 X119.963060 Y237.942109 Z-0.125000 I1.589943 J-0.435053
G02 X120.358646 Y238.359451 Z-0.125000 I1.631940 J-1.150713
G02 X120.930440 Y238.704853 Z-0.125000 I1.668545 J-2.116197
G02 X121.566310 Y238.928142 Z-0.125000 I1.625929 J-3.613188
G02 X122.468330 Y239.101728 Z-0.125000 I1.839291 J-7.127250
G02 X123.387673 Y239.202629 Z-0.125000 I3.206835 J-24.979795
G02 X124.372090 Y239.275361 Z-0.125000 I2.605714 J-28.569765
G01 X124.372090 Y239.312571 Z-0.125000
G01 X124.237450 Y239.803054 Z-0.125000
G01 X123.900800 Y240.106321 Z-0.125000
G03 X123.413323 Y240.257576 Z-0.125000 I-0.774597 J-1.635265
G03 X122.511740 Y240.329563 Z-0.125000 I-0.901583 J-5.609842
G03 X121.966885 Y240.284001 Z-0.125000 I0.000000 J-3.280639
G03 X121.333520 Y240.131126 Z-0.125000 I0.773737 J-4.594063
G03 X120.709545 Y239.932115 Z-0.125000 I8.784223 J-28.619541
G03 X120.434350 Y239.833469 Z-0.125000 I1.874472 J-5.662454
G01 X120.229710 Y239.833469 Z-0.125000
G01 X120.229710 Y241.513987 Z-0.125000
G02 X120.585812 Y241.594424 Z-0.125000 I1.320973 J-5.019611
G02 X121.376930 Y241.731028 Z-0.125000 I4.666079 J-24.663633
G02 X122.179500 Y241.828856 Z-0.125000 I1.621065 J-9.958001
G02 X122.976830 Y241.861252 Z-0.125000 I0.797330 J-9.795805
G02 X124.819128 Y241.665935 Z-0.125000 I-0.000000 J-8.786250
G02 X125.723950 Y241.272141 Z-0.125000 I-0.522692 J-2.437395
G02 X126.326344 Y240.559067 Z-0.125000 I-0.997261 J-1.453454
G02 X126.573510 Y239.436594 Z-0.125000 I-2.425199 J-1.122473
G01 X126.573510 Y234.698899 Z-0.125000
G01 X124.359690 Y234.698899 Z-0.125000
G01 X124.359690 Y235.436838 Z-0.125000
G01 X124.359690 Y235.436831 Z-0.125000
G00 Z5.000000

(End cutting path id: path14533)


(Start cutting path id: path14533)
(ZZZanette)
(Change tool to Default tool)

G00 Z5.000000
G00 X124.359690 Y236.515835

G01 Z-0.125000 F100.0(Penetrate)
G01 X124.359690 Y237.966910 Z-0.125000 F400.000000
G03 X123.907601 Y237.924015 Z-0.125000 I1.478064 J-17.981857
G03 X123.379910 Y237.861490 Z-0.125000 I2.642813 J-24.562464
G03 X122.856558 Y237.782113 Z-0.125000 I0.925523 J-7.867171
G03 X122.579950 Y237.712662 Z-0.125000 I0.420579 J-2.260639
G03 X122.268035 Y237.572022 Z-0.125000 I0.434175 J-1.379130
G01 X122.065260 Y237.402603 Z-0.125000
G01 X121.941362 Y237.185475 Z-0.125000
G01 X121.891620 Y236.875503 Z-0.125000
G03 X121.902930 Y236.659976 Z-0.125000 I2.059196 J-0.000000
G01 X121.928820 Y236.522037 Z-0.125000
G01 X121.987143 Y236.399184 Z-0.125000
G01 X122.114860 Y236.261587 Z-0.125000
G01 X122.267481 Y236.155471 Z-0.125000
G03 X122.455920 Y236.075552 Z-0.125000 I0.499687 J0.916082
G03 X122.656956 Y236.038562 Z-0.125000 I0.300538 J1.068604
G03 X123.076040 Y236.019742 Z-0.125000 I0.419084 J4.656553
G03 X123.404579 Y236.052566 Z-0.125000 I-0.000000 J1.660599
G03 X123.751970 Y236.156167 Z-0.125000 I-0.396042 J1.962224
G03 X124.083798 Y236.318250 Z-0.125000 I-0.844569 J2.149773
G03 X124.359680 Y236.515835 Z-0.125000 I-0.993264 J1.678260
G01 X124.359690 Y236.515835 Z-0.125000
G00 Z5.000000

(End cutting path id: path14533)


(Start cutting path id: path14535)
(ZZZanette)
(Change tool to Default tool)

G00 Z5.000000
G00 X130.858520 Y234.698892

G01 Z-0.125000 F100.0(Penetrate)
G01 X128.626090 Y234.698892 Z-0.125000 F400.000000
G01 X128.626090 Y241.662808 Z-0.125000
G01 X130.858520 Y241.662808 Z-0.125000
G01 X130.858520 Y234.698892 Z-0.125000
G01 X130.858520 Y234.698892 Z-0.125000
G00 Z5.000000

(End cutting path id: path14535)


(Start cutting path id: path14535)
(ZZZanette)
(Change tool to Default tool)

G00 Z5.000000
G00 X130.920520 Y242.654995

G01 Z-0.125000 F100.0(Penetrate)
G01 X128.564070 Y242.654995 Z-0.125000 F400.000000
G01 X128.564070 Y244.347915 Z-0.125000
G01 X130.920520 Y244.347915 Z-0.125000
G01 X130.920520 Y242.654995 Z-0.125000
G01 X130.920520 Y242.654995 Z-0.125000
G00 Z5.000000

(End cutting path id: path14535)


(Start cutting path id: path14537)
(ZZZanette)
(Change tool to Default tool)

G00 Z5.000000
G00 X139.019260 Y236.906509

G01 Z-0.125000 F100.0(Penetrate)
G02 X138.773374 Y235.957020 Z-0.125000 I-1.956170 J-0.000000 F400.000000
G02 X138.051870 Y235.163980 Z-0.125000 I-2.043619 J1.134544
G02 X137.023578 Y234.704679 Z-0.125000 I-1.799873 J2.648863
G02 X135.403970 Y234.506656 Z-0.125000 I-1.619608 J6.524272
G02 X134.479178 Y234.554130 Z-0.125000 I0.000000 J9.031112
G02 X133.717260 Y234.680289 Z-0.125000 I0.643244 J6.248622
G02 X132.970830 Y234.883645 Z-0.125000 I2.143179 J9.338268
G02 X132.501830 Y235.064761 Z-0.125000 I1.220341 J3.857860
G01 X132.501830 Y236.900308 Z-0.125000
G01 X132.706460 Y236.900308 Z-0.125000
G03 X132.874924 Y236.783991 Z-0.125000 I6.625261 J9.415336
G03 X133.090940 Y236.639859 Z-0.125000 I10.389679 J15.337452
G03 X133.320328 Y236.515702 Z-0.125000 I1.297118 J2.122532
G03 X133.717260 Y236.342203 Z-0.125000 I2.945106 J6.197016
G03 X134.069401 Y236.214690 Z-0.125000 I1.682671 J4.096869
G03 X134.504800 Y236.094156 Z-0.125000 I1.936097 J6.147036
G03 X134.948007 Y236.021147 Z-0.125000 I0.846128 J3.754705
G03 X135.447380 Y235.994936 Z-0.125000 I0.499373 J4.743996
G03 X136.094569 Y236.042090 Z-0.125000 I0.000000 J4.464949
G03 X136.420970 Y236.137563 Z-0.125000 I-0.177756 J1.213388
G01 X136.660246 Y236.335246 Z-0.125000
G01 X136.737230 Y236.571645 Z-0.125000
G01 X136.683581 Y236.795517 Z-0.125000
G01 X136.551190 Y236.937514 Z-0.125000
G01 X136.354553 Y237.028944 Z-0.125000
G03 X135.844260 Y237.160756 Z-0.125000 I-1.495191 J-4.734750
G03 X135.595085 Y237.210474 Z-0.125000 I-1.144602 J-5.087234
G03 X135.168330 Y237.278578 Z-0.125000 I-2.590271 J-14.860059
G02 X134.748723 Y237.356463 Z-0.125000 I1.471571 J9.097374
G02 X134.399380 Y237.439809 Z-0.125000 I1.339311 J6.387499
G02 X133.514237 Y237.791133 Z-0.125000 I0.988657 J3.781574
G02 X132.991720 Y238.208754 Z-0.125000 I0.924457 J1.692347
G02 X132.657901 Y238.782669 Z-0.125000 I1.329132 J1.157134
G02 X132.532830 Y239.517202 Z-0.125000 I2.094398 J0.734533
G02 X132.766360 Y240.400137 Z-0.125000 I1.785879 J0.000000
G02 X133.481610 Y241.185317 Z-0.125000 I2.099468 J-1.194123
G02 X134.499942 Y241.654372 Z-0.125000 I1.798336 J-2.564295
G02 X136.086100 Y241.855043 Z-0.125000 I1.586158 J-6.168393
G02 X136.862787 Y241.813269 Z-0.125000 I-0.000000 J-7.241119
G02 X137.580590 Y241.693813 Z-0.125000 I-0.679790 J-6.301184
G02 X138.291025 Y241.511574 Z-0.125000 I-1.990113 J-9.234065
G02 X138.703000 Y241.358950 Z-0.125000 I-0.969001 J-3.247945
G01 X138.703000 Y239.597817 Z-0.125000
G01 X138.510760 Y239.597817 Z-0.125000
G03 X137.994626 Y239.898481 Z-0.125000 I-2.263702 J-3.292637
G03 X137.375950 Y240.149721 Z-0.125000 I-2.183916 J-4.490508
G03 X136.734439 Y240.312858 Z-0.125000 I-1.319065 J-3.844136
G03 X136.092300 Y240.366762 Z-0.125000 I-0.642139 J-3.797816
G03 X135.561096 Y240.323684 Z-0.125000 I-0.000000 J-3.296697
G03 X135.180730 Y240.217934 Z-0.125000 I0.291495 J-1.785401
G01 X134.896279 Y240.014328 Z-0.125000
G01 X134.814860 Y239.796254 Z-0.125000
G01 X134.862387 Y239.571452 Z-0.125000
G01 X134.982290 Y239.417983 Z-0.125000
G01 X135.164917 Y239.320524 Z-0.125000
G03 X135.769840 Y239.157534 Z-0.125000 I1.751129 J5.295091
G03 X136.111328 Y239.091557 Z-0.125000 I5.222545 J26.114255
G03 X136.501580 Y239.021108 Z-0.125000 I6.345465 J34.034793
G02 X136.896648 Y238.950158 Z-0.125000 I-1.364674 J-8.734267
G02 X137.295330 Y238.859877 Z-0.125000 I-1.825119 J-8.985172
G02 X138.113767 Y238.531462 Z-0.125000 I-0.879797 J-3.376537
G02 X138.597580 Y238.134340 Z-0.125000 I-0.855522 J-1.535557
G02 X138.903260 Y237.601400 Z-0.125000 I-1.233112 J-1.061415
G02 X139.019260 Y236.906508 Z-0.125000 I-2.023359 J-0.694892
G01 X139.019260 Y236.906509 Z-0.125000
G00 Z5.000000

(End cutting path id: path14537)


(Start cutting path id: path14539)
(ZZZanette)
(Change tool to Default tool)

G00 Z5.000000
G00 X151.843280 Y234.698892

G01 Z-0.125000 F100.0(Penetrate)
G01 X149.598460 Y234.698892 Z-0.125000 F400.000000
G01 X149.598460 Y238.152945 Z-0.125000
G03 X149.587552 Y238.574056 Z-0.125000 I-8.133864 J0.000000
G03 X149.555060 Y238.990103 Z-0.125000 I-7.971791 J-0.413274
G03 X149.484497 Y239.403515 Z-0.125000 I-3.139357 J-0.323108
G01 X149.406230 Y239.610220 Z-0.125000
G01 X149.252465 Y239.807292 Z-0.125000
G01 X149.040360 Y239.945083 Z-0.125000
G01 X148.797628 Y240.017284 Z-0.125000
G03 X148.376840 Y240.050503 Z-0.125000 I-0.420788 J-2.648465
G03 X148.076636 Y240.026638 Z-0.125000 I0.000000 J-1.900127
G03 X147.756720 Y239.951283 Z-0.125000 I0.357577 J-2.234837
G03 X147.455204 Y239.833062 Z-0.125000 I0.772126 J-2.412874
G03 X147.080790 Y239.635023 Z-0.125000 I1.836401 J-3.924867
G01 X147.080790 Y234.698890 Z-0.125000
G01 X144.848370 Y234.698890 Z-0.125000
G01 X144.848370 Y241.662806 Z-0.125000
G01 X147.080790 Y241.662806 Z-0.125000
G01 X147.080790 Y240.893861 Z-0.125000
G02 X147.696625 Y241.325103 Z-0.125000 I4.426932 J-5.666542
G02 X148.221810 Y241.606995 Z-0.125000 I2.395545 J-3.832890
G02 X148.787836 Y241.789155 Z-0.125000 I1.099933 J-2.447331
G02 X149.443440 Y241.855042 Z-0.125000 I0.655604 J-3.228848
G02 X150.491533 Y241.665822 Z-0.125000 I0.000000 J-2.997314
G02 X151.204570 Y241.197718 Z-0.125000 I-0.672249 J-1.801116
G02 X151.648568 Y240.461370 Z-0.125000 I-1.361540 J-1.323005
G02 X151.843290 Y239.231947 Z-0.125000 I-3.783761 J-1.229423
G01 X151.843290 Y234.698890 Z-0.125000
G01 X151.843280 Y234.698892 Z-0.125000
G00 Z5.000000

(End cutting path id: path14539)


(Start cutting path id: path14541)
(ZZZanette)
(Change tool to Default tool)

G00 Z5.000000
G00 X158.118870 Y235.436831

G01 Z-0.125000 F100.0(Penetrate)
G02 X157.938062 Y235.301715 Z-0.125000 I-9.453716 J12.462205 F400.000000
G02 X157.672380 Y235.108169 Z-0.125000 I-19.665360 J26.715552
G02 X157.398987 Y234.927349 Z-0.125000 I-2.379209 J3.300194
G02 X157.170090 Y234.804312 Z-0.125000 I-1.323630 J2.188023
G02 X156.835017 Y234.675647 Z-0.125000 I-1.264526 J2.792480
G02 X156.487960 Y234.587271 Z-0.125000 I-0.925347 J2.908239
G02 X156.132398 Y234.532954 Z-0.125000 I-0.663194 J3.150372
G02 X155.712810 Y234.512861 Z-0.125000 I-0.419588 J4.370967
G02 X154.785148 Y234.678724 Z-0.125000 I0.000000 J2.677104
G02 X154.050900 Y235.126777 Z-0.125000 I0.772858 J2.092177
G02 X153.560355 Y235.819517 Z-0.125000 I1.358579 J1.482094
G02 X153.381170 Y236.695673 Z-0.125000 I2.052465 J0.876156
G02 X153.479456 Y237.427249 Z-0.125000 I2.771822 J-0.000000
G02 X153.722240 Y237.942109 Z-0.125000 I1.589924 J-0.435061
G02 X154.117826 Y238.359451 Z-0.125000 I1.631940 J-1.150713
G02 X154.689620 Y238.704853 Z-0.125000 I1.668545 J-2.116197
G02 X155.325490 Y238.928142 Z-0.125000 I1.625929 J-3.613188
G02 X156.227510 Y239.101728 Z-0.125000 I1.839291 J-7.127250
G02 X157.146843 Y239.202629 Z-0.125000 I3.206715 J-24.978586
G02 X158.131270 Y239.275361 Z-0.125000 I2.605697 J-28.569578
G01 X158.131270 Y239.312571 Z-0.125000
G01 X157.996630 Y239.803054 Z-0.125000
G01 X157.659980 Y240.106321 Z-0.125000
G03 X157.172503 Y240.257576 Z-0.125000 I-0.774597 J-1.635265
G03 X156.270920 Y240.329563 Z-0.125000 I-0.901583 J-5.609842
G03 X155.726055 Y240.284001 Z-0.125000 I0.000000 J-3.280697
G03 X155.092700 Y240.131126 Z-0.125000 I0.773700 J-4.593845
G03 X154.468725 Y239.932115 Z-0.125000 I8.784223 J-28.619541
G03 X154.193530 Y239.833469 Z-0.125000 I1.874472 J-5.662454
G01 X153.988890 Y239.833469 Z-0.125000
G01 X153.988890 Y241.513987 Z-0.125000
G02 X154.344982 Y241.594423 Z-0.125000 I1.320872 J-5.019085
G02 X155.136100 Y241.731028 Z-0.125000 I4.665886 J-24.662396
G02 X155.938680 Y241.828856 Z-0.125000 I1.621095 J-9.958309
G02 X156.736010 Y241.861252 Z-0.125000 I0.797330 J-9.795867
G02 X158.578308 Y241.665935 Z-0.125000 I0.000000 J-8.786250
G02 X159.483130 Y241.272141 Z-0.125000 I-0.522692 J-2.437395
G02 X160.085524 Y240.559067 Z-0.125000 I-0.997261 J-1.453454
G02 X160.332690 Y239.436594 Z-0.125000 I-2.425199 J-1.122473
G01 X160.332690 Y234.698899 Z-0.125000
G01 X158.118870 Y234.698899 Z-0.125000
G01 X158.118870 Y235.436838 Z-0.125000
G01 X158.118870 Y235.436831 Z-0.125000
G00 Z5.000000

(End cutting path id: path14541)


(Start cutting path id: path14541)
(ZZZanette)
(Change tool to Default tool)

G00 Z5.000000
G00 X158.118870 Y236.515835

G01 Z-0.125000 F100.0(Penetrate)
G01 X158.118870 Y237.966910 Z-0.125000 F400.000000
G03 X157.666781 Y237.924015 Z-0.125000 I1.478128 J-17.982633
G03 X157.139080 Y237.861490 Z-0.125000 I2.642999 J-24.564444
G03 X156.615729 Y237.782112 Z-0.125000 I0.925492 J-7.866905
G03 X156.339130 Y237.712662 Z-0.125000 I0.420542 J-2.260410
G03 X156.027214 Y237.572023 Z-0.125000 I0.434192 J-1.379183
G01 X155.824430 Y237.402603 Z-0.125000
G01 X155.700539 Y237.185477 Z-0.125000
G01 X155.650800 Y236.875503 Z-0.125000
G03 X155.662110 Y236.659976 Z-0.125000 I2.059196 J-0.000000
G01 X155.688000 Y236.522037 Z-0.125000
G01 X155.746321 Y236.399183 Z-0.125000
G01 X155.874030 Y236.261587 Z-0.125000
G01 X156.026660 Y236.155470 Z-0.125000
G03 X156.215100 Y236.075552 Z-0.125000 I0.499708 J0.916148
G03 X156.416136 Y236.038562 Z-0.125000 I0.300538 J1.068604
G03 X156.835220 Y236.019742 Z-0.125000 I0.419084 J4.656553
G03 X157.163759 Y236.052566 Z-0.125000 I-0.000000 J1.660574
G03 X157.511140 Y236.156167 Z-0.125000 I-0.396021 J1.962093
G03 X157.842978 Y236.318252 Z-0.125000 I-0.844555 J2.149799
G03 X158.118860 Y236.515835 Z-0.125000 I-0.993210 J1.678197
G01 X158.118870 Y236.515835 Z-0.125000
G00 Z5.000000

(End cutting path id: path14541)


(Start cutting path id: path14531)
(ZZZanette)
(Change tool to Default tool)

G00 Z5.000000
G00 X113.507630 Y239.635025

G01 Z-0.125000 F100.0(Penetrate)
G01 X113.507630 Y234.698892 Z-0.125000 F400.000000
G01 X111.262810 Y234.698892 Z-0.125000
G01 X111.262810 Y238.177749 Z-0.125000
G03 X111.255500 Y238.685989 Z-0.125000 I-17.671986 J0.000000
G03 X111.238010 Y239.039712 Z-0.125000 I-8.575625 J-0.246734
G03 X111.185037 Y239.391696 Z-0.125000 I-2.207076 J-0.152183
G03 X111.101580 Y239.622622 Z-0.125000 I-1.025066 J-0.239916
G01 X110.959654 Y239.813829 Z-0.125000
G01 X110.760520 Y239.945083 Z-0.125000
G01 X110.529813 Y240.017248 Z-0.125000
G03 X110.128000 Y240.050503 Z-0.125000 I-0.401813 J-2.410879
G03 X109.806470 Y240.016548 Z-0.125000 I-0.000000 J-1.539296
G03 X109.489280 Y239.914077 Z-0.125000 I0.341754 J-1.600028
G03 X109.184241 Y239.773945 Z-0.125000 I1.969318 J-4.688895
G03 X108.931170 Y239.635025 Z-0.125000 I1.682135 J-3.364307
G01 X108.931170 Y234.698892 Z-0.125000
G01 X106.698750 Y234.698892 Z-0.125000
G01 X106.698750 Y241.662808 Z-0.125000
G01 X108.931170 Y241.662808 Z-0.125000
G01 X108.931170 Y240.893863 Z-0.125000
G02 X109.526497 Y241.316685 Z-0.125000 I4.705034 J-5.994102
G02 X110.034980 Y241.600796 Z-0.125000 I2.615031 J-4.083128
G02 X110.577437 Y241.787860 Z-0.125000 I1.064578 J-2.207055
G02 X111.200800 Y241.855044 Z-0.125000 I0.623363 J-2.858349
G02 X111.866377 Y241.771487 Z-0.125000 I0.000000 J-2.692624
G02 X112.416230 Y241.544986 Z-0.125000 I-0.523086 J-2.050503
G02 X112.875277 Y241.176996 Z-0.125000 I-0.965243 J-1.674399
G02 X113.240980 Y240.645816 Z-0.125000 I-1.711291 J-1.569656
G02 X113.935527 Y241.172719 Z-0.125000 I5.490886 J-6.516696
G02 X114.543230 Y241.532583 Z-0.125000 I3.147846 J-4.622728
G02 X115.193860 Y241.779649 Z-0.125000 I1.458919 J-2.861727
G02 X115.783460 Y241.855044 Z-0.125000 I0.589600 J-2.267686
G02 X116.821574 Y241.657480 Z-0.125000 I-0.000000 J-2.826196
G02 X117.494990 Y241.179117 Z-0.125000 I-0.634296 J-1.606115
G02 X117.905884 Y240.436425 Z-0.125000 I-1.523709 J-1.328000
G02 X118.084100 Y239.231949 Z-0.125000 I-3.981120 J-1.204476
G01 X118.084100 Y234.698892 Z-0.125000
G01 X115.839280 Y234.698892 Z-0.125000
G01 X115.839280 Y238.177749 Z-0.125000
G03 X115.831934 Y238.692190 Z-0.125000 I-18.016169 J0.000000
G03 X115.814480 Y239.045913 Z-0.125000 I-8.533162 J-0.243759
G03 X115.766698 Y239.391676 Z-0.125000 I-2.058890 J-0.108342
G01 X115.684260 Y239.622622 Z-0.125000
G01 X115.547341 Y239.813308 Z-0.125000
G01 X115.349390 Y239.945083 Z-0.125000
G01 X115.112700 Y240.017358 Z-0.125000
G03 X114.704470 Y240.050503 Z-0.125000 I-0.408230 J-2.497397
G03 X114.429877 Y240.025743 Z-0.125000 I0.000000 J-1.534992
G03 X114.158770 Y239.951283 Z-0.125000 I0.285535 J-1.570416
G03 X113.898991 Y239.843314 Z-0.125000 I0.795813 J-2.281267
G03 X113.507640 Y239.635023 Z-0.125000 I2.621443 J-5.397143
G01 X113.507630 Y239.635025 Z-0.125000
G00 Z5.000000

(End cutting path id: path14531)


(Start cutting path id: path14529)
(ZZZanette)
(Change tool to Default tool)

G00 Z5.000000
G00 X100.745630 Y238.177749

G01 Z-0.125000 F100.0(Penetrate)
G02 X100.458974 Y236.579806 Z-0.125000 I-4.597137 J-0.000000 F400.000000
G02 X99.741036 Y235.467837 Z-0.125000 I-2.865231 J1.062172
G02 X98.624253 Y234.770228 Z-0.125000 I-2.112406 J2.138976
G02 X96.931906 Y234.481851 Z-0.125000 I-1.692347 J4.821591
G02 X95.238842 Y234.769751 Z-0.125000 I0.000000 J5.122185
G02 X94.116574 Y235.467837 Z-0.125000 I1.002749 J2.863197
G02 X93.403381 Y236.578678 Z-0.125000 I2.153551 J2.167010
G02 X93.118185 Y238.177749 Z-0.125000 I4.340334 J1.599071
G02 X93.406246 Y239.786977 Z-0.125000 I4.638938 J-0.000000
G02 X94.122775 Y240.893863 Z-0.125000 I2.830387 J-1.046855
G02 X95.250186 Y241.593282 Z-0.125000 I2.144568 J-2.198520
G02 X96.931906 Y241.879849 Z-0.125000 I1.681720 J-4.791318
G02 X98.634421 Y241.588624 Z-0.125000 I0.000000 J-5.122108
G02 X99.747238 Y240.887661 Z-0.125000 I-0.987092 J-2.800873
G02 X100.460433 Y239.776820 Z-0.125000 I-2.153543 J-2.167011
G02 X100.745630 Y238.177749 Z-0.125000 I-4.340322 J-1.599071
G01 X100.745630 Y238.177749 Z-0.125000
G00 Z5.000000

(End cutting path id: path14529)


(Start cutting path id: path14529)
(ZZZanette)
(Change tool to Default tool)

G00 Z5.000000
G00 X97.998507 Y236.484830

G01 Z-0.125000 F100.0(Penetrate)
G03 X98.182569 Y236.768634 Z-0.125000 I-1.218795 J0.992044 F400.000000
G03 X98.320968 Y237.123550 Z-0.125000 I-1.779192 J0.898234
G03 X98.397416 Y237.506903 Z-0.125000 I-2.083362 J0.614761
G03 X98.432589 Y238.165347 Z-0.125000 I-6.145482 J0.658444
G03 X98.399637 Y238.774914 Z-0.125000 I-5.654519 J0.000000
G03 X98.320968 Y239.194742 Z-0.125000 I-2.752191 J-0.298430
G03 X98.175628 Y239.593151 Z-0.125000 I-2.347663 J-0.630716
G03 X98.010909 Y239.858267 Z-0.125000 I-1.192901 J-0.557431
G03 X97.787192 Y240.078179 Z-0.125000 I-0.944828 J-0.737425
G01 X97.533419 Y240.217935 Z-0.125000
G03 X97.249326 Y240.295750 Z-0.125000 I-0.555384 J-1.470135
G03 X96.931906 Y240.323355 Z-0.125000 I-0.317420 J-1.811156
G03 X96.613403 Y240.299515 Z-0.125000 I0.000000 J-2.139521
G03 X96.355197 Y240.236535 Z-0.125000 I0.220542 J-1.464971
G01 X96.128643 Y240.117798 Z-0.125000
G03 X95.877706 Y239.889270 Z-0.125000 I0.910046 J-1.251318
G03 X95.706910 Y239.629192 Z-0.125000 I0.982482 J-0.831327
G03 X95.549044 Y239.225744 Z-0.125000 I2.235896 J-1.107498
G03 X95.466331 Y238.799252 Z-0.125000 I2.588712 J-0.723316
G03 X95.431222 Y238.165344 Z-0.125000 I5.705185 J-0.633908
G03 X95.461249 Y237.598533 Z-0.125000 I5.364717 J-0.000000
G03 X95.536642 Y237.173157 Z-0.125000 I3.090242 J0.328339
G03 X95.677768 Y236.775507 Z-0.125000 I2.212806 J0.561458
G03 X95.846700 Y236.503430 Z-0.125000 I1.193417 J0.552506
G03 X96.067581 Y236.291981 Z-0.125000 I0.986616 J0.809532
G03 X96.317990 Y236.149963 Z-0.125000 I0.678715 J0.904954
G03 X96.602903 Y236.068778 Z-0.125000 I0.535482 J1.338702
G03 X96.950509 Y236.038342 Z-0.125000 I0.347606 J1.969765
G03 X97.249862 Y236.063905 Z-0.125000 I0.000000 J1.765533
G03 X97.527218 Y236.137562 Z-0.125000 I-0.273106 J1.587410
G03 X97.782067 Y236.276164 Z-0.125000 I-0.375581 J0.994185
G03 X97.998507 Y236.484828 Z-0.125000 I-0.677084 J0.918899
G01 X97.998507 Y236.484830 Z-0.125000
G00 Z5.000000

(End cutting path id: path14529)


(Start cutting path id: path14527)
(ZZZanette)
(Change tool to Default tool)

G00 Z5.000000
G00 X92.299631 Y234.760904

G01 Z-0.125000 F100.0(Penetrate)
G02 X91.937597 Y234.680338 Z-0.125000 I-1.361453 J5.264148 F400.000000
G02 X91.536887 Y234.618277 Z-0.125000 I-1.194566 J6.388328
G02 X91.132677 Y234.578919 Z-0.125000 I-0.687484 J4.965208
G02 X90.550900 Y234.562467 Z-0.125000 I-0.581777 J10.278176
G02 X89.308209 Y234.728202 Z-0.125000 I0.000000 J4.741755
G02 X88.609934 Y235.089567 Z-0.125000 I0.488754 J1.799763
G02 X88.178762 Y235.710973 Z-0.125000 I0.909418 J1.091303
G02 X87.977414 Y236.894108 Z-0.125000 I3.375413 J1.183135
G01 X87.977414 Y240.149723 Z-0.125000
G01 X87.059641 Y240.149723 Z-0.125000
G01 X87.059641 Y241.662809 Z-0.125000
G01 X87.977414 Y241.662809 Z-0.125000
G01 X87.977414 Y243.653385 Z-0.125000
G01 X90.209836 Y243.653385 Z-0.125000
G01 X90.209836 Y241.662809 Z-0.125000
G01 X92.299631 Y241.662809 Z-0.125000
G01 X92.299631 Y240.149723 Z-0.125000
G01 X90.209836 Y240.149723 Z-0.125000
G01 X90.209836 Y237.681657 Z-0.125000
G03 X90.211612 Y237.315808 Z-0.125000 I37.691345 J0.000000
G03 X90.216036 Y237.042936 Z-0.125000 I20.972020 J0.203573
G03 X90.245948 Y236.775233 Z-0.125000 I1.522496 J0.034596
G03 X90.315256 Y236.553043 Z-0.125000 I1.114334 J0.225691
G01 X90.432404 Y236.361831 Z-0.125000
G01 X90.619113 Y236.205778 Z-0.125000
G01 X90.852516 Y236.120964 Z-0.125000
G03 X91.264035 Y236.081754 Z-0.125000 I0.411519 J2.139888
G03 X91.435830 Y236.095779 Z-0.125000 I0.000000 J1.059171
G03 X91.716721 Y236.156164 Z-0.125000 I-0.477309 J2.903793
G03 X91.997797 Y236.241000 Z-0.125000 I-0.976259 J3.742530
G01 X92.113596 Y236.292590 Z-0.125000
G01 X92.299631 Y236.292590 Z-0.125000
G01 X92.299631 Y234.760901 Z-0.125000
G01 X92.299631 Y234.760904 Z-0.125000
G00 Z5.000000

(End cutting path id: path14527)


(Start cutting path id: path14525)
(ZZZanette)
(Change tool to Default tool)

G00 Z5.000000
G00 X85.738791 Y234.698892

G01 Z-0.125000 F100.0(Penetrate)
G01 X83.506369 Y234.698892 Z-0.125000 F400.000000
G01 X83.506369 Y241.662808 Z-0.125000
G01 X85.738791 Y241.662808 Z-0.125000
G01 X85.738791 Y234.698892 Z-0.125000
G01 X85.738791 Y234.698892 Z-0.125000
G00 Z5.000000

(End cutting path id: path14525)


(Start cutting path id: path14523)
(ZZZanette)
(Change tool to Default tool)

G00 Z5.000000
G00 X81.391770 Y234.698892

G01 Z-0.125000 F100.0(Penetrate)
G01 X79.159348 Y234.698892 Z-0.125000 F400.000000
G01 X79.159348 Y235.467837 Z-0.125000
G02 X78.521938 Y235.024787 Z-0.125000 I-5.533359 J7.280734
G02 X78.024533 Y234.748501 Z-0.125000 I-2.630402 J4.149688
G02 X77.494638 Y234.574738 Z-0.125000 I-0.971269 J2.067064
G02 X76.796701 Y234.506656 Z-0.125000 I-0.697937 J3.543382
G02 X75.726509 Y234.699663 Z-0.125000 I-0.000000 J3.063522
G02 X75.016965 Y235.170181 Z-0.125000 I0.655964 J1.759456
G02 X74.585528 Y235.908149 Z-0.125000 I1.414763 J1.322209
G02 X74.396848 Y237.129751 Z-0.125000 I3.860262 J1.221602
G01 X74.396848 Y241.662808 Z-0.125000
G01 X76.641672 Y241.662808 Z-0.125000
G01 X76.641672 Y238.208755 Z-0.125000
G03 X76.650943 Y237.682062 Z-0.125000 I14.965351 J0.000000
G03 X76.672682 Y237.328189 Z-0.125000 I6.774831 J0.238582
G03 X76.737694 Y236.989558 Z-0.125000 I2.069429 J0.221742
G03 X76.833912 Y236.751480 Z-0.125000 I1.111624 J0.310776
G01 X76.982008 Y236.553982 Z-0.125000
G01 X77.187379 Y236.416617 Z-0.125000
G01 X77.436091 Y236.344130 Z-0.125000
G03 X77.857106 Y236.311197 Z-0.125000 I0.421015 J2.674685
G03 X78.138898 Y236.334519 Z-0.125000 I-0.000000 J1.714072
G03 X78.489625 Y236.416617 Z-0.125000 I-0.457312 J2.743865
G03 X78.826371 Y236.544969 Z-0.125000 I-0.754532 J2.485519
G03 X79.159352 Y236.726675 Z-0.125000 I-1.209096 J2.611654
G01 X79.159352 Y241.662808 Z-0.125000
G01 X81.391774 Y241.662808 Z-0.125000
G01 X81.391774 Y234.698892 Z-0.125000
G01 X81.391770 Y234.698892 Z-0.125000
G00 Z5.000000

(End cutting path id: path14523)


(Start cutting path id: path14525)
(ZZZanette)
(Change tool to Default tool)

G00 Z5.000000
G00 X85.800801 Y242.654995

G01 Z-0.125000 F100.0(Penetrate)
G01 X83.444356 Y242.654995 Z-0.125000 F400.000000
G01 X83.444356 Y244.347915 Z-0.125000
G01 X85.800801 Y244.347915 Z-0.125000
G01 X85.800801 Y242.654995 Z-0.125000
G01 X85.800801 Y242.654995 Z-0.125000
G00 Z5.000000

(End cutting path id: path14525)


(Start cutting path id: path14521)
(ZZZanette)
(Change tool to Default tool)

G00 Z5.000000
G00 X67.817404 Y239.635025

G01 Z-0.125000 F100.0(Penetrate)
G01 X67.817404 Y234.698892 Z-0.125000 F400.000000
G01 X65.572579 Y234.698892 Z-0.125000
G01 X65.572579 Y238.177749 Z-0.125000
G03 X65.565269 Y238.685989 Z-0.125000 I-17.671986 J0.000000
G03 X65.547779 Y239.039712 Z-0.125000 I-8.575625 J-0.246734
G03 X65.494802 Y239.391698 Z-0.125000 I-2.207555 J-0.152278
G03 X65.411353 Y239.622622 Z-0.125000 I-1.025239 J-0.239950
G01 X65.269426 Y239.813828 Z-0.125000
G01 X65.070288 Y239.945083 Z-0.125000
G01 X64.839589 Y240.017247 Z-0.125000
G03 X64.437769 Y240.050503 Z-0.125000 I-0.401820 J-2.410915
G03 X64.116247 Y240.016549 Z-0.125000 I0.000000 J-1.539262
G03 X63.799048 Y239.914077 Z-0.125000 I0.341780 J-1.600150
G03 X63.494011 Y239.773945 Z-0.125000 I1.969279 J-4.688773
G03 X63.240943 Y239.635025 Z-0.125000 I1.682094 J-3.364194
G01 X63.240943 Y234.698892 Z-0.125000
G01 X61.008521 Y234.698892 Z-0.125000
G01 X61.008521 Y241.662808 Z-0.125000
G01 X63.240943 Y241.662808 Z-0.125000
G01 X63.240943 Y240.893863 Z-0.125000
G02 X63.836269 Y241.316685 Z-0.125000 I4.705033 J-5.994090
G02 X64.344751 Y241.600796 Z-0.125000 I2.615029 J-4.083117
G02 X64.887208 Y241.787860 Z-0.125000 I1.064577 J-2.207053
G02 X65.510572 Y241.855044 Z-0.125000 I0.623364 J-2.858356
G02 X66.176149 Y241.771487 Z-0.125000 I0.000000 J-2.692621
G02 X66.726001 Y241.544986 Z-0.125000 I-0.523085 J-2.050496
G02 X67.185049 Y241.176996 Z-0.125000 I-0.965255 J-1.674420
G02 X67.550757 Y240.645816 Z-0.125000 I-1.711321 J-1.569694
G02 X68.245301 Y241.172719 Z-0.125000 I5.490844 J-6.516617
G02 X68.853003 Y241.532583 Z-0.125000 I3.147829 J-4.622689
G02 X69.503633 Y241.779649 Z-0.125000 I1.458912 J-2.861713
G02 X70.093238 Y241.855044 Z-0.125000 I0.589605 J-2.267714
G02 X71.131345 Y241.657480 Z-0.125000 I0.000000 J-2.826167
G02 X71.804761 Y241.179117 Z-0.125000 I-0.634300 J-1.606119
G02 X72.215655 Y240.436425 Z-0.125000 I-1.523708 J-1.328001
G02 X72.393872 Y239.231949 Z-0.125000 I-3.981113 J-1.204476
G01 X72.393872 Y234.698892 Z-0.125000
G01 X70.149048 Y234.698892 Z-0.125000
G01 X70.149048 Y238.177749 Z-0.125000
G03 X70.141699 Y238.692189 Z-0.125000 I-18.008906 J0.000000
G03 X70.124238 Y239.045913 Z-0.125000 I-8.529751 J-0.243759
G03 X70.076455 Y239.391675 Z-0.125000 I-2.058808 J-0.108338
G01 X69.994014 Y239.622622 Z-0.125000
G01 X69.857096 Y239.813309 Z-0.125000
G01 X69.659151 Y239.945083 Z-0.125000
G01 X69.422457 Y240.017358 Z-0.125000
G03 X69.014229 Y240.050503 Z-0.125000 I-0.408228 J-2.497393
G03 X68.739633 Y240.025742 Z-0.125000 I-0.000000 J-1.535017
G03 X68.468526 Y239.951283 Z-0.125000 I0.285532 J-1.570408
G03 X68.208747 Y239.843313 Z-0.125000 I0.795776 J-2.281169
G03 X67.817403 Y239.635023 Z-0.125000 I2.621254 J-5.396695
G01 X67.817404 Y239.635025 Z-0.125000
G00 Z5.000000

(End cutting path id: path14521)


(Start cutting path id: path14519)
(ZZZanette)
(Change tool to Default tool)

G00 Z5.000000
G00 X50.032444 Y239.635025

G01 Z-0.125000 F100.0(Penetrate)
G01 X50.032444 Y234.698892 Z-0.125000 F400.000000
G01 X47.787620 Y234.698892 Z-0.125000
G01 X47.787620 Y238.177749 Z-0.125000
G03 X47.780310 Y238.685989 Z-0.125000 I-17.671986 J-0.000000
G03 X47.762820 Y239.039712 Z-0.125000 I-8.575625 J-0.246734
G03 X47.709843 Y239.391698 Z-0.125000 I-2.207555 J-0.152278
G03 X47.626394 Y239.622622 Z-0.125000 I-1.025239 J-0.239950
G01 X47.484467 Y239.813828 Z-0.125000
G01 X47.285330 Y239.945083 Z-0.125000
G01 X47.054630 Y240.017247 Z-0.125000
G03 X46.652810 Y240.050503 Z-0.125000 I-0.401820 J-2.410919
G03 X46.331288 Y240.016549 Z-0.125000 I-0.000000 J-1.539262
G03 X46.014089 Y239.914077 Z-0.125000 I0.341780 J-1.600150
G03 X45.709052 Y239.773945 Z-0.125000 I1.969279 J-4.688773
G03 X45.455984 Y239.635025 Z-0.125000 I1.682094 J-3.364194
G01 X45.455984 Y234.698892 Z-0.125000
G01 X43.223562 Y234.698892 Z-0.125000
G01 X43.223562 Y241.662808 Z-0.125000
G01 X45.455984 Y241.662808 Z-0.125000
G01 X45.455984 Y240.893863 Z-0.125000
G02 X46.051310 Y241.316685 Z-0.125000 I4.705013 J-5.994065
G02 X46.559793 Y241.600796 Z-0.125000 I2.615024 J-4.083113
G02 X47.102249 Y241.787860 Z-0.125000 I1.064575 J-2.207043
G02 X47.725613 Y241.855044 Z-0.125000 I0.623364 J-2.858354
G02 X48.391190 Y241.771487 Z-0.125000 I0.000000 J-2.692624
G02 X48.941043 Y241.544986 Z-0.125000 I-0.523086 J-2.050503
G02 X49.400090 Y241.176996 Z-0.125000 I-0.965256 J-1.674418
G02 X49.765798 Y240.645816 Z-0.125000 I-1.711326 J-1.569697
G02 X50.460342 Y241.172719 Z-0.125000 I5.490844 J-6.516617
G02 X51.068044 Y241.532583 Z-0.125000 I3.147829 J-4.622689
G02 X51.718674 Y241.779649 Z-0.125000 I1.458912 J-2.861713
G02 X52.308279 Y241.855044 Z-0.125000 I0.589605 J-2.267714
G02 X53.346386 Y241.657480 Z-0.125000 I-0.000000 J-2.826167
G02 X54.019802 Y241.179117 Z-0.125000 I-0.634300 J-1.606119
G02 X54.430697 Y240.436425 Z-0.125000 I-1.523706 J-1.328002
G02 X54.608914 Y239.231949 Z-0.125000 I-3.981106 J-1.204476
G01 X54.608914 Y234.698892 Z-0.125000
G01 X52.364089 Y234.698892 Z-0.125000
G01 X52.364089 Y238.177749 Z-0.125000
G03 X52.356743 Y238.692190 Z-0.125000 I-18.016169 J0.000000
G03 X52.339289 Y239.045913 Z-0.125000 I-8.533162 J-0.243759
G03 X52.291505 Y239.391675 Z-0.125000 I-2.058788 J-0.108337
G01 X52.209064 Y239.622622 Z-0.125000
G01 X52.072146 Y239.813309 Z-0.125000
G01 X51.874201 Y239.945083 Z-0.125000
G01 X51.637507 Y240.017358 Z-0.125000
G03 X51.229279 Y240.050503 Z-0.125000 I-0.408228 J-2.497393
G03 X50.954683 Y240.025742 Z-0.125000 I-0.000000 J-1.535017
G03 X50.683576 Y239.951283 Z-0.125000 I0.285532 J-1.570408
G03 X50.423797 Y239.843313 Z-0.125000 I0.795776 J-2.281169
G03 X50.032453 Y239.635023 Z-0.125000 I2.621254 J-5.396695
G01 X50.032444 Y239.635025 Z-0.125000
G00 Z5.000000

(End cutting path id: path14519)


(Start cutting path id: path14517)
(ZZZanette)
(Change tool to Default tool)

G00 Z5.000000
G00 X41.648459 Y237.768472

G01 Z-0.125000 F100.0(Penetrate)
G01 X36.538694 Y237.768472 Z-0.125000 F400.000000
G03 X36.735607 Y237.028573 Z-0.125000 I1.927485 J0.116819
G03 X37.158811 Y236.515835 Z-0.125000 I1.304812 J0.645946
G03 X37.780691 Y236.216880 Z-0.125000 I1.059445 J1.407549
G03 X38.851731 Y236.081753 Z-0.125000 I1.071040 J4.177055
G03 X39.546835 Y236.145685 Z-0.125000 I-0.000000 J3.810711
G03 X40.222190 Y236.336001 Z-0.125000 I-0.702334 J3.785753
G03 X40.865952 Y236.625807 Z-0.125000 I-2.214017 J5.778041
G03 X41.270188 Y236.881704 Z-0.125000 I-1.312389 J2.520383
G01 X41.518235 Y236.881704 Z-0.125000
G01 X41.518235 Y235.089566 Z-0.125000
G02 X40.752020 Y234.817952 Z-0.125000 I-3.673354 J9.145886
G02 X40.091965 Y234.649283 Z-0.125000 I-2.041679 J6.613896
G02 X39.418495 Y234.549995 Z-0.125000 I-1.245371 J6.113624
G02 X38.609885 Y234.512857 Z-0.125000 I-0.808610 J8.784429
G02 X36.618540 Y234.798991 Z-0.125000 I0.000000 J7.072428
G02 X35.397678 Y235.455435 Z-0.125000 I0.945369 J3.221718
G02 X34.599732 Y236.545817 Z-0.125000 I1.850462 J2.191337
G02 X34.281467 Y238.140542 Z-0.125000 I3.836199 J1.594725
G02 X34.579141 Y239.736945 Z-0.125000 I4.429538 J0.000000
G02 X35.335667 Y240.869058 Z-0.125000 I2.904890 J-1.122345
G02 X36.512860 Y241.588052 Z-0.125000 I2.249570 J-2.359977
G02 X38.237815 Y241.879849 Z-0.125000 I1.724955 J-4.952631
G02 X39.828249 Y241.618788 Z-0.125000 I-0.000000 J-4.975152
G02 X40.792698 Y241.017886 Z-0.125000 I-0.790582 J-2.343308
G02 X41.394584 Y240.056966 Z-0.125000 I-1.790412 J-1.790410
G02 X41.648459 Y238.549820 Z-0.125000 I-4.346698 J-1.507146
G01 X41.648459 Y237.768472 Z-0.125000
G01 X41.648459 Y237.768472 Z-0.125000
G00 Z5.000000

(End cutting path id: path14517)


(Start cutting path id: path14517)
(ZZZanette)
(Change tool to Default tool)

G00 Z5.000000
G00 X39.428440 Y239.076919

G01 Z-0.125000 F100.0(Penetrate)
G03 X39.313304 Y239.738219 Z-0.125000 I-2.308684 J-0.061281 F400.000000
G03 X39.081174 Y240.131119 Z-0.125000 I-1.013857 J-0.333976
G01 X38.705181 Y240.375946 Z-0.125000
G03 X38.057981 Y240.484585 Z-0.125000 I-0.647200 J-1.873478
G03 X37.446324 Y240.390302 Z-0.125000 I0.000000 J-2.031198
G03 X36.997581 Y240.149722 Z-0.125000 I0.414010 J-1.311033
G03 X36.697073 Y239.755037 Z-0.125000 I0.650337 J-0.806902
G03 X36.532493 Y239.076919 Z-0.125000 I1.881469 J-0.815666
G01 X39.428440 Y239.076919 Z-0.125000
G01 X39.428440 Y239.076919 Z-0.125000
G00 Z5.000000

(End cutting path id: path14517)


(Start cutting path id: path14515)
(ZZZanette)
(Change tool to Default tool)

G00 Z5.000000
G00 X33.481516 Y242.146499

G01 Z-0.125000 F100.0(Penetrate)
G01 X30.597972 Y242.146499 Z-0.125000 F400.000000
G01 X30.597972 Y234.698892 Z-0.125000
G01 X28.216722 Y234.698892 Z-0.125000
G01 X28.216722 Y242.146499 Z-0.125000
G01 X25.333177 Y242.146499 Z-0.125000
G01 X25.333177 Y243.932437 Z-0.125000
G01 X33.481516 Y243.932437 Z-0.125000
G01 X33.481516 Y242.146499 Z-0.125000
G01 X33.481516 Y242.146499 Z-0.125000
G00 Z5.000000

(End cutting path id: path14515)


(Start cutting path id: path4286)
(ZZZanette)
(Change tool to Default tool)

G00 Z5.000000
G00 X41.712378 Y203.071407

G01 Z-0.125000 F100.0(Penetrate)
G03 X37.350558 Y200.968109 Z-0.125000 I5.263547 J-16.489959 F400.000000
G03 X35.567861 Y199.016857 Z-0.125000 I3.080621 J-4.604485
G03 X35.577985 Y197.154938 Z-0.125000 I1.689639 J-0.921800
G03 X38.164675 Y195.036344 Z-0.125000 I3.990381 J2.233641
G03 X52.171318 Y193.035593 Z-0.125000 I12.829541 J39.787195
G03 X63.395659 Y194.591646 Z-0.125000 I-1.458622 J51.782083
G03 X68.210445 Y197.001708 Z-0.125000 I-3.064944 J12.137583
G03 X69.097403 Y198.759352 Z-0.125000 I-1.510700 J1.864958
G03 X68.340351 Y200.773622 Z-0.125000 I-2.732755 J0.122312
G03 X65.096803 Y202.979136 Z-0.125000 I-6.798337 J-6.510175
G03 X56.106346 Y204.964438 Z-0.125000 I-10.289023 J-25.244608
G03 X41.712378 Y203.071407 Z-0.125000 I-1.948350 J-40.855366
G00 Z5.000000

(End cutting path id: path4286)


(Start cutting path id: path4278)
(ZZZanette)
(Change tool to Default tool)

G00 Z5.000000
G00 X35.219587 Y197.454676

G01 Z-0.125000 F100.0(Penetrate)
G03 X35.240948 Y191.319050 Z-0.125000 I881.185598 J-0.000000 F400.000000
G03 X35.307865 Y187.864847 Z-0.125000 I139.227590 J0.969454
G03 X35.821719 Y186.600146 Z-0.125000 I1.966659 J0.062322
G03 X38.164662 Y184.916352 Z-0.125000 I5.170983 J4.723287
G03 X51.829644 Y182.226111 Z-0.125000 I12.804278 J28.988362
G03 X63.395647 Y184.470444 Z-0.125000 I-0.977011 J35.959385
G03 X68.269030 Y187.647163 Z-0.125000 I-4.609410 J12.397738
G03 X68.989696 Y189.422031 Z-0.125000 I-1.825254 J1.774868
G01 X69.099447 Y199.091505 Z-0.125000
G00 Z5.000000

(End cutting path id: path4278)


(Start cutting path id: path4262)
(ZZZanette)
(Change tool to Default tool)

G00 Z5.000000
G00 X35.277988 Y192.612477

G01 Z-0.125000 F100.0(Penetrate)
G01 X21.472416 Y188.275389 Z-0.125000 F400.000000
G00 Z5.000000

(End cutting path id: path4262)


(Start cutting path id: path4254)
(ZZZanette)
(Change tool to Default tool)

G00 Z5.000000
G00 X21.472853 Y188.275317

G01 Z-0.125000 F100.0(Penetrate)
G01 X48.452951 Y177.659365 Z-0.125000 F400.000000
G01 X48.452951 Y126.360812 Z-0.125000
G01 X21.472853 Y138.367002 Z-0.125000
G01 X21.472853 Y188.275317 Z-0.125000
G00 Z5.000000

(End cutting path id: path4254)


(Start cutting path id: path4258)
(ZZZanette)
(Change tool to Default tool)

G00 Z5.000000
G00 X48.453070 Y126.359764

G01 Z-0.125000 F100.0(Penetrate)
G01 X82.886458 Y138.962288 Z-0.125000 F400.000000
G01 X82.886458 Y189.068844 Z-0.125000
G01 X48.453070 Y177.658317 Z-0.125000
G00 Z5.000000

(End cutting path id: path4258)


(Start cutting path id: path62)
(ZZZanette)
(Change tool to Default tool)

G00 Z5.000000
G00 X108.075011 Y188.365706

G01 Z-0.125000 F100.0(Penetrate)
G01 X108.075011 Y172.506424 Z-0.125000 F400.000000
G03 X108.985925 Y166.095402 Z-0.125000 I23.015870 J0.000000
G03 X110.865071 Y162.604918 Z-0.125000 I9.064619 J2.628979
G03 X114.037082 Y160.347069 Z-0.125000 I6.068048 J5.167816
G03 X118.683156 Y159.473131 Z-0.125000 I4.646075 J11.912894
G03 X123.524607 Y160.371579 Z-0.125000 I0.000000 J13.493749
G03 X126.826584 Y162.657642 Z-0.125000 I-3.048592 J7.931082
G03 X128.822601 Y166.196948 Z-0.125000 I-7.178151 J6.380657
G03 X129.764527 Y172.422066 Z-0.125000 I-20.099698 J6.225119
G01 X129.764527 Y188.365706 Z-0.125000
G01 X123.770334 Y188.365706 Z-0.125000
G01 X123.770334 Y172.042455 Z-0.125000
G02 X121.976541 Y166.250799 Z-0.125000 I-10.246721 J0.000000
G02 X118.880334 Y164.618962 Z-0.125000 I-3.096207 J2.121415
G02 X115.839385 Y166.238489 Z-0.125000 I0.000000 J3.664723
G02 X114.069205 Y172.042455 Z-0.125000 I8.629766 J5.803967
G01 X114.069205 Y188.365706 Z-0.125000
G01 X108.075011 Y188.365706 Z-0.125000
G00 Z5.000000

(End cutting path id: path62)


(Start cutting path id: path64)
(ZZZanette)
(Change tool to Default tool)

G00 Z5.000000
G00 X157.172189 Y176.218170

G01 Z-0.125000 F100.0(Penetrate)
G01 X147.273882 Y176.218170 Z-0.125000 F400.000000
G01 X147.273882 Y171.198877 Z-0.125000
G01 X151.375173 Y171.198877 Z-0.125000
G01 X151.375173 Y165.209468 Z-0.125000
G02 X150.587681 Y164.982181 Z-0.125000 I-1.210522 J2.716287
G02 X148.456947 Y164.829856 Z-0.125000 I-2.130734 J14.826299
G02 X142.814697 Y167.250382 Z-0.125000 I0.000000 J7.786308
G02 X140.057188 Y174.151403 Z-0.125000 I7.256589 J6.901020
G02 X143.080833 Y181.070248 Z-0.125000 I9.427835 J0.000000
G02 X148.890737 Y183.346412 Z-0.125000 I5.809904 J-6.276801
G02 X152.916406 Y182.882701 Z-0.125000 I-0.000000 J-17.706101
G02 X155.042672 Y182.123223 Z-0.125000 I-2.262350 J-9.689898
G01 X156.304608 Y187.311232 Z-0.125000
G03 X154.196658 Y188.057649 Z-0.125000 I-4.366256 J-8.980979
G03 X148.930172 Y188.660959 Z-0.125000 I-5.266487 J-22.684785
G03 X138.554364 Y184.640743 Z-0.125000 I-0.000000 J-15.399611
G03 X133.747511 Y173.813971 Z-0.125000 I9.928001 J-10.888275
G03 X134.810354 Y167.742044 Z-0.125000 I17.875606 J0.000000
G03 X137.493882 Y163.437952 Z-0.125000 I11.392438 J4.114377
G03 X141.580974 Y160.816798 Z-0.125000 I7.796830 J7.660361
G03 X148.299204 Y159.641847 Z-0.125000 I6.718230 J18.619531
G03 X154.042910 Y160.309661 Z-0.125000 I-0.000000 J25.033998
G03 X157.172189 Y161.244647 Z-0.125000 I-6.370717 J27.026117
G01 X157.172189 Y176.218170 Z-0.125000
G00 Z5.000000

(End cutting path id: path64)


(Start cutting path id: path14557)
(ZZZanette)
(Change tool to Default tool)

G00 Z5.000000
G00 X141.057380 Y110.962256

G01 Z-0.125000 F100.0(Penetrate)
G02 X140.838470 Y107.773034 Z-0.125000 I-23.340828 J-0.000000 F400.000000
G02 X140.230560 Y104.967796 Z-0.125000 I-18.641589 J2.571247
G02 X139.144099 Y102.339305 Z-0.125000 I-13.357007 J3.982202
G02 X137.715640 Y100.299686 Z-0.125000 I-9.405442 J5.067133
G02 X135.697512 Y98.528393 Z-0.125000 I-8.187272 J7.292868
G02 X133.185340 Y97.216326 Z-0.125000 I-6.872622 J10.097763
G02 X130.429307 Y96.484203 Z-0.125000 I-5.033027 J13.393012
G02 X126.880810 Y96.200026 Z-0.125000 I-3.548497 J22.012795
G02 X125.607997 Y96.235796 Z-0.125000 I0.000000 J22.663409
G02 X124.124740 Y96.355056 Z-0.125000 I1.738295 J30.902818
G02 X122.648182 Y96.536793 Z-0.125000 I4.255749 J40.665836
G02 X122.178260 Y96.630666 Z-0.125000 I0.594762 J4.200470
G01 X122.178260 Y101.677726 Z-0.125000
G01 X122.867280 Y101.677726 Z-0.125000
G03 X123.393814 Y101.462544 Z-0.125000 I2.472042 J5.297116
G03 X124.331440 Y101.160966 Z-0.125000 I5.833321 J16.527818
G03 X125.308137 Y100.971518 Z-0.125000 I1.578013 J5.523017
G03 X126.949720 Y100.885356 Z-0.125000 I1.641583 J15.594945
G03 X128.283016 Y100.967825 Z-0.125000 I0.000000 J10.819115
G03 X129.585210 Y101.212636 Z-0.125000 I-1.311748 J10.563124
G03 X130.821176 Y101.669848 Z-0.125000 I-1.814346 J6.803837
G03 X131.807300 Y102.280616 Z-0.125000 I-2.363236 J4.917061
G03 X132.724363 Y103.142377 Z-0.125000 I-3.721070 J4.878699
G03 X133.478170 Y104.209876 Z-0.125000 I-5.001719 J4.331828
G03 X134.001215 Y105.425200 Z-0.125000 I-5.606912 J3.133290
G03 X134.356670 Y107.017626 Z-0.125000 I-9.321986 J2.916700
G02 X132.829740 Y106.217517 Z-0.125000 I-11.026075 J19.185150
G02 X131.566140 Y105.691266 Z-0.125000 I-5.989127 J12.600530
G02 X130.268923 Y105.375524 Z-0.125000 I-2.235982 J6.363815
G02 X128.379430 Y105.243396 Z-0.125000 I-1.889493 J13.444228
G02 X126.943838 Y105.332222 Z-0.125000 I0.000000 J11.645322
G02 X125.606130 Y105.587906 Z-0.125000 I1.287108 J10.361196
G02 X124.343361 Y106.049631 Z-0.125000 I2.214241 J8.013357
G02 X123.211790 Y106.690336 Z-0.125000 I3.252321 J7.063634
G02 X121.943896 Y107.847580 Z-0.125000 I4.091735 J5.756153
G02 X120.920800 Y109.360286 Z-0.125000 I6.065761 J5.204816
G02 X120.322664 Y111.089753 Z-0.125000 I6.077500 J3.070067
G02 X120.076750 Y113.563306 Z-0.125000 I12.317272 J2.473553
G02 X120.848373 Y117.337465 Z-0.125000 I9.615884 J0.000000
G02 X122.936180 Y120.264016 Z-0.125000 I7.702325 J-3.286854
G02 X126.095258 Y122.131608 Z-0.125000 I6.157491 J-6.809921
G02 X130.463710 Y122.865066 Z-0.125000 I4.368452 J-12.642455
G02 X132.828349 Y122.688233 Z-0.125000 I-0.000000 J-15.898563
G02 X134.701180 Y122.227726 Z-0.125000 I-1.564246 J-10.400169
G02 X136.451310 Y121.425295 Z-0.125000 I-2.820399 J-8.461150
G02 X137.905120 Y120.315696 Z-0.125000 I-4.124086 J-6.910625
G02 X139.241101 Y118.684812 Z-0.125000 I-5.702267 J-6.033805
G02 X140.265010 Y116.543316 Z-0.125000 I-8.922297 J-5.581527
G02 X140.827718 Y114.213732 Z-0.125000 I-11.817595 J-4.087276
G02 X141.057380 Y110.962256 Z-0.125000 I-22.901777 J-3.251476
G01 X141.057380 Y110.962256 Z-0.125000
G00 Z5.000000

(End cutting path id: path14557)


(Start cutting path id: path14557)
(ZZZanette)
(Change tool to Default tool)

G00 Z5.000000
G00 X134.460020 Y111.926886

G01 Z-0.125000 F100.0(Penetrate)
G03 X134.335500 Y114.009672 Z-0.125000 I-17.481157 J-0.000000 F400.000000
G03 X134.046610 Y115.371986 Z-0.125000 I-7.731863 J-0.927819
G03 X133.526722 Y116.661562 Z-0.125000 I-6.692060 J-1.948296
G03 X132.944180 Y117.473486 Z-0.125000 I-3.188027 J-1.672413
G03 X132.395910 Y117.952517 Z-0.125000 I-2.321810 J-2.104127
G03 X131.790080 Y118.265866 Z-0.125000 I-1.556553 J-2.267117
G03 X131.124476 Y118.445150 Z-0.125000 I-1.327578 J-3.603535
G03 X130.412040 Y118.507016 Z-0.125000 I-0.712436 J-4.071183
G03 X129.751703 Y118.445914 Z-0.125000 I0.000000 J-3.598719
G03 X129.120130 Y118.265866 Z-0.125000 I0.647608 J-3.469423
G03 X128.558848 Y117.977071 Z-0.125000 I0.921358 J-2.480516
G03 X127.948790 Y117.473486 Z-0.125000 I2.328552 J-3.442195
G03 X127.487339 Y116.875949 Z-0.125000 I2.427168 J-2.351343
G03 X127.070290 Y116.026546 Z-0.125000 I4.537849 J-2.755125
G03 X126.836220 Y115.114331 Z-0.125000 I4.468743 J-1.632798
G03 X126.743010 Y113.890586 Z-0.125000 I7.986647 J-1.223745
G03 X126.847539 Y112.706672 Z-0.125000 I6.756888 J-0.000000
G03 X127.104750 Y111.857986 Z-0.125000 I3.703564 J0.659120
G03 X127.549644 Y111.114488 Z-0.125000 I3.330649 J1.488137
G03 X128.103820 Y110.566076 Z-0.125000 I2.336632 J1.806983
G03 X128.743275 Y110.177957 Z-0.125000 I2.051981 J2.659955
G03 X129.516310 Y109.911506 Z-0.125000 I1.687790 J3.642064
G03 X130.348860 Y109.772596 Z-0.125000 I1.573462 J6.866084
G03 X131.307760 Y109.722026 Z-0.125000 I0.958900 J9.065975
G03 X132.078483 Y109.765145 Z-0.125000 I0.000000 J6.909579
G03 X132.995860 Y109.911506 Z-0.125000 I-1.116238 J9.944701
G03 X133.900005 Y110.145931 Z-0.125000 I-3.323246 J14.678070
G03 X134.408350 Y110.324916 Z-0.125000 I-1.407380 J4.808568
G02 X134.411400 Y110.514320 Z-0.125000 I5.883270 J-0.000000
G02 X134.425550 Y110.858906 Z-0.125000 I19.490831 J-0.627806
G03 X134.448588 Y111.221185 Z-0.125000 I-5.772724 J0.548962
G03 X134.459950 Y111.926886 Z-0.125000 I-21.909143 J0.705701
G01 X134.460020 Y111.926886 Z-0.125000
G00 Z5.000000

(End cutting path id: path14557)


(Start cutting path id: path14555)
(ZZZanette)
(Change tool to Default tool)

G00 Z5.000000
G00 X114.909100 Y96.699566

G01 Z-0.125000 F100.0(Penetrate)
G01 X97.786979 Y96.699566 Z-0.125000 F400.000000
G01 X97.786979 Y101.178186 Z-0.125000
G01 X103.195780 Y101.178186 Z-0.125000
G01 X103.195780 Y114.734636 Z-0.125000
G01 X97.786979 Y114.734636 Z-0.125000
G01 X97.786979 Y118.920426 Z-0.125000
G03 X99.025048 Y118.956284 Z-0.125000 I0.000000 J21.391540
G03 X100.164090 Y119.058236 Z-0.125000 I-1.055447 J18.205605
G03 X101.279434 Y119.285359 Z-0.125000 I-1.177308 J8.633619
G03 X102.058900 Y119.574996 Z-0.125000 I-1.223601 J4.486591
G03 X102.872991 Y120.098465 Z-0.125000 I-1.704995 J3.546345
G03 X103.402480 Y120.694656 Z-0.125000 I-1.709759 J2.051692
G03 X103.738946 Y121.420776 Z-0.125000 I-2.362983 J1.535963
G03 X103.919250 Y122.417206 Z-0.125000 I-4.321837 J1.296564
G01 X109.620880 Y122.417206 Z-0.125000
G01 X109.620880 Y101.178186 Z-0.125000
G01 X114.909100 Y101.178186 Z-0.125000
G01 X114.909100 Y96.699566 Z-0.125000
G01 X114.909100 Y96.699566 Z-0.125000
G00 Z5.000000

(End cutting path id: path14555)


(Start cutting path id: path14577)
(ZZZanette)
(Change tool to Default tool)

G00 Z5.000000
G00 X110.182430 Y81.299626

G01 Z-0.125000 F100.0(Penetrate)
G03 X110.080106 Y81.887439 Z-0.125000 I-2.051764 J-0.054352 F400.000000
G01 X109.873750 Y82.236696 Z-0.125000
G01 X109.539538 Y82.454318 Z-0.125000
G03 X108.964250 Y82.550886 Z-0.125000 I-0.575288 J-1.665313
G03 X108.420559 Y82.467079 Z-0.125000 I-0.000000 J-1.805478
G03 X108.021670 Y82.253226 Z-0.125000 I0.368023 J-1.165395
G01 X107.754555 Y81.902400 Z-0.125000
G03 X107.608260 Y81.299626 Z-0.125000 I1.672451 J-0.725050
G01 X110.182430 Y81.299626 Z-0.125000
G01 X110.182430 Y81.299626 Z-0.125000
G00 Z5.000000

(End cutting path id: path14577)


(Start cutting path id: path14577)
(ZZZanette)
(Change tool to Default tool)

G00 Z5.000000
G00 X112.155790 Y80.136566

G01 Z-0.125000 F100.0(Penetrate)
G01 X107.613770 Y80.136566 Z-0.125000 F400.000000
G03 X107.788807 Y79.478873 Z-0.125000 I1.713336 J0.103844
G03 X108.164990 Y79.023106 Z-0.125000 I1.159831 J0.574176
G03 X108.717772 Y78.757368 Z-0.125000 I0.941731 J1.251159
G03 X109.669800 Y78.637256 Z-0.125000 I0.952028 J3.712896
G03 X110.287675 Y78.694086 Z-0.125000 I-0.000000 J3.387311
G03 X110.887990 Y78.863256 Z-0.125000 I-0.624291 J3.365068
G03 X111.460223 Y79.120863 Z-0.125000 I-1.968037 J5.136055
G03 X111.819540 Y79.348326 Z-0.125000 I-1.166556 J2.240305
G01 X112.040030 Y79.348326 Z-0.125000
G01 X112.040030 Y77.755316 Z-0.125000
G02 X111.358952 Y77.513877 Z-0.125000 I-3.265253 J8.129646
G02 X110.772240 Y77.363946 Z-0.125000 I-1.814854 J5.878974
G02 X110.173592 Y77.275695 Z-0.125000 I-1.107017 J5.434844
G02 X109.454830 Y77.242686 Z-0.125000 I-0.718762 J7.808879
G02 X107.684743 Y77.497026 Z-0.125000 I0.000000 J6.286652
G02 X106.599540 Y78.080526 Z-0.125000 I0.840313 J2.863719
G02 X105.890253 Y79.049757 Z-0.125000 I1.644861 J1.947860
G02 X105.607350 Y80.467296 Z-0.125000 I3.409970 J1.417539
G02 X105.871946 Y81.886314 Z-0.125000 I3.937362 J-0.000000
G02 X106.544410 Y82.892636 Z-0.125000 I2.582136 J-0.997640
G02 X107.590806 Y83.531741 Z-0.125000 I1.999621 J-2.097768
G02 X109.124100 Y83.791116 Z-0.125000 I1.533294 J-4.402351
G02 X110.537821 Y83.559065 Z-0.125000 I0.000000 J-4.422418
G02 X111.395110 Y83.024936 Z-0.125000 I-0.702735 J-2.082954
G02 X111.930123 Y82.170782 Z-0.125000 I-1.591484 J-1.591484
G02 X112.155790 Y80.831096 Z-0.125000 I-3.863722 J-1.339686
G01 X112.155790 Y80.136566 Z-0.125000
G01 X112.155790 Y80.136566 Z-0.125000
G00 Z5.000000

(End cutting path id: path14577)


(Start cutting path id: path14579)
(ZZZanette)
(Change tool to Default tool)

G00 Z5.000000
G00 X121.752440 Y81.514606

G01 Z-0.125000 F100.0(Penetrate)
G03 X121.651748 Y82.980624 Z-0.125000 I-10.722521 J-0.000000 F400.000000
G03 X121.460300 Y83.631266 Z-0.125000 I-2.262679 J-0.312293
G03 X121.059603 Y84.095619 Z-0.125000 I-1.007515 J-0.464341
G03 X120.490160 Y84.265166 Z-0.125000 I-0.569443 J-0.871493
G03 X119.920710 Y84.095616 Z-0.125000 I0.000000 J-1.041053
G03 X119.520020 Y83.631266 Z-0.125000 I0.606798 J-0.928663
G03 X119.328805 Y82.980572 Z-0.125000 I2.066349 J-0.960666
G03 X119.227880 Y81.503576 Z-0.125000 I10.757137 J-1.476996
G03 X119.329049 Y80.065076 Z-0.125000 I10.277426 J-0.000000
G03 X119.525530 Y79.397936 Z-0.125000 I2.366924 J0.334585
G03 X119.931645 Y78.922522 Z-0.125000 I1.047055 J0.483264
G01 X120.490160 Y78.753016 Z-0.125000
G01 X121.048675 Y78.922522 Z-0.125000
G03 X121.454790 Y79.397936 Z-0.125000 I-0.640941 J0.958678
G03 X121.651025 Y80.065130 Z-0.125000 I-2.165070 J0.999245
G03 X121.752440 Y81.514606 Z-0.125000 I-10.307617 J1.449476
G01 X121.752440 Y81.514606 Z-0.125000
G00 Z5.000000

(End cutting path id: path14579)


(Start cutting path id: path14579)
(ZZZanette)
(Change tool to Default tool)

G00 Z5.000000
G00 X123.885650 Y81.514606

G01 Z-0.125000 F100.0(Penetrate)
G02 X123.833799 Y80.484157 Z-0.125000 I-10.265073 J-0.000000 F400.000000
G02 X123.698230 Y79.657006 Z-0.125000 I-6.740523 J0.680076
G02 X123.440080 Y78.874265 Z-0.125000 I-4.336025 J0.996095
G02 X123.113940 Y78.317556 Z-0.125000 I-2.498937 J1.090077
G02 X122.651827 Y77.852292 Z-0.125000 I-2.006263 J1.530551
G02 X122.066640 Y77.507266 Z-0.125000 I-1.657148 J2.141864
G02 X121.411362 Y77.315510 Z-0.125000 I-1.157679 J2.740583
G02 X120.490160 Y77.237166 Z-0.125000 I-0.921202 J5.376735
G02 X119.585625 Y77.315911 Z-0.125000 I0.000000 J5.234538
G02 X118.919200 Y77.512776 Z-0.125000 I0.529826 J3.019977
G02 X118.325499 Y77.860643 Z-0.125000 I1.041717 J2.458454
G02 X117.866370 Y78.328576 Z-0.125000 I1.484374 J1.915658
G02 X117.529833 Y78.901946 Z-0.125000 I2.292432 J1.730984
G02 X117.276570 Y79.668026 Z-0.125000 I3.872113 J1.705008
G02 X117.145459 Y80.478474 Z-0.125000 I6.472132 J1.462860
G02 X117.094670 Y81.509086 Z-0.125000 I10.431104 J1.030612
G02 X117.148164 Y82.572174 Z-0.125000 I10.590213 J-0.000000
G02 X117.282090 Y83.366686 Z-0.125000 I6.037233 J-0.609118
G02 X117.538194 Y84.122783 Z-0.125000 I4.174097 J-0.992423
G02 X117.877400 Y84.700626 Z-0.125000 I2.760261 J-1.231848
G02 X118.341671 Y85.168004 Z-0.125000 I1.948736 J-1.471500
G02 X118.935730 Y85.510916 Z-0.125000 I1.609325 J-2.101960
G02 X119.601449 Y85.704371 Z-0.125000 I1.202517 J-2.895942
G02 X120.490160 Y85.781006 Z-0.125000 I0.888711 J-5.114738
G02 X121.415597 Y85.699420 Z-0.125000 I-0.000000 J-5.289440
G02 X122.072150 Y85.499886 Z-0.125000 I-0.504890 J-2.841247
G02 X122.654703 Y85.152560 Z-0.125000 I-1.030304 J-2.390287
G02 X123.119460 Y84.673066 Z-0.125000 I-1.563462 J-1.980393
G02 X123.452163 Y84.100689 Z-0.125000 I-2.340054 J-1.743073
G02 X123.703740 Y83.339126 Z-0.125000 I-3.922593 J-1.718138
G02 X123.834408 Y82.545050 Z-0.125000 I-6.157479 J-1.421023
G02 X123.885650 Y81.514606 Z-0.125000 I-10.335141 J-1.030444
G01 X123.885650 Y81.514606 Z-0.125000
G00 Z5.000000

(End cutting path id: path14579)


(Start cutting path id: path14581)
(ZZZanette)
(Change tool to Default tool)

G00 Z5.000000
G00 X131.448320 Y77.408046

G01 Z-0.125000 F100.0(Penetrate)
G01 X125.969240 Y77.408046 Z-0.125000 F400.000000
G01 X125.969240 Y78.841206 Z-0.125000
G01 X127.700060 Y78.841206 Z-0.125000
G01 X127.700060 Y83.179276 Z-0.125000
G01 X125.969240 Y83.179276 Z-0.125000
G01 X125.969240 Y84.518726 Z-0.125000
G03 X126.365427 Y84.530201 Z-0.125000 I0.000000 J6.845297
G03 X126.729920 Y84.562826 Z-0.125000 I-0.337738 J5.825629
G03 X127.086824 Y84.635499 Z-0.125000 I-0.376598 J2.762227
G03 X127.336250 Y84.728186 Z-0.125000 I-0.391483 J1.435461
G03 X127.596766 Y84.895694 Z-0.125000 I-0.545533 J1.134771
G01 X127.766200 Y85.086476 Z-0.125000
G01 X127.873871 Y85.318838 Z-0.125000
G03 X127.931570 Y85.637696 Z-0.125000 I-1.383001 J0.414910
G01 X129.756090 Y85.637696 Z-0.125000
G01 X129.756090 Y78.841206 Z-0.125000
G01 X131.448320 Y78.841206 Z-0.125000
G01 X131.448320 Y77.408046 Z-0.125000
G01 X131.448320 Y77.408046 Z-0.125000
G00 Z5.000000

(End cutting path id: path14581)


(Start cutting path id: path14583)
(ZZZanette)
(Change tool to Default tool)

G00 Z5.000000
G00 X139.270070 Y85.984956

G01 Z-0.125000 F100.0(Penetrate)
G01 X134.898930 Y75.622106 Z-0.125000 F400.000000
G01 X133.206700 Y75.622106 Z-0.125000
G01 X137.561300 Y85.984956 Z-0.125000
G01 X139.270070 Y85.984956 Z-0.125000
G01 X139.270070 Y85.984956 Z-0.125000
G00 Z5.000000

(End cutting path id: path14583)


(Start cutting path id: path14585)
(ZZZanette)
(Change tool to Default tool)

G00 Z5.000000
G00 X147.257170 Y77.408046

G01 Z-0.125000 F100.0(Penetrate)
G01 X141.778090 Y77.408046 Z-0.125000 F400.000000
G01 X141.778090 Y78.841206 Z-0.125000
G01 X143.508910 Y78.841206 Z-0.125000
G01 X143.508910 Y83.179276 Z-0.125000
G01 X141.778090 Y83.179276 Z-0.125000
G01 X141.778090 Y84.518726 Z-0.125000
G03 X142.174277 Y84.530201 Z-0.125000 I-0.000000 J6.845297
G03 X142.538770 Y84.562826 Z-0.125000 I-0.337738 J5.825629
G03 X142.895675 Y84.635499 Z-0.125000 I-0.376611 J2.762317
G03 X143.145110 Y84.728186 Z-0.125000 I-0.391516 J1.435608
G03 X143.405619 Y84.895692 Z-0.125000 I-0.545565 J1.134799
G01 X143.575060 Y85.086476 Z-0.125000
G01 X143.682724 Y85.318837 Z-0.125000
G03 X143.740420 Y85.637696 Z-0.125000 I-1.383114 J0.414919
G01 X145.564940 Y85.637696 Z-0.125000
G01 X145.564940 Y78.841206 Z-0.125000
G01 X147.257170 Y78.841206 Z-0.125000
G01 X147.257170 Y77.408046 Z-0.125000
G01 X147.257170 Y77.408046 Z-0.125000
G00 Z5.000000

(End cutting path id: path14585)


(Start cutting path id: path14587)
(ZZZanette)
(Change tool to Default tool)

G00 Z5.000000
G00 X155.801010 Y77.408046

G01 Z-0.125000 F100.0(Penetrate)
G01 X149.357310 Y77.408046 Z-0.125000 F400.000000
G01 X149.357310 Y78.764036 Z-0.125000
G03 X150.087946 Y79.309116 Z-0.125000 I-18.589301 J25.679714
G03 X150.834560 Y79.899536 Z-0.125000 I-21.065760 J27.405896
G03 X151.566962 Y80.513586 Z-0.125000 I-16.247524 J20.122885
G03 X152.025190 Y80.935826 Z-0.125000 I-7.217102 J8.291982
G03 X152.654949 Y81.609998 Z-0.125000 I-6.307876 J6.523544
G03 X152.973280 Y82.060306 Z-0.125000 I-2.478922 J2.090069
G03 X153.188979 Y82.557628 Z-0.125000 I-1.937502 J1.135771
G03 X153.254400 Y83.008396 Z-0.125000 I-1.520236 J0.450768
G03 X153.150811 Y83.522118 Z-0.125000 I-1.325634 J-0.000000
G01 X152.890600 Y83.873806 Z-0.125000
G03 X152.497492 Y84.088729 Z-0.125000 I-0.698696 J-0.810988
G03 X151.854310 Y84.182486 Z-0.125000 I-0.643182 J-2.159270
G03 X151.355904 Y84.134133 Z-0.125000 I-0.000000 J-2.592873
G03 X150.784950 Y83.973026 Z-0.125000 I0.699556 J-3.571456
G03 X150.244179 Y83.732762 Z-0.125000 I1.790308 J-4.758201
G03 X149.748670 Y83.438346 Z-0.125000 I2.211584 J-4.286340
G01 X149.572280 Y83.438346 Z-0.125000
G01 X149.572280 Y85.262866 Z-0.125000
G02 X149.971829 Y85.408726 Z-0.125000 I1.381222 J-3.163360
G02 X150.724320 Y85.604616 Z-0.125000 I3.280738 J-11.059375
G02 X151.495173 Y85.733167 Z-0.125000 I1.570376 J-7.041236
G02 X152.256700 Y85.775496 Z-0.125000 I0.761527 J-6.829055
G02 X153.729828 Y85.575695 Z-0.125000 I-0.000000 J-5.530562
G02 X154.610390 Y85.125066 Z-0.125000 I-0.652205 J-2.360112
G02 X155.193232 Y84.370476 Z-0.125000 I-1.244629 J-1.563733
G02 X155.420670 Y83.295026 Z-0.125000 I-2.428933 J-1.075450
G02 X155.322786 Y82.543319 Z-0.125000 I-2.935338 J-0.000000
G02 X155.029310 Y81.817766 Z-0.125000 I-3.024654 J0.801300
G02 X154.585605 Y81.162853 Z-0.125000 I-3.782167 J2.084665
G02 X153.844200 Y80.373586 Z-0.125000 I-6.255749 J5.133537
G02 X153.333190 Y79.921696 Z-0.125000 I-10.843524 J11.747268
G02 X152.835470 Y79.519206 Z-0.125000 I-9.097666 J10.741226
G02 X152.326818 Y79.135442 Z-0.125000 I-47.398217 J62.293923
G02 X152.113380 Y78.979006 Z-0.125000 I-8.087610 J10.810778
G01 X155.801010 Y78.979006 Z-0.125000
G01 X155.801010 Y77.408046 Z-0.125000
G01 X155.801010 Y77.408046 Z-0.125000
G00 Z5.000000

(End cutting path id: path14587)


(Start cutting path id: path14615)
(ZZZanette)
(Change tool to Default tool)

G00 Z5.000000
G00 X147.124880 Y52.278146

G01 Z-0.125000 F100.0(Penetrate)
G02 X146.870075 Y50.857749 Z-0.125000 I-4.086365 J0.000000 F400.000000
G02 X146.231910 Y49.869336 Z-0.125000 I-2.546849 J0.944142
G02 X145.239209 Y49.249233 Z-0.125000 I-1.877710 J1.901320
G02 X143.734900 Y48.992896 Z-0.125000 I-1.504309 J4.285831
G02 X142.229965 Y49.248808 Z-0.125000 I0.000000 J4.552973
G02 X141.232390 Y49.869336 Z-0.125000 I0.891348 J2.545076
G02 X140.598439 Y50.856746 Z-0.125000 I1.914241 J1.926222
G02 X140.344930 Y52.278146 Z-0.125000 I3.858069 J1.421400
G02 X140.600985 Y53.708570 Z-0.125000 I4.123487 J0.000000
G02 X141.237900 Y54.692466 Z-0.125000 I2.515888 J-0.930536
G02 X142.240042 Y55.314171 Z-0.125000 I1.906281 J-1.954241
G02 X143.734900 Y55.568896 Z-0.125000 I1.494858 J-4.258938
G02 X145.248254 Y55.310030 Z-0.125000 I0.000000 J-4.553035
G02 X146.237420 Y54.686956 Z-0.125000 I-0.877401 J-2.489641
G02 X146.871373 Y53.699537 Z-0.125000 I-1.914289 J-1.926249
G02 X147.124880 Y52.278146 Z-0.125000 I-3.858045 J-1.421391
G01 X147.124880 Y52.278146 Z-0.125000
G00 Z5.000000

(End cutting path id: path14615)


(Start cutting path id: path14615)
(ZZZanette)
(Change tool to Default tool)

G00 Z5.000000
G00 X144.682990 Y50.773326

G01 Z-0.125000 F100.0(Penetrate)
G03 X144.846605 Y51.025595 Z-0.125000 I-1.083340 J0.881819 F400.000000
G03 X144.969630 Y51.341076 Z-0.125000 I-1.581473 J0.798439
G03 X145.037571 Y51.681831 Z-0.125000 I-1.852180 J0.546444
G03 X145.068830 Y52.267116 Z-0.125000 I-5.463683 J0.585285
G03 X145.039544 Y52.808961 Z-0.125000 I-5.027262 J-0.000000
G03 X144.969630 Y53.182136 Z-0.125000 I-2.446716 J-0.265256
G03 X144.840450 Y53.536270 Z-0.125000 I-2.086212 J-0.560375
G03 X144.694020 Y53.771936 Z-0.125000 I-1.060202 J-0.495426
G03 X144.495159 Y53.967415 Z-0.125000 I-0.839864 J-0.655503
G01 X144.269580 Y54.091646 Z-0.125000
G03 X144.017060 Y54.160809 Z-0.125000 I-0.493644 J-1.306759
G03 X143.734900 Y54.185346 Z-0.125000 I-0.282160 J-1.610089
G03 X143.451791 Y54.164148 Z-0.125000 I-0.000000 J-1.901125
G03 X143.222270 Y54.108146 Z-0.125000 I0.196054 J-1.301856
G01 X143.020888 Y54.002586 Z-0.125000
G03 X142.797840 Y53.799466 Z-0.125000 I0.809131 J-1.112542
G03 X142.646021 Y53.568290 Z-0.125000 I0.873301 J-0.738956
G03 X142.505690 Y53.209666 Z-0.125000 I1.987534 J-0.984500
G03 X142.432168 Y52.830558 Z-0.125000 I2.301156 J-0.642958
G03 X142.400960 Y52.267086 Z-0.125000 I5.071303 J-0.563472
G03 X142.427649 Y51.763251 Z-0.125000 I4.768972 J-0.000000
G03 X142.494660 Y51.385146 Z-0.125000 I2.746955 J0.291845
G03 X142.620104 Y51.031676 Z-0.125000 I1.966679 J0.498965
G03 X142.770270 Y50.789836 Z-0.125000 I1.060642 J0.491044
G03 X142.966610 Y50.601875 Z-0.125000 I0.877033 J0.719601
G01 X143.189190 Y50.475636 Z-0.125000
G03 X143.442448 Y50.403485 Z-0.125000 I0.475984 J1.190199
G03 X143.751430 Y50.376436 Z-0.125000 I0.308982 J1.751229
G03 X144.017526 Y50.399160 Z-0.125000 I-0.000000 J1.569311
G03 X144.264060 Y50.464636 Z-0.125000 I-0.242750 J1.410895
G01 X144.490593 Y50.587834 Z-0.125000
G01 X144.682980 Y50.773316 Z-0.125000
G01 X144.682990 Y50.773326 Z-0.125000
G00 Z5.000000

(End cutting path id: path14615)


(Start cutting path id: path14613)
(ZZZanette)
(Change tool to Default tool)

G00 Z5.000000
G00 X138.966900 Y49.185826

G01 Z-0.125000 F100.0(Penetrate)
G01 X136.971500 Y49.185826 Z-0.125000 F400.000000
G01 X136.971500 Y52.256096 Z-0.125000
G03 X136.961798 Y52.630410 Z-0.125000 I-7.225824 J-0.000000
G03 X136.932900 Y53.000236 Z-0.125000 I-7.082341 J-0.367375
G03 X136.870166 Y53.367721 Z-0.125000 I-2.791876 J-0.287507
G01 X136.800610 Y53.551446 Z-0.125000
G01 X136.663930 Y53.726622 Z-0.125000
G01 X136.475390 Y53.849106 Z-0.125000
G01 X136.259627 Y53.913280 Z-0.125000
G03 X135.885590 Y53.942806 Z-0.125000 I-0.374037 J-2.354396
G03 X135.618750 Y53.921592 Z-0.125000 I-0.000000 J-1.688844
G03 X135.334380 Y53.854606 Z-0.125000 I0.317858 J-1.986467
G03 X135.066364 Y53.749518 Z-0.125000 I0.686453 J-2.145049
G03 X134.733550 Y53.573486 Z-0.125000 I1.632532 J-3.489166
G01 X134.733550 Y49.185816 Z-0.125000
G01 X132.749180 Y49.185816 Z-0.125000
G01 X132.749180 Y55.375966 Z-0.125000
G01 X134.733550 Y55.375966 Z-0.125000
G01 X134.733550 Y54.692456 Z-0.125000
G02 X135.280956 Y55.075781 Z-0.125000 I3.935073 J-5.036943
G02 X135.747790 Y55.326356 Z-0.125000 I2.129452 J-3.407123
G02 X136.250925 Y55.488272 Z-0.125000 I0.977724 J-2.175489
G02 X136.833680 Y55.546836 Z-0.125000 I0.582755 J-2.870136
G02 X137.765330 Y55.378642 Z-0.125000 I0.000000 J-2.664363
G02 X138.399140 Y54.962556 Z-0.125000 I-0.597540 J-1.600987
G02 X138.793804 Y54.308023 Z-0.125000 I-1.210265 J-1.176005
G02 X138.966890 Y53.215196 Z-0.125000 I-3.363384 J-1.092827
G01 X138.966890 Y49.185816 Z-0.125000
G01 X138.966900 Y49.185826 Z-0.125000
G00 Z5.000000

(End cutting path id: path14613)


(Start cutting path id: path14611)
(ZZZanette)
(Change tool to Default tool)

G00 Z5.000000
G00 X130.875060 Y49.896896

G01 Z-0.125000 F100.0(Penetrate)
G02 X130.803120 Y49.040364 Z-0.125000 I-5.134957 J0.000000 F400.000000
G02 X130.627010 Y48.430656 Z-0.125000 I-2.760032 J0.466926
G02 X130.315852 Y47.884330 Z-0.125000 I-2.366485 J0.986052
G02 X129.932480 Y47.499106 Z-0.125000 I-1.535795 J1.145033
G02 X129.458625 Y47.215209 Z-0.125000 I-1.481855 J1.935972
G02 X128.852100 Y47.008526 Z-0.125000 I-1.356368 J2.987061
G02 X128.218547 Y46.896852 Z-0.125000 I-1.156834 J4.710008
G02 X127.429960 Y46.854186 Z-0.125000 I-0.788587 J7.266303
G02 X126.786233 Y46.873683 Z-0.125000 I-0.000000 J10.636820
G02 X126.156660 Y46.931386 Z-0.125000 I0.620334 J10.231495
G02 X125.536501 Y47.023550 Z-0.125000 I1.592018 J12.845028
G02 X125.076270 Y47.118796 Z-0.125000 I1.243055 J7.166022
G01 X125.076270 Y48.667716 Z-0.125000
G01 X125.318810 Y48.667716 Z-0.125000
G03 X125.687822 Y48.541461 Z-0.125000 I1.567175 J3.978078
G03 X126.206260 Y48.408646 Z-0.125000 I2.256098 J7.728314
G03 X126.732942 Y48.313821 Z-0.125000 I1.221638 J5.275196
G03 X127.143330 Y48.287376 Z-0.125000 I0.410388 J3.171124
G03 X127.689767 Y48.319310 Z-0.125000 I0.000000 J4.691072
G03 X128.036300 Y48.392106 Z-0.125000 I-0.228678 J1.949797
G03 X128.363142 Y48.525438 Z-0.125000 I-0.445288 J1.558822
G01 X128.565470 Y48.678736 Z-0.125000
G01 X128.707742 Y48.871548 Z-0.125000
G03 X128.813510 Y49.130736 Z-0.125000 I-1.074559 J0.589676
G03 X128.868448 Y49.409405 Z-0.125000 I-1.744741 J0.488712
G03 X128.890710 Y49.792196 Z-0.125000 I-3.279804 J0.382791
G01 X128.890710 Y49.907946 Z-0.125000
G02 X128.514190 Y49.646992 Z-0.125000 I-1.857963 J2.278666
G02 X128.096960 Y49.444926 Z-0.125000 I-1.517067 J2.600690
G02 X127.652803 Y49.320015 Z-0.125000 I-0.845812 J2.155415
G02 X127.126820 Y49.274046 Z-0.125000 I-0.525983 J2.986174
G02 X125.926441 Y49.499899 Z-0.125000 I0.000000 J3.302858
G02 X125.120400 Y50.056776 Z-0.125000 I0.772254 J1.979567
G02 X124.634450 Y50.923863 Z-0.125000 I1.670876 J1.506141
G02 X124.414850 Y52.438026 Z-0.125000 I5.110342 J1.514163
G02 X124.475779 Y53.192861 Z-0.125000 I4.706166 J-0.000000
G02 X124.629820 Y53.760946 Z-0.125000 I2.806223 J-0.456002
G02 X124.892920 Y54.287272 Z-0.125000 I2.891778 J-1.116622
G02 X125.236160 Y54.731076 Z-0.125000 I2.389794 J-1.493643
G02 X125.633405 Y55.068085 Z-0.125000 I1.706719 J-1.609144
G02 X126.129120 Y55.331906 Z-0.125000 I1.521567 J-2.261369
G02 X126.674114 Y55.493575 Z-0.125000 I1.130828 J-2.812629
G02 X127.220530 Y55.546876 Z-0.125000 I0.546416 J-2.774174
G02 X127.717343 Y55.513903 Z-0.125000 I0.000000 J-3.759314
G02 X128.130040 Y55.425616 Z-0.125000 I-0.356941 J-2.677231
G02 X128.531628 Y55.283029 Z-0.125000 I-0.843673 J-3.012982
G02 X128.879690 Y55.100396 Z-0.125000 I-1.059422 J-2.442025
G01 X128.951390 Y55.376006 Z-0.125000
G01 X130.875130 Y55.376006 Z-0.125000
G01 X130.875130 Y49.896926 Z-0.125000
G01 X130.875060 Y49.896896 Z-0.125000
G00 Z5.000000

(End cutting path id: path14611)


(Start cutting path id: path14611)
(ZZZanette)
(Change tool to Default tool)

G00 Z5.000000
G00 X128.890680 Y51.137126

G01 Z-0.125000 F100.0(Penetrate)
G01 X128.890680 Y53.942816 Z-0.125000 F400.000000
G03 X128.716277 Y54.002030 Z-0.125000 I-0.509515 J-1.214238
G03 X128.471760 Y54.053056 Z-0.125000 I-0.616358 J-2.342207
G03 X128.222851 Y54.087422 Z-0.125000 I-0.567698 J-3.193138
G03 X128.025280 Y54.097156 Z-0.125000 I-0.197571 J-2.000266
G03 X127.303812 Y53.963077 Z-0.125000 I0.000000 J-2.008123
G03 X126.851190 Y53.645156 Z-0.125000 I0.409897 J-1.064726
G03 X126.576063 Y53.154940 Z-0.125000 I1.022141 J-0.895976
G03 X126.459820 Y52.393896 Z-0.125000 I2.433157 J-0.761044
G03 X126.570621 Y51.544743 Z-0.125000 I3.309253 J0.000000
G01 X126.790550 Y51.148156 Z-0.125000
G01 X127.171920 Y50.900736 Z-0.125000
G03 X127.782740 Y50.795376 Z-0.125000 I0.610820 J1.717924
G03 X128.076669 Y50.818794 Z-0.125000 I0.000000 J1.856289
G03 X128.367030 Y50.889076 Z-0.125000 I-0.301725 J1.881482
G03 X128.645414 Y50.999997 Z-0.125000 I-0.736965 J2.254389
G03 X128.890680 Y51.137126 Z-0.125000 I-0.892773 J1.884704
G01 X128.890680 Y51.137126 Z-0.125000
G00 Z5.000000

(End cutting path id: path14611)


(Start cutting path id: path14609)
(ZZZanette)
(Change tool to Default tool)

G00 Z5.000000
G00 X121.063420 Y50.800886

G01 Z-0.125000 F100.0(Penetrate)
G01 X121.063420 Y52.090726 Z-0.125000 F400.000000
G03 X120.661573 Y52.052587 Z-0.125000 I1.318511 J-16.028475
G03 X120.192500 Y51.997026 Z-0.125000 I2.355776 J-21.896396
G03 X119.727304 Y51.926479 Z-0.125000 I0.821856 J-6.988463
G03 X119.481440 Y51.864736 Z-0.125000 I0.373595 J-2.008076
G03 X119.204178 Y51.739726 Z-0.125000 I0.385868 J-1.225800
G01 X119.023930 Y51.589126 Z-0.125000
G01 X118.913803 Y51.396124 Z-0.125000
G01 X118.869590 Y51.120586 Z-0.125000
G03 X118.879653 Y50.929015 Z-0.125000 I1.828486 J-0.000000
G01 X118.902690 Y50.806396 Z-0.125000
G01 X118.954553 Y50.697185 Z-0.125000
G01 X119.068060 Y50.574886 Z-0.125000
G01 X119.203728 Y50.480561 Z-0.125000
G01 X119.371220 Y50.409526 Z-0.125000
G01 X119.549917 Y50.376652 Z-0.125000
G03 X119.922440 Y50.359926 Z-0.125000 I0.372523 J4.139963
G03 X120.214481 Y50.389102 Z-0.125000 I-0.000000 J1.476185
G03 X120.523260 Y50.481186 Z-0.125000 I-0.351997 J1.744077
G03 X120.818223 Y50.625263 Z-0.125000 I-0.750732 J1.910908
G03 X121.063450 Y50.800896 Z-0.125000 I-0.882886 J1.491746
G01 X121.063420 Y50.800886 Z-0.125000
G00 Z5.000000

(End cutting path id: path14609)


(Start cutting path id: path14609)
(ZZZanette)
(Change tool to Default tool)

G00 Z5.000000
G00 X121.063420 Y49.841776

G01 Z-0.125000 F100.0(Penetrate)
G02 X120.902708 Y49.721671 Z-0.125000 I-8.394906 J11.065604 F400.000000
G02 X120.666550 Y49.549626 Z-0.125000 I-17.463227 J23.722851
G02 X120.423535 Y49.388897 Z-0.125000 I-2.114298 J2.932648
G02 X120.220070 Y49.279536 Z-0.125000 I-1.176191 J1.944337
G02 X119.922219 Y49.165161 Z-0.125000 I-1.124017 J2.482098
G02 X119.613730 Y49.086606 Z-0.125000 I-0.822430 J2.584731
G02 X119.297683 Y49.038355 Z-0.125000 I-0.589473 J2.801915
G02 X118.924710 Y49.020506 Z-0.125000 I-0.372973 J3.887832
G02 X118.100120 Y49.167942 Z-0.125000 I0.000000 J2.379635
G02 X117.447450 Y49.566216 Z-0.125000 I0.686997 J1.859729
G02 X117.011415 Y50.181981 Z-0.125000 I1.207618 J1.317403
G02 X116.852140 Y50.960786 Z-0.125000 I1.824424 J0.778805
G02 X116.939506 Y51.611081 Z-0.125000 I2.463880 J0.000000
G02 X117.155310 Y52.068726 Z-0.125000 I1.413217 J-0.386704
G02 X117.506946 Y52.439701 Z-0.125000 I1.450682 J-1.022917
G02 X118.015200 Y52.746726 Z-0.125000 I1.483174 J-1.881071
G02 X118.580420 Y52.945207 Z-0.125000 I1.445265 J-3.211688
G02 X119.382220 Y53.099506 Z-0.125000 I1.634912 J-6.335272
G02 X120.199409 Y53.189195 Z-0.125000 I2.850496 J-22.204090
G02 X121.074450 Y53.253846 Z-0.125000 I2.316210 J-25.395620
G01 X121.074450 Y53.286946 Z-0.125000
G01 X120.954771 Y53.722932 Z-0.125000
G01 X120.655530 Y53.992506 Z-0.125000
G03 X120.222212 Y54.126950 Z-0.125000 I-0.688536 J-1.453654
G03 X119.420800 Y54.190936 Z-0.125000 I-0.801412 J-4.986786
G03 X118.936482 Y54.150436 Z-0.125000 I-0.000000 J-2.916120
G03 X118.373490 Y54.014546 Z-0.125000 I0.687766 J-4.083591
G03 X117.818855 Y53.837653 Z-0.125000 I7.806479 J-25.434674
G03 X117.574230 Y53.749966 Z-0.125000 I1.666009 J-5.032784
G01 X117.392330 Y53.749966 Z-0.125000
G01 X117.392330 Y55.243756 Z-0.125000
G02 X117.708861 Y55.315264 Z-0.125000 I1.173649 J-4.458874
G02 X118.412080 Y55.436686 Z-0.125000 I4.145064 J-21.909134
G02 X119.125479 Y55.523649 Z-0.125000 I1.440965 J-8.851304
G02 X119.834210 Y55.552446 Z-0.125000 I0.708731 J-8.706876
G02 X121.471816 Y55.378829 Z-0.125000 I0.000000 J-7.809970
G02 X122.276100 Y55.028786 Z-0.125000 I-0.464612 J-2.166542
G02 X122.811557 Y54.394945 Z-0.125000 I-0.886447 J-1.291946
G02 X123.031260 Y53.397186 Z-0.125000 I-2.155760 J-0.997759
G01 X123.031260 Y49.185906 Z-0.125000
G01 X121.063420 Y49.185906 Z-0.125000
G01 X121.063420 Y49.841856 Z-0.125000
G01 X121.063420 Y49.841776 Z-0.125000
G00 Z5.000000

(End cutting path id: path14609)


(Start cutting path id: path14607)
(ZZZanette)
(Change tool to Default tool)

G00 Z5.000000
G00 X115.336290 Y49.185826

G01 Z-0.125000 F100.0(Penetrate)
G01 X113.230650 Y49.185826 Z-0.125000 F400.000000
G01 X113.230650 Y54.681446 Z-0.125000
G01 X111.709300 Y51.115076 Z-0.125000
G01 X110.248580 Y51.115076 Z-0.125000
G01 X108.727220 Y54.681446 Z-0.125000
G01 X108.727220 Y49.185826 Z-0.125000
G01 X106.731820 Y49.185826 Z-0.125000
G01 X106.731820 Y57.393416 Z-0.125000
G01 X109.190240 Y57.393416 Z-0.125000
G01 X111.036810 Y53.275846 Z-0.125000
G01 X112.877870 Y57.393416 Z-0.125000
G01 X115.336290 Y57.393416 Z-0.125000
G01 X115.336290 Y49.185826 Z-0.125000
G01 X115.336290 Y49.185826 Z-0.125000
G00 Z5.000000

(End cutting path id: path14607)


(Start cutting path id: path14641)
(ZZZanette)
(Change tool to Default tool)

G00 Z5.000000
G00 X120.997270 Y38.167036

G01 Z-0.125000 F100.0(Penetrate)
G02 X120.742465 Y36.746637 Z-0.125000 I-4.086383 J0.000000 F400.000000
G02 X120.104300 Y35.758216 Z-0.125000 I-2.546892 J0.944154
G02 X119.111609 Y35.138122 Z-0.125000 I-1.877679 J1.901288
G02 X117.607300 Y34.881786 Z-0.125000 I-1.504309 J4.285865
G02 X116.102353 Y35.137696 Z-0.125000 I0.000000 J4.553071
G02 X115.104780 Y35.758216 Z-0.125000 I0.891333 J2.545073
G02 X114.470836 Y36.745633 Z-0.125000 I1.914293 J1.926231
G02 X114.217330 Y38.167036 Z-0.125000 I3.858136 J1.421403
G02 X114.473382 Y39.597462 Z-0.125000 I4.123533 J0.000000
G02 X115.110290 Y40.581356 Z-0.125000 I2.515890 J-0.930527
G02 X116.112432 Y41.203060 Z-0.125000 I1.906276 J-1.954235
G02 X117.607300 Y41.457786 Z-0.125000 I1.494868 J-4.258983
G02 X119.120646 Y41.198921 Z-0.125000 I-0.000000 J-4.553009
G02 X120.109820 Y40.575846 Z-0.125000 I-0.877418 J-2.489689
G02 X120.743765 Y39.588429 Z-0.125000 I-1.914299 J-1.926237
G02 X120.997270 Y38.167036 Z-0.125000 I-3.858094 J-1.421393
G01 X120.997270 Y38.167036 Z-0.125000
G00 Z5.000000

(End cutting path id: path14641)


(Start cutting path id: path14641)
(ZZZanette)
(Change tool to Default tool)

G00 Z5.000000
G00 X118.555390 Y36.662216

G01 Z-0.125000 F100.0(Penetrate)
G03 X118.718997 Y36.914483 Z-0.125000 I-1.083399 J0.881821 F400.000000
G03 X118.842020 Y37.229966 Z-0.125000 I-1.581603 J0.798476
G03 X118.909961 Y37.570721 Z-0.125000 I-1.852180 J0.546444
G03 X118.941220 Y38.156006 Z-0.125000 I-5.463683 J0.585285
G03 X118.911935 Y38.697841 Z-0.125000 I-5.027171 J0.000000
G03 X118.842020 Y39.071026 Z-0.125000 I-2.446886 J-0.265274
G03 X118.712840 Y39.425160 Z-0.125000 I-2.086212 J-0.560375
G03 X118.566410 Y39.660826 Z-0.125000 I-1.060202 J-0.495426
G03 X118.367549 Y39.856304 Z-0.125000 I-0.839851 J-0.655492
G01 X118.141980 Y39.980526 Z-0.125000
G03 X117.889450 Y40.049690 Z-0.125000 I-0.493679 J-1.306906
G03 X117.607300 Y40.074226 Z-0.125000 I-0.282150 J-1.610033
G03 X117.324191 Y40.053028 Z-0.125000 I0.000000 J-1.901125
G03 X117.094670 Y39.997026 Z-0.125000 I0.196054 J-1.301856
G01 X116.893279 Y39.891464 Z-0.125000
G03 X116.670230 Y39.688346 Z-0.125000 I0.809076 J-1.112493
G03 X116.518413 Y39.457169 Z-0.125000 I0.873250 J-0.738914
G03 X116.378090 Y39.098546 Z-0.125000 I1.987404 J-0.984402
G03 X116.304568 Y38.719438 Z-0.125000 I2.301156 J-0.642958
G03 X116.273360 Y38.155966 Z-0.125000 I5.071303 J-0.563472
G03 X116.300049 Y37.652131 Z-0.125000 I4.768972 J0.000000
G03 X116.367060 Y37.274026 Z-0.125000 I2.746955 J0.291845
G03 X116.492503 Y36.920556 Z-0.125000 I1.966750 J0.498983
G03 X116.642670 Y36.678706 Z-0.125000 I1.060741 J0.491082
G03 X116.839009 Y36.490755 Z-0.125000 I0.876978 J0.719589
G01 X117.061600 Y36.364516 Z-0.125000
G03 X117.314849 Y36.292366 Z-0.125000 I0.475951 J1.190069
G03 X117.623840 Y36.265316 Z-0.125000 I0.308991 J1.751284
G03 X117.889927 Y36.288040 Z-0.125000 I-0.000000 J1.569253
G03 X118.136470 Y36.353516 Z-0.125000 I-0.242777 J1.411053
G01 X118.362995 Y36.476712 Z-0.125000
G01 X118.555390 Y36.662196 Z-0.125000
G01 X118.555390 Y36.662216 Z-0.125000
G00 Z5.000000

(End cutting path id: path14641)


(Start cutting path id: path14639)
(ZZZanette)
(Change tool to Default tool)

G00 Z5.000000
G00 X113.732260 Y35.074716

G01 Z-0.125000 F100.0(Penetrate)
G01 X111.136040 Y35.074716 Z-0.125000 F400.000000
G01 X108.683130 Y38.359956 Z-0.125000
G01 X108.187030 Y37.759136 Z-0.125000
G01 X108.187030 Y35.074716 Z-0.125000
G01 X106.070370 Y35.074716 Z-0.125000
G01 X106.070370 Y43.282306 Z-0.125000
G01 X108.187030 Y43.282306 Z-0.125000
G01 X108.187030 Y39.567116 Z-0.125000
G01 X111.119500 Y43.282306 Z-0.125000
G01 X113.572410 Y43.282306 Z-0.125000
G01 X110.364330 Y39.484436 Z-0.125000
G01 X113.732260 Y35.074716 Z-0.125000
G01 X113.732260 Y35.074716 Z-0.125000
G00 Z5.000000

(End cutting path id: path14639)


(Start cutting path id: path14677)
(ZZZanette)
(Change tool to Default tool)

G00 Z5.000000
G00 X118.097880 Y29.882266

G01 Z-0.125000 F100.0(Penetrate)
G02 X117.928554 Y28.998104 Z-0.125000 I-3.462438 J0.204799 F400.000000
G02 X117.640370 Y28.498716 Z-0.125000 I-1.350861 J0.446700
G02 X117.186341 Y28.179520 Z-0.125000 I-0.904370 J0.803882
G02 X116.526920 Y28.052236 Z-0.125000 I-0.659421 J1.644491
G02 X116.272900 Y28.077384 Z-0.125000 I-0.000000 J1.295503
G02 X116.030820 Y28.151436 Z-0.125000 I0.249841 J1.249455
G02 X115.802513 Y28.262278 Z-0.125000 I1.926881 J4.259451
G02 X115.606390 Y28.371926 Z-0.125000 I1.689303 J3.251806
G03 X115.433251 Y28.472586 Z-0.125000 I-2.253396 J-3.676695
G03 X115.226050 Y28.581386 Z-0.125000 I-2.840586 J-5.157970
G03 X115.016827 Y28.670780 Z-0.125000 I-0.590398 J-1.092269
G01 X114.884300 Y28.691626 Z-0.125000
G01 X114.646959 Y28.637126 Z-0.125000
G01 X114.520490 Y28.515246 Z-0.125000
G01 X114.456672 Y28.332431 Z-0.125000
G03 X114.415760 Y28.019146 Z-0.125000 I1.978627 J-0.417701
G01 X113.208600 Y28.019146 Z-0.125000
G02 X113.356518 Y28.806461 Z-0.125000 I2.751709 J-0.109428
G02 X113.666110 Y29.347576 Z-0.125000 I1.576906 J-0.543085
G02 X114.156326 Y29.711684 Z-0.125000 I1.067509 J-0.925186
G02 X114.774050 Y29.843666 Z-0.125000 I0.617724 J-1.379590
G02 X115.033537 Y29.818254 Z-0.125000 I0.000000 J-1.337520
G02 X115.275660 Y29.744466 Z-0.125000 I-0.244559 J-1.236625
G02 X115.508674 Y29.642521 Z-0.125000 I-1.300984 J-3.290922
G02 X115.711120 Y29.534996 Z-0.125000 I-1.246063 J-2.590398
G02 X115.914630 Y29.423959 Z-0.125000 I-14.034491 J-25.964572
G02 X116.091460 Y29.325536 Z-0.125000 I-10.849759 J-19.701123
G01 X116.272907 Y29.252134 Z-0.125000
G01 X116.416670 Y29.231836 Z-0.125000
G01 X116.649935 Y29.285399 Z-0.125000
G01 X116.780480 Y29.408216 Z-0.125000
G01 X116.852004 Y29.592405 Z-0.125000
G03 X116.890720 Y29.882266 Z-0.125000 I-1.490313 J0.346571
G01 X118.097880 Y29.882266 Z-0.125000
G01 X118.097880 Y29.882266 Z-0.125000
G00 Z5.000000

(End cutting path id: path14677)


(Start cutting path id: path14677)
(ZZZanette)
(Change tool to Default tool)

G00 Z5.000000
G00 X116.631650 Y22.578666

G01 Z-0.125000 F100.0(Penetrate)
G01 X116.631650 Y23.868506 Z-0.125000 F400.000000
G03 X116.229793 Y23.830367 Z-0.125000 I1.318404 J-16.027576
G03 X115.760730 Y23.774806 Z-0.125000 I2.355428 J-21.893164
G03 X115.295534 Y23.704259 Z-0.125000 I0.821888 J-6.988729
G03 X115.049660 Y23.642516 Z-0.125000 I0.373632 J-2.008305
G03 X114.772396 Y23.517508 Z-0.125000 I0.385895 J-1.225886
G01 X114.592150 Y23.366916 Z-0.125000
G01 X114.482023 Y23.173914 Z-0.125000
G01 X114.437810 Y22.898376 Z-0.125000
G03 X114.447873 Y22.706805 Z-0.125000 I1.828486 J-0.000000
G01 X114.470910 Y22.584186 Z-0.125000
G01 X114.522773 Y22.474975 Z-0.125000
G01 X114.636280 Y22.352676 Z-0.125000
G01 X114.771948 Y22.258350 Z-0.125000
G01 X114.939450 Y22.187306 Z-0.125000
G01 X115.118147 Y22.154432 Z-0.125000
G03 X115.490660 Y22.137706 Z-0.125000 I0.372513 J4.139777
G03 X115.782702 Y22.166882 Z-0.125000 I-0.000000 J1.476210
G03 X116.091490 Y22.258966 Z-0.125000 I-0.352017 J1.744208
G03 X116.386453 Y22.403043 Z-0.125000 I-0.750732 J1.910908
G03 X116.631680 Y22.578676 Z-0.125000 I-0.882886 J1.491746
G01 X116.631650 Y22.578666 Z-0.125000
G00 Z5.000000

(End cutting path id: path14677)


(Start cutting path id: path14677)
(ZZZanette)
(Change tool to Default tool)

G00 Z5.000000
G00 X116.631650 Y21.619546

G01 Z-0.125000 F100.0(Penetrate)
G02 X116.470939 Y21.499450 Z-0.125000 I-8.400808 J11.074296 F400.000000
G02 X116.234770 Y21.327406 Z-0.125000 I-17.477766 J23.744013
G02 X115.991756 Y21.166675 Z-0.125000 I-2.114730 J2.933248
G02 X115.788290 Y21.057306 Z-0.125000 I-1.176508 J1.944788
G02 X115.490450 Y20.942940 Z-0.125000 I-1.123938 J2.482026
G02 X115.181950 Y20.864386 Z-0.125000 I-0.822480 J2.585023
G02 X114.865903 Y20.816135 Z-0.125000 I-0.589473 J2.801915
G02 X114.492930 Y20.798286 Z-0.125000 I-0.372973 J3.887832
G02 X113.668341 Y20.945722 Z-0.125000 I0.000000 J2.379618
G02 X113.015680 Y21.343996 Z-0.125000 I0.686983 J1.859679
G02 X112.579637 Y21.959763 Z-0.125000 I1.207610 J1.317417
G02 X112.420360 Y22.738566 Z-0.125000 I1.824389 J0.778803
G02 X112.507724 Y23.388852 Z-0.125000 I2.463845 J-0.000000
G02 X112.723530 Y23.846506 Z-0.125000 I1.413285 J-0.386723
G02 X113.075167 Y24.217480 Z-0.125000 I1.450653 J-1.022897
G02 X113.583430 Y24.524506 Z-0.125000 I1.483179 J-1.881099
G02 X114.148639 Y24.722981 Z-0.125000 I1.445294 J-3.211823
G02 X114.950440 Y24.877286 Z-0.125000 I1.635062 J-6.335807
G02 X115.767629 Y24.966975 Z-0.125000 I2.850496 J-22.204090
G02 X116.642670 Y25.031626 Z-0.125000 I2.316210 J-25.395620
G01 X116.642670 Y25.064726 Z-0.125000
G01 X116.522990 Y25.500710 Z-0.125000
G01 X116.223750 Y25.770276 Z-0.125000
G03 X115.790441 Y25.904727 Z-0.125000 I-0.688522 J-1.453515
G03 X114.989030 Y25.968716 Z-0.125000 I-0.801411 J-4.986483
G03 X114.504712 Y25.928216 Z-0.125000 I0.000000 J-2.916120
G03 X113.941720 Y25.792326 Z-0.125000 I0.687766 J-4.083591
G03 X113.387075 Y25.615432 Z-0.125000 I7.804680 J-25.429272
G03 X113.142460 Y25.527746 Z-0.125000 I1.665478 J-5.031180
G01 X112.960550 Y25.527746 Z-0.125000
G01 X112.960550 Y27.021536 Z-0.125000
G02 X113.277091 Y27.093045 Z-0.125000 I1.173780 J-4.459513
G02 X113.980300 Y27.214466 Z-0.125000 I4.145287 J-21.910313
G02 X114.693698 Y27.301421 Z-0.125000 I1.440951 J-8.851986
G02 X115.402440 Y27.330216 Z-0.125000 I0.708742 J-8.707817
G02 X117.040037 Y27.156602 Z-0.125000 I0.000000 J-7.810044
G02 X117.844320 Y26.806566 Z-0.125000 I-0.464610 J-2.166565
G02 X118.379785 Y26.172723 Z-0.125000 I-0.886444 J-1.291959
G02 X118.599490 Y25.174966 Z-0.125000 I-2.155727 J-0.997757
G01 X118.599490 Y20.963686 Z-0.125000
G01 X116.631650 Y20.963686 Z-0.125000
G01 X116.631650 Y21.619626 Z-0.125000
G01 X116.631650 Y21.619546 Z-0.125000
G00 Z5.000000

(End cutting path id: path14677)


(Start cutting path id: path14675)
(ZZZanette)
(Change tool to Default tool)

G00 Z5.000000
G00 X111.538420 Y23.543286

G01 Z-0.125000 F100.0(Penetrate)
G02 X111.273597 Y22.464311 Z-0.125000 I-2.330458 J-0.000000 F400.000000
G02 X110.507650 Y21.569936 Z-0.125000 I-2.320451 J1.212076
G02 X109.408546 Y21.039519 Z-0.125000 I-1.965052 J2.667923
G02 X107.718500 Y20.814776 Z-0.125000 I-1.690046 J6.242110
G02 X106.704484 Y20.864883 Z-0.125000 I-0.000000 J10.285299
G02 X105.938070 Y20.991166 Z-0.125000 I0.593548 J5.991101
G02 X105.192078 Y21.201146 Z-0.125000 I2.388158 J9.914467
G02 X104.521450 Y21.448676 Z-0.125000 I2.666671 J8.257000
G01 X104.521450 Y23.416506 Z-0.125000
G01 X104.752960 Y23.416506 Z-0.125000
G03 X105.443776 Y22.956119 Z-0.125000 I3.019534 J3.782360
G03 X106.219190 Y22.611736 Z-0.125000 I2.432396 J4.431642
G03 X107.046008 Y22.396411 Z-0.125000 I1.807343 J5.244845
G03 X107.784640 Y22.330616 Z-0.125000 I0.738632 J4.113158
G03 X107.977240 Y22.336895 Z-0.125000 I0.000000 J2.957076
G03 X108.291760 Y22.363716 Z-0.125000 I-0.516803 J7.917856
G03 X108.601961 Y22.413268 Z-0.125000 I-0.308087 J2.924410
G03 X108.804390 Y22.473966 Z-0.125000 I-0.279833 J1.301139
G03 X109.034681 Y22.591939 Z-0.125000 I-0.575825 J1.407810
G01 X109.201270 Y22.722006 Z-0.125000
G01 X109.313448 Y22.891586 Z-0.125000
G01 X109.361120 Y23.162986 Z-0.125000
G01 X109.303708 Y23.406186 Z-0.125000
G01 X109.129610 Y23.626006 Z-0.125000
G01 X108.883302 Y23.785127 Z-0.125000
G03 X108.462640 Y23.929166 Z-0.125000 I-0.952634 J-2.095852
G03 X107.998215 Y24.032704 Z-0.125000 I-3.825526 J-16.066168
G03 X107.481470 Y24.133116 Z-0.125000 I-4.113714 J-19.790402
G02 X106.972823 Y24.247619 Z-0.125000 I1.636291 J8.455763
G02 X106.516850 Y24.381166 Z-0.125000 I1.781288 J6.927096
G02 X105.553807 Y24.823219 Z-0.125000 I1.405819 J4.332726
G02 X105.023050 Y25.290676 Z-0.125000 I1.055292 J1.733236
G02 X104.695976 Y25.912443 Z-0.125000 I1.557062 J1.215986
G02 X104.571060 Y26.723836 Z-0.125000 I2.572746 J0.811393
G02 X104.830436 Y27.735786 Z-0.125000 I2.103737 J0.000000
G02 X105.596320 Y28.592456 Z-0.125000 I2.231621 J-1.224428
G02 X106.693445 Y29.110991 Z-0.125000 I2.030941 J-2.877175
G02 X108.242150 Y29.320056 Z-0.125000 I1.548705 J-5.631681
G02 X109.048404 Y29.279844 Z-0.125000 I0.000000 J-8.102850
G02 X109.840670 Y29.160206 Z-0.125000 I-0.794299 J-7.943086
G02 X110.624485 Y28.972619 Z-0.125000 I-1.795152 J-9.232226
G02 X111.213200 Y28.768846 Z-0.125000 I-1.540928 J-5.404156
G01 X111.213200 Y26.878176 Z-0.125000
G01 X110.987200 Y26.878176 Z-0.125000
G03 X110.463433 Y27.225911 Z-0.125000 I-2.218100 J-2.772639
G03 X109.769020 Y27.539636 Z-0.125000 I-2.489011 J-4.583896
G03 X109.040169 Y27.742377 Z-0.125000 I-1.498585 J-3.975918
G03 X108.302780 Y27.809726 Z-0.125000 I-0.737389 J-4.003070
G03 X108.038897 Y27.800114 Z-0.125000 I-0.000000 J-3.627127
G03 X107.773620 Y27.771126 Z-0.125000 I0.269507 J-3.694614
G03 X107.518909 Y27.721485 Z-0.125000 I0.251613 J-1.969349
G03 X107.272010 Y27.638826 Z-0.125000 I0.509705 J-1.932524
G01 X107.072391 Y27.533769 Z-0.125000
G01 X106.902700 Y27.385266 Z-0.125000
G01 X106.787319 Y27.204549 Z-0.125000
G01 X106.748360 Y27.004936 Z-0.125000
G01 X106.816195 Y26.714715 Z-0.125000
G01 X106.996400 Y26.503326 Z-0.125000
G03 X107.260991 Y26.371122 Z-0.125000 I0.601837 J0.873628
G03 X107.933470 Y26.189136 Z-0.125000 I1.870925 J5.580025
