%
(Header)
(Generated by gcodetools from Inkscape.)
(Using default header. To add your own header create file "header" in the output dir.)
M3
(Header end.)
G21 (All units in mm)

(Start cutting path id: path4275)
(DuduZanette)
(Change tool to Default tool)

G00 Z5.000000
G00 X663.233200 Y366.044175

G01 Z-0.125000 F100.0(Penetrate)
G01 X698.086900 Y366.044175 Z-0.125000 F400.000000
G01 X698.086900 Y350.642375 Z-0.125000
G01 X643.210862 Y350.642375 Z-0.125000
G01 X643.210862 Y433.698000 Z-0.125000
G01 X663.233200 Y433.698000 Z-0.125000
G01 X663.233200 Y366.044175 Z-0.125000
G00 Z5.000000

(End cutting path id: path4275)


(Start cutting path id: path4273)
(DuduZanette)
(Change tool to Default tool)

G00 Z5.000000
G00 X629.178112 Y350.642375

G01 Z-0.125000 F100.0(Penetrate)
G01 X609.212825 Y350.642375 Z-0.125000 F400.000000
G01 X609.212825 Y433.698000 Z-0.125000
G01 X629.178112 Y433.698000 Z-0.125000
G01 X629.178112 Y350.642375 Z-0.125000
G00 Z5.000000

(End cutting path id: path4273)


(Start cutting path id: path4271)
(DuduZanette)
(Change tool to Default tool)

G00 Z5.000000
G00 X577.439462 Y372.718288

G01 Z-0.125000 F100.0(Penetrate)
G03 X576.573019 Y376.688234 Z-0.125000 I-9.528147 J-0.000000 F400.000000
G03 X574.302062 Y379.563525 Z-0.125000 I-7.042454 J-3.227791
G03 X570.999436 Y381.607824 Z-0.125000 I-10.257699 J-12.881729
G03 X563.406713 Y384.640425 Z-0.125000 I-30.816931 J-66.135093
G02 X555.677119 Y387.471291 Z-0.125000 I48.297042 J143.841760
G02 X550.628925 Y389.717313 Z-0.125000 I25.242315 J63.531236
G02 X538.280492 Y400.010429 Z-0.125000 I15.011043 J30.562063
G02 X534.485550 Y411.508000 Z-0.125000 I15.519678 J11.497571
G02 X535.534052 Y418.056751 Z-0.125000 I20.975406 J0.000000
G02 X538.478613 Y423.658313 Z-0.125000 I18.143053 J-5.962509
G02 X543.124490 Y428.175784 Z-0.125000 I17.539577 J-13.390425
G02 X549.887350 Y431.872613 Z-0.125000 I18.239831 J-25.333071
G02 X557.401748 Y434.035850 Z-0.125000 I14.233932 J-35.311220
G02 X566.430025 Y434.838875 Z-0.125000 I9.028277 J-50.350182
G02 X575.199553 Y433.973554 Z-0.125000 I0.000000 J-44.869717
G02 X582.459313 Y431.644438 Z-0.125000 I-6.564591 J-32.940298
G02 X588.906245 Y427.643565 Z-0.125000 I-11.590114 J-25.870767
G02 X593.525787 Y422.517438 Z-0.125000 I-14.918838 J-18.089070
G02 X596.420767 Y416.325466 Z-0.125000 I-18.643250 J-12.489161
G02 X597.461800 Y409.055125 Z-0.125000 I-24.866691 J-7.270341
G01 X577.496500 Y409.055125 Z-0.125000
G03 X576.599288 Y413.729714 Z-0.125000 I-12.626204 J0.000000
G03 X574.359100 Y416.927163 Z-0.125000 I-7.890564 J-3.144784
G03 X570.965963 Y418.912164 Z-0.125000 I-6.409207 J-7.063224
G03 X565.973675 Y419.722300 Z-0.125000 I-4.992288 J-14.976888
G03 X560.851052 Y419.014117 Z-0.125000 I0.000000 J-18.881285
G03 X557.474163 Y417.326463 Z-0.125000 I2.729908 J-9.684668
G03 X555.182774 Y414.596092 Z-0.125000 I4.869016 J-6.412868
G03 X554.393800 Y411.336875 Z-0.125000 I6.337361 J-3.259217
G03 X555.160644 Y408.520789 Z-0.125000 I5.554190 J-0.000000
G03 X557.816425 Y405.518413 Z-0.125000 I9.029920 J5.311718
G03 X561.459976 Y403.377220 Z-0.125000 I11.323678 J15.098275
G03 X569.852650 Y400.156313 Z-0.125000 I34.749989 J78.002776
G02 X578.303015 Y397.048400 Z-0.125000 I-30.554680 J-96.119863
G02 X583.999487 Y394.223763 Z-0.125000 I-19.451751 J-46.384903
G02 X594.090802 Y384.517758 Z-0.125000 I-14.518406 J-25.193721
G02 X597.461800 Y372.832375 Z-0.125000 I-18.567876 J-11.685383
G02 X595.234384 Y363.044573 Z-0.125000 I-22.618687 J0.000000
G02 X589.247512 Y355.719263 Z-0.125000 I-18.112658 J8.694069
G02 X580.410341 Y351.356411 Z-0.125000 I-15.801734 J20.875707
G02 X566.715250 Y349.501500 Z-0.125000 I-13.695091 J49.629008
G02 X556.819717 Y350.463381 Z-0.125000 I0.000000 J51.382048
G02 X548.404213 Y353.095250 Z-0.125000 I7.783282 J39.657732
G02 X540.996918 Y357.631285 Z-0.125000 I13.828151 J30.897250
G02 X536.082775 Y363.020863 Z-0.125000 I14.973408 J18.587660
G02 X533.068282 Y369.676055 Z-0.125000 I20.492566 J13.292489
G02 X531.975625 Y377.567000 Z-0.125000 I27.947060 J7.890945
G01 X552.055013 Y377.567000 Z-0.125000
G03 X553.102803 Y371.348207 Z-0.125000 I18.978632 J-0.000000
G03 X555.477638 Y367.698438 Z-0.125000 I8.548401 J2.964765
G03 X559.345209 Y365.570546 Z-0.125000 I6.462830 J7.167868
G03 X566.715250 Y364.561038 Z-0.125000 I7.370041 J26.398185
G03 X571.470045 Y365.191807 Z-0.125000 I0.000000 J18.236400
G03 X574.530237 Y366.671650 Z-0.125000 I-2.388091 J8.842409
G03 X576.645712 Y369.237749 Z-0.125000 I-4.162646 J5.586697
G03 X577.439462 Y372.718288 Z-0.125000 I-7.234077 J3.480539
G01 X577.439462 Y372.718288 Z-0.125000
G00 Z5.000000

(End cutting path id: path4271)


(Start cutting path id: path4269)
(DuduZanette)
(Change tool to Default tool)

G00 Z5.000000
G00 X502.141800 Y366.158263

G01 Z-0.125000 F100.0(Penetrate)
G01 X474.703775 Y366.158263 Z-0.125000 F400.000000
G01 X469.912100 Y350.642375 Z-0.125000
G01 X448.520712 Y350.642375 Z-0.125000
G01 X478.982050 Y433.698000 Z-0.125000
G01 X497.806475 Y433.698000 Z-0.125000
G01 X528.495987 Y350.642375 Z-0.125000
G01 X506.990512 Y350.642375 Z-0.125000
G01 X502.141800 Y366.158263 Z-0.125000
G00 Z5.000000

(End cutting path id: path4269)


(Start cutting path id: path4269)
(DuduZanette)
(Change tool to Default tool)

G00 Z5.000000
G00 X479.495450 Y381.617100

G01 Z-0.125000 F100.0(Penetrate)
G01 X497.350125 Y381.617100 Z-0.125000 F400.000000
G01 X488.394263 Y410.424175 Z-0.125000
G01 X479.495450 Y381.617100 Z-0.125000
G00 Z5.000000

(End cutting path id: path4269)


(Start cutting path id: path4267)
(DuduZanette)
(Change tool to Default tool)

G00 Z5.000000
G00 X409.616888 Y379.962838

G01 Z-0.125000 F100.0(Penetrate)
G01 X398.778588 Y379.962838 Z-0.125000 F400.000000
G01 X398.778588 Y350.642375 Z-0.125000
G01 X378.756250 Y350.642375 Z-0.125000
G01 X378.756250 Y433.698000 Z-0.125000
G01 X411.442287 Y433.698000 Z-0.125000
G02 X425.536611 Y431.735741 Z-0.125000 I0.000000 J-51.598797
G02 X434.544987 Y427.137975 Z-0.125000 I-7.119553 J-25.073213
G02 X440.548062 Y419.449502 Z-0.125000 I-12.659753 J-16.072398
G02 X442.873375 Y408.598775 Z-0.125000 I-24.153991 J-10.850727
G02 X441.857493 Y400.217509 Z-0.125000 I-35.081644 J0.000000
G02 X439.336662 Y394.223763 Z-0.125000 I-20.206703 J4.971495
G02 X435.134160 Y389.322969 Z-0.125000 I-17.179710 J10.479604
G02 X428.384275 Y384.982688 Z-0.125000 I-20.051421 J23.764653
G01 X445.725563 Y351.498025 Z-0.125000
G01 X445.725563 Y350.642375 Z-0.125000
G01 X424.277125 Y350.642375 Z-0.125000
G01 X409.616888 Y379.962838 Z-0.125000
G00 Z5.000000

(End cutting path id: path4267)


(Start cutting path id: path4267)
(DuduZanette)
(Change tool to Default tool)

G00 Z5.000000
G00 X398.778588 Y395.421675

G01 Z-0.125000 F100.0(Penetrate)
G01 X411.442288 Y395.421675 Z-0.125000 F400.000000
G03 X416.765009 Y396.318111 Z-0.125000 I0.000000 J16.250441
G03 X419.998850 Y398.387950 Z-0.125000 I-2.693237 J7.768952
G03 X422.061817 Y401.752311 Z-0.125000 I-6.630812 J6.380566
G03 X422.908075 Y406.773375 Z-0.125000 I-14.472499 J5.021064
G03 X422.061815 Y411.794450 Z-0.125000 I-15.318790 J-0.000000
G03 X419.998850 Y415.158800 Z-0.125000 I-8.693716 J-3.016183
G03 X416.694513 Y417.322556 Z-0.125000 I-6.186809 J-5.843110
G03 X411.442288 Y418.239163 Z-0.125000 I-5.252225 J-14.589515
G01 X398.778588 Y418.239163 Z-0.125000
G01 X398.778588 Y395.421675 Z-0.125000
G00 Z5.000000

(End cutting path id: path4267)


(Start cutting path id: path4265)
(DuduZanette)
(Change tool to Default tool)

G00 Z5.000000
G00 X323.480913 Y399.072475

G01 Z-0.125000 F100.0(Penetrate)
G01 X333.919913 Y399.072475 Z-0.125000 F400.000000
G03 X340.199418 Y399.891519 Z-0.125000 I-0.227903 J26.228888
G03 X343.275075 Y401.468313 Z-0.125000 I-1.938436 J7.569120
G03 X345.255408 Y404.187739 Z-0.125000 I-4.456514 J5.326080
G03 X346.070213 Y408.370600 Z-0.125000 I-10.329120 J4.182861
G03 X345.145046 Y413.157783 Z-0.125000 I-12.847986 J-0.000000
G03 X343.046900 Y415.900375 Z-0.125000 I-5.980219 J-2.401144
G03 X339.762301 Y417.474374 Z-0.125000 I-5.306778 J-6.859986
G03 X333.292425 Y418.239163 Z-0.125000 I-6.469876 J-26.984172
G01 X323.480912 Y418.239163 Z-0.125000
G01 X323.480913 Y399.072475 Z-0.125000
G00 Z5.000000

(End cutting path id: path4265)


(Start cutting path id: path4265)
(DuduZanette)
(Change tool to Default tool)

G00 Z5.000000
G00 X323.480913 Y385.952425

G01 Z-0.125000 F100.0(Penetrate)
G01 X323.480913 Y366.044175 Z-0.125000 F400.000000
G01 X336.600963 Y366.044175 Z-0.125000
G03 X341.748933 Y366.786503 Z-0.125000 I0.000000 J18.221502
G03 X344.929337 Y368.497050 Z-0.125000 I-2.481620 J8.425974
G03 X347.016320 Y371.383556 Z-0.125000 I-5.039698 J5.841480
G03 X347.838575 Y375.513425 Z-0.125000 I-9.960241 J4.129869
G03 X347.054006 Y380.381950 Z-0.125000 I-15.497740 J0.000000
G03 X345.257347 Y383.314156 Z-0.125000 I-7.154978 J-2.367551
G03 X342.345579 Y385.138183 Z-0.125000 I-5.328937 J-5.270697
G03 X337.513662 Y385.952425 Z-0.125000 I-4.916126 J-14.429512
G01 X323.480913 Y385.952425 Z-0.125000
G00 Z5.000000

(End cutting path id: path4265)


(Start cutting path id: path4265)
(DuduZanette)
(Change tool to Default tool)

G00 Z5.000000
G00 X303.458575 Y350.642375

G01 Z-0.125000 F100.0(Penetrate)
G01 X303.458575 Y433.698000 Z-0.125000 F400.000000
G01 X333.292425 Y433.698000 Z-0.125000
G02 X348.739051 Y431.861339 Z-0.125000 I-0.000000 J-65.872691
G02 X357.650087 Y427.822500 Z-0.125000 I-6.110356 J-25.331290
G02 X363.716336 Y420.740180 Z-0.125000 I-10.758129 J-15.353839
G02 X366.035513 Y410.766438 Z-0.125000 I-20.286722 J-9.973743
G02 X365.214569 Y404.563860 Z-0.125000 I-23.842033 J0.000000
G02 X363.069238 Y399.757000 Z-0.125000 I-16.294846 J4.390324
G02 X359.523888 Y395.913797 Z-0.125000 I-13.052879 J8.484372
G02 X354.341550 Y393.025850 Z-0.125000 I-12.239900 J15.870397
G02 X360.249888 Y390.434557 Z-0.125000 I-5.284049 J-20.079387
G02 X364.324200 Y386.636950 Z-0.125000 I-8.341693 J-13.033886
G02 X366.847414 Y381.642625 Z-0.125000 I-13.132575 J-9.769337
G02 X367.803863 Y375.228213 Z-0.125000 I-21.030876 J-6.414413
G02 X365.551857 Y364.108221 Z-0.125000 I-28.580244 J-0.000000
G02 X360.045925 Y356.860138 Z-0.125000 I-16.945290 J7.157010
G02 X351.682903 Y352.635046 Z-0.125000 I-14.476073 J18.264208
G02 X337.171400 Y350.642375 Z-0.125000 I-14.939732 J54.961776
G01 X303.458575 Y350.642375 Z-0.125000
G00 Z5.000000

(End cutting path id: path4265)


(Start cutting path id: path4263)
(DuduZanette)
(Change tool to Default tool)

G00 Z5.000000
G00 X262.615262 Y360.910238

G01 Z-0.125000 F100.0(Penetrate)
G02 X257.439733 Y356.607959 Z-0.125000 I-17.374978 J15.637497 F400.000000
G02 X249.095912 Y352.638900 Z-0.125000 I-22.993364 J37.582234
G02 X240.053985 Y350.337773 Z-0.125000 I-17.305929 J49.086007
G02 X229.586962 Y349.501500 Z-0.125000 I-10.467022 J65.085935
G02 X214.450828 Y352.300458 Z-0.125000 I-0.000000 J42.325887
G02 X203.517988 Y359.484150 Z-0.125000 I10.932386 J28.549142
G02 X196.435516 Y370.615895 Z-0.125000 I22.936074 J22.411821
G02 X193.078987 Y387.264425 Z-0.125000 I49.739692 J18.690695
G01 X193.021987 Y394.451938 Z-0.125000
G02 X194.225069 Y406.445126 Z-0.125000 I60.379946 J0.000000
G02 X197.357312 Y415.843325 Z-0.125000 I39.973065 J-8.101215
G02 X202.758089 Y424.069876 Z-0.125000 I31.910414 J-15.063268
G02 X209.735787 Y429.933125 Z-0.125000 I22.737978 J-19.976259
G02 X218.212210 Y433.561751 Z-0.125000 I16.644938 J-27.167635
G02 X228.446125 Y434.895925 Z-0.125000 I10.233915 J-38.583058
G02 X243.188146 Y432.758468 Z-0.125000 I-0.000000 J-51.906512
G02 X252.518562 Y427.765463 Z-0.125000 I-7.440026 J-25.117525
G02 X258.955147 Y419.525052 Z-0.125000 I-15.193289 J-18.501492
G02 X262.558262 Y406.602250 Z-0.125000 I-35.606234 J-16.891382
G01 X243.277487 Y406.602250 Z-0.125000
G03 X241.385031 Y413.086863 Z-0.125000 I-24.383436 J-3.597563
G03 X238.828075 Y416.527850 Z-0.125000 I-9.058382 J-4.060659
G03 X235.073963 Y418.605468 Z-0.125000 I-6.783949 J-7.827605
G03 X229.130650 Y419.494125 Z-0.125000 I-5.943313 J-19.430037
G03 X222.525657 Y417.800237 Z-0.125000 I-0.000000 J-13.724399
G03 X217.493737 Y413.105225 Z-0.125000 I6.728321 J-12.255144
G03 X214.651511 Y406.341521 Z-0.125000 I17.871957 J-11.489138
G03 X213.329537 Y394.851238 Z-0.125000 I51.481192 J-11.744173
G01 X213.329537 Y389.831400 Z-0.125000
G03 X214.669381 Y377.804609 Z-0.125000 I54.647747 J0.000000
G03 X217.550775 Y371.121063 Z-0.125000 I19.283390 J4.350524
G03 X222.777744 Y366.707648 Z-0.125000 I10.683743 J7.351196
G03 X230.956050 Y364.903300 Z-0.125000 I8.178306 J17.632137
G03 X238.352218 Y365.985428 Z-0.125000 I-0.000000 J25.816871
G03 X242.592962 Y368.382963 Z-0.125000 I-3.141454 J10.505852
G01 X242.592962 Y381.274838 Z-0.125000
G01 X228.674300 Y381.274838 Z-0.125000
G01 X228.674300 Y395.022375 Z-0.125000
G01 X262.615300 Y395.022375 Z-0.125000
G01 X262.615300 Y360.910238 Z-0.125000
G01 X262.615262 Y360.910238 Z-0.125000
G00 Z5.000000

(End cutting path id: path4263)


(Start cutting path id: path4280)
(DuduZanette)
(Change tool to Default tool)

G00 Z5.000000
G00 X308.943563 Y270.180961

G01 Z-0.125000 F100.0(Penetrate)
G03 X307.082102 Y287.450055 Z-0.125000 I-81.034886 J-0.000000 F400.000000
G03 X303.147167 Y296.755634 Z-0.125000 I-26.788814 J-5.843104
G03 X295.967581 Y303.055774 Z-0.125000 I-14.922438 J-9.764517
G03 X284.768351 Y305.613866 Z-0.125000 I-11.199230 J-23.235855
G03 X273.724957 Y303.217600 Z-0.125000 I-0.000000 J-26.645347
G03 X266.813668 Y297.437035 Z-0.125000 I7.020530 J-15.415679
G03 X262.981225 Y288.722753 Z-0.125000 I22.173110 J-14.951358
G03 X260.875895 Y272.679427 Z-0.125000 I75.130399 J-18.018997
G01 X260.875895 Y230.432504 Z-0.125000
G03 X262.769546 Y212.497938 Z-0.125000 I85.875022 J0.000000
G03 X266.672291 Y203.289988 Z-0.125000 I25.826366 J5.515326
G03 X273.782975 Y197.256625 Z-0.125000 I14.470610 J9.847623
G03 X285.051107 Y194.772463 Z-0.125000 I11.268131 J24.313975
G03 X295.960506 Y197.169517 Z-0.125000 I0.000000 J26.023790
G03 X303.005790 Y203.062851 Z-0.125000 I-7.377296 J15.977177
G03 X306.947162 Y212.052570 Z-0.125000 I-21.325345 J14.708564
G03 X308.943563 Y229.296829 Z-0.125000 I-79.026145 J17.886701
G01 X308.943563 Y270.180961 Z-0.125000
G00 Z5.000000

(End cutting path id: path4280)


(Start cutting path id: path4280)
(DuduZanette)
(Change tool to Default tool)

G00 Z5.000000
G00 X356.587113 Y235.088752

G01 Z-0.125000 F100.0(Penetrate)
G02 X351.092070 Y203.917836 Z-0.125000 I-91.156837 J0.000000 F400.000000
G02 X337.784164 Y183.415765 Z-0.125000 I-51.084326 J18.588745
G02 X316.951471 Y170.587021 Z-0.125000 I-39.084842 J40.140612
G02 X285.051107 Y165.245041 Z-0.125000 I-31.900364 J92.577691
G02 X252.880639 Y170.623192 Z-0.125000 I-0.000000 J98.906056
G02 X231.893916 Y183.529334 Z-0.125000 I18.355578 J53.364433
G02 X218.560924 Y204.124280 Z-0.125000 I38.357705 J39.445757
G02 X213.090982 Y235.088752 Z-0.125000 I84.907497 J30.964472
G01 X213.090982 Y265.297577 Z-0.125000
G02 X218.551834 Y296.495143 Z-0.125000 I91.845466 J-0.000000
G02 X231.752539 Y316.970563 Z-0.125000 I51.110490 J-18.458413
G02 X252.714348 Y329.800658 Z-0.125000 I39.296315 J-40.663568
G02 X284.768351 Y335.141290 Z-0.125000 I32.054004 J-93.522349
G02 X316.801306 Y329.772626 Z-0.125000 I0.000000 J-98.249088
G02 X337.784164 Y316.856994 Z-0.125000 I-18.434361 J-53.450931
G02 X351.109048 Y296.258616 Z-0.125000 I-38.296057 J-39.382389
G02 X356.587113 Y265.184008 Z-0.125000 I-85.397127 J-31.074608
G01 X356.587113 Y235.088752 Z-0.125000
G00 Z5.000000

(End cutting path id: path4280)


(Start cutting path id: path4282)
(DuduZanette)
(Change tool to Default tool)

G00 Z5.000000
G00 X487.218068 Y167.516381

G01 Z-0.125000 F100.0(Penetrate)
G01 X439.433141 Y167.516381 Z-0.125000 F400.000000
G01 X439.433141 Y289.714478 Z-0.125000
G01 X392.496479 Y278.698487 Z-0.125000
G01 X392.496479 Y307.771637 Z-0.125000
G01 X482.835420 Y332.869939 Z-0.125000
G01 X487.218068 Y332.869939 Z-0.125000
G01 X487.218068 Y167.516381 Z-0.125000
G00 Z5.000000

(End cutting path id: path4282)


(Start cutting path id: path4284)
(DuduZanette)
(Change tool to Default tool)

G00 Z5.000000
G00 X621.807525 Y247.921819

G01 Z-0.125000 F100.0(Penetrate)
G03 X635.613575 Y251.081342 Z-0.125000 I-0.000000 J31.743652 F400.000000
G03 X644.144857 Y258.710684 Z-0.125000 I-9.015669 J18.666095
G01 X644.144857 Y274.610072 Z-0.125000
G03 X642.049985 Y289.723507 Z-0.125000 I-55.565304 J-0.000000
G03 X637.500210 Y298.118435 Z-0.125000 I-20.941100 J-5.919009
G03 X629.899824 Y303.623962 Z-0.125000 I-15.769540 J-13.770935
G03 X619.545527 Y305.727434 Z-0.125000 I-10.354297 J-24.432666
G03 X610.562101 Y303.557494 Z-0.125000 I-0.000000 J-19.680395
G03 X602.721836 Y297.096340 Z-0.125000 I10.856214 J-21.160885
G03 X597.776614 Y287.828252 Z-0.125000 I23.563257 J-18.526137
G03 X595.935811 Y276.200010 Z-0.125000 I35.807056 J-11.628241
G03 X597.923539 Y264.014256 Z-0.125000 I38.346212 J0.000000
G03 X602.863213 Y255.530807 Z-0.125000 I22.984498 J7.703386
G03 X610.736467 Y250.062074 Z-0.125000 I15.874704 J14.452706
G03 X621.807525 Y247.921819 Z-0.125000 I11.071059 J27.563929
G01 X621.807525 Y247.921819 Z-0.125000
G00 Z5.000000

(End cutting path id: path4284)


(Start cutting path id: path4284)
(DuduZanette)
(Change tool to Default tool)

G00 Z5.000000
G00 X643.437983 Y231.454611

G01 Z-0.125000 F100.0(Penetrate)
G02 X627.104118 Y223.182352 Z-0.125000 I-34.345810 J47.554978 F400.000000
G02 X608.942364 Y220.325040 Z-0.125000 I-18.161754 J56.291563
G02 X582.668526 Y224.703439 Z-0.125000 I0.000000 J81.021038
G02 X564.550456 Y235.543015 Z-0.125000 I16.507537 J48.153650
G02 X552.702799 Y252.746850 Z-0.125000 I32.601844 J35.133152
G02 X548.150898 Y276.200010 Z-0.125000 I58.143947 J23.453161
G02 X550.460486 Y291.393455 Z-0.125000 I51.129232 J0.000000
G02 X557.340299 Y305.727434 Z-0.125000 I52.255123 J-16.262620
G02 X568.039673 Y317.608554 Z-0.125000 I47.553248 J-32.065259
G02 X583.070650 Y327.305165 Z-0.125000 I46.126094 J-55.003031
G02 X600.226699 Y333.159424 Z-0.125000 I33.730711 J-70.783433
G02 X619.828282 Y335.254847 Z-0.125000 I19.601583 J-90.633528
G02 X639.659798 Y333.046167 Z-0.125000 I0.000000 J-90.136926
G02 X656.585900 Y326.964459 Z-0.125000 I-16.111570 J-71.434885
G02 X671.391915 Y316.893939 Z-0.125000 I-28.804430 J-58.268647
G02 X682.316250 Y303.683221 Z-0.125000 I-39.969462 J-44.174123
G02 X689.104955 Y287.996441 Z-0.125000 I-51.667762 J-31.672398
G02 X691.788406 Y269.045286 Z-0.125000 I-73.299719 J-20.044682
G01 X691.788406 Y254.395143 Z-0.125000
G02 X688.144522 Y228.130807 Z-0.125000 I-96.475776 J0.000000
G02 X678.357735 Y206.924129 Z-0.125000 I-72.024875 J20.377539
G02 X662.695493 Y189.646149 Z-0.125000 I-64.138607 J42.402942
G02 X640.327719 Y176.033907 Z-0.125000 I-61.114008 J75.239559
G02 X614.962133 Y168.241265 Z-0.125000 I-46.969279 J107.708556
G02 X582.646517 Y165.245041 Z-0.125000 I-32.315616 J172.771033
G01 X579.677630 Y165.245041 Z-0.125000
G01 X579.677630 Y195.908138 Z-0.125000
G01 X588.725668 Y196.021695 Z-0.125000
G03 X612.527575 Y199.502723 Z-0.125000 I-4.457642 J113.594212
G03 X627.003084 Y205.845247 Z-0.125000 I-12.197962 J47.529294
G03 X637.741205 Y216.627978 Z-0.125000 I-19.586450 J30.243631
G03 X643.437983 Y231.454611 Z-0.125000 I-33.036244 J21.201125
G01 X643.437983 Y231.454611 Z-0.125000
G00 Z5.000000

(End cutting path id: path4284)


(Start cutting path id: path18)
(DuduZanette)
(Change tool to Default tool)

G00 Z5.000000
G00 X659.751693 Y514.443856

G01 Z-0.125000 F100.0(Penetrate)
G01 X668.458202 Y688.568554 Z-0.125000 F400.000000
G01 X537.925981 Y831.143822 Z-0.125000
G01 X507.863941 Y651.602756 Z-0.125000
G01 X659.751693 Y514.443856 Z-0.125000
G00 Z5.000000

(End cutting path id: path18)


(Start cutting path id: path4293)
(DuduZanette)
(Change tool to Default tool)

G00 Z5.000000
G00 X376.638650 Y496.336738

G01 Z-0.125000 F100.0(Penetrate)
G02 X375.260635 Y483.041700 Z-0.125000 I-64.824040 J-0.000000 F400.000000
G02 X371.590950 Y472.248313 Z-0.125000 I-46.153750 J9.671462
G02 X365.335816 Y462.863474 Z-0.125000 I-36.670603 J17.664511
G02 X357.214563 Y456.082875 Z-0.125000 I-26.764089 J23.802072
G02 X347.530761 Y451.958201 Z-0.125000 I-19.184458 J31.610740
G02 X336.065313 Y450.460113 Z-0.125000 I-11.465448 J43.125711
G02 X324.578412 Y451.915730 Z-0.125000 I0.000000 J46.051820
G02 X314.979963 Y455.891188 Z-0.125000 I9.247811 J35.903265
G02 X306.918968 Y462.451908 Z-0.125000 I18.469221 J30.925205
G02 X300.603588 Y471.545463 Z-0.125000 I30.104672 J27.647148
G02 X296.820400 Y482.033787 Z-0.125000 I41.606893 J20.934270
G02 X295.236400 Y494.867150 Z-0.125000 I61.048657 J14.049566
G01 X295.236400 Y500.106538 Z-0.125000
G02 X296.604305 Y513.469641 Z-0.125000 I65.956233 J0.000000
G02 X300.220213 Y524.194963 Z-0.125000 I45.854951 J-9.487232
G02 X306.475342 Y533.579794 Z-0.125000 I36.670685 J-17.664572
G02 X314.596588 Y540.360400 Z-0.125000 I26.764197 J-23.802148
G02 X324.410501 Y544.537601 Z-0.125000 I19.516682 J-32.235481
G02 X335.937525 Y546.047050 Z-0.125000 I11.527024 J-43.258773
G02 X347.340150 Y544.552808 Z-0.125000 I-0.000000 J-44.254090
G02 X357.022888 Y540.424288 Z-0.125000 I-9.553021 J-35.823834
G02 X365.103190 Y533.718290 Z-0.125000 I-18.566502 J-30.592586
G02 X371.399263 Y524.386650 Z-0.125000 I-30.624274 J-27.452052
G02 X375.181991 Y513.703359 Z-0.125000 I-41.195815 J-20.597907
G02 X376.638650 Y500.617700 Z-0.125000 I-60.707013 J-13.381641
G01 X376.638650 Y496.336738 Z-0.125000
G00 Z5.000000

(End cutting path id: path4293)


(Start cutting path id: path4293)
(DuduZanette)
(Change tool to Default tool)

G00 Z5.000000
G00 X353.828125 Y500.234325

G01 Z-0.125000 F100.0(Penetrate)
G03 X352.356303 Y513.662239 Z-0.125000 I-61.989560 J-0.000000 F400.000000
G03 X349.163800 Y521.255788 Z-0.125000 I-22.503743 J-4.993219
G03 X343.504160 Y526.545115 Z-0.125000 I-13.105486 J-8.350413
G03 X335.937525 Y528.475925 Z-0.125000 I-7.566635 J-13.861010
G03 X328.409810 Y526.728500 Z-0.125000 I-0.000000 J-17.088000
G03 X323.046703 Y522.150319 Z-0.125000 I6.267549 J-12.772509
G03 X319.907681 Y515.379534 Z-0.125000 I17.071302 J-12.027511
G03 X318.110812 Y503.173500 Z-0.125000 I55.233426 J-14.366272
G01 X318.046937 Y496.336738 Z-0.125000
G03 X319.462692 Y483.065030 Z-0.125000 I62.914355 J-0.000000
G03 X322.583475 Y475.315275 Z-0.125000 I24.095745 J5.199983
G03 X328.233324 Y469.963078 Z-0.125000 I12.911580 J7.971506
G03 X336.065325 Y467.967350 Z-0.125000 I7.832001 J14.370025
G03 X343.512047 Y469.883805 Z-0.125000 I-0.000000 J15.426003
G03 X349.163812 Y475.187488 Z-0.125000 I-7.565745 J13.725475
G03 X352.340661 Y482.826262 Z-0.125000 I-20.245516 J12.899786
G03 X353.828137 Y495.953363 Z-0.125000 I-59.728092 J13.415820
G01 X353.828137 Y500.234325 Z-0.125000
G01 X353.828125 Y500.234325 Z-0.125000
G00 Z5.000000

(End cutting path id: path4293)


(Start cutting path id: path16)
(DuduZanette)
(Change tool to Default tool)

G00 Z5.000000
G00 X332.085986 Y604.652376

G01 Z-0.125000 F100.0(Penetrate)
G01 X484.222666 Y489.224123 Z-0.125000 F400.000000
G01 X659.751693 Y514.443856 Z-0.125000
G01 X507.863941 Y651.602756 Z-0.125000
G01 X332.085986 Y604.652376 Z-0.125000
G00 Z5.000000

(End cutting path id: path16)


(Start cutting path id: path14)
(DuduZanette)
(Change tool to Default tool)

G00 Z5.000000
G00 X332.085986 Y604.652376

G01 Z-0.125000 F100.0(Penetrate)
G01 X507.863941 Y651.602756 Z-0.125000 F400.000000
G01 X537.925981 Y831.143822 Z-0.125000
G01 X467.783610 Y803.389452 Z-0.125000
G01 X353.519006 Y676.163850 Z-0.125000
G01 X332.085986 Y604.652376 Z-0.125000
G00 Z5.000000

(End cutting path id: path14)


(Start cutting path id: path4291)
(DuduZanette)
(Change tool to Default tool)

G00 Z5.000000
G00 X235.175100 Y500.617700

G01 Z-0.125000 F100.0(Penetrate)
G01 X249.870950 Y500.617700 Z-0.125000 F400.000000
G03 X255.992805 Y501.598968 Z-0.125000 I-0.000000 J19.586899
G03 X259.774688 Y503.876350 Z-0.125000 I-3.103786 J9.433071
G03 X262.225598 Y507.565782 Z-0.125000 I-6.739332 J7.135770
G03 X263.225012 Y513.077225 Z-0.125000 I-14.697195 J5.511443
G03 X262.218589 Y519.207790 Z-0.125000 I-19.175191 J-0.000000
G03 X259.710787 Y523.492113 Z-0.125000 I-11.600992 J-3.914444
G03 X255.711403 Y526.314303 Z-0.125000 I-8.234814 J-7.424822
G03 X250.126537 Y527.453600 Z-0.125000 I-5.743099 J-13.894603
G01 X235.175100 Y527.453600 Z-0.125000
G01 X235.175100 Y500.617700 Z-0.125000
G00 Z5.000000

(End cutting path id: path4291)


(Start cutting path id: path4291)
(DuduZanette)
(Change tool to Default tool)

G00 Z5.000000
G00 X235.175100 Y483.302150

G01 Z-0.125000 F100.0(Penetrate)
G01 X235.175100 Y451.738013 Z-0.125000 F400.000000
G01 X212.747950 Y451.738013 Z-0.125000
G01 X212.747950 Y544.769150 Z-0.125000
G01 X249.870950 Y544.769150 Z-0.125000
G02 X260.292864 Y543.685801 Z-0.125000 I0.000000 J-50.671550
G02 X268.719988 Y540.807663 Z-0.125000 I-7.527638 J-35.817033
G02 X276.104751 Y535.953427 Z-0.125000 I-13.555298 J-28.666067
G02 X281.435088 Y529.626038 Z-0.125000 I-18.352664 J-20.869593
G02 X284.770965 Y522.060003 Z-0.125000 I-24.108836 J-15.148041
G02 X285.971637 Y513.205013 Z-0.125000 I-32.052555 J-8.854990
G02 X283.323219 Y500.832720 Z-0.125000 I-30.223266 J0.000000
G02 X276.195700 Y491.416813 Z-0.125000 I-24.021898 J10.778154
G02 X265.614500 Y485.697981 Z-0.125000 I-19.358015 J23.168649
G02 X249.487587 Y483.302150 Z-0.125000 I-16.126913 J53.079151
G01 X235.175100 Y483.302150 Z-0.125000
G00 Z5.000000

(End cutting path id: path4291)


(Start cutting path id: path4261)
(DuduZanette)
(Change tool to Default tool)

G00 Z5.000000
G00 X182.183650 Y433.698000

G01 Z-0.125000 F100.0(Penetrate)
G01 X182.183650 Y379.335363 Z-0.125000 F400.000000
G02 X181.100904 Y370.385475 Z-0.125000 I-37.530883 J-0.000000
G02 X178.247637 Y363.306075 Z-0.125000 I-26.127221 J6.415573
G02 X173.503207 Y357.451707 Z-0.125000 I-21.490872 J12.566740
G02 X166.952975 Y353.038212 Z-0.125000 I-18.398345 J20.238204
G02 X159.369358 Y350.488964 Z-0.125000 I-14.040098 J29.212437
G02 X149.554650 Y349.501500 Z-0.125000 I-9.814708 J48.281978
G02 X135.262369 Y351.794536 Z-0.125000 I-0.000000 J45.687751
G02 X125.653337 Y357.373525 Z-0.125000 I8.421360 J25.569223
G02 X119.334521 Y366.334902 Z-0.125000 I16.622418 J18.429184
G02 X116.754521 Y378.936050 Z-0.125000 I31.567850 J13.027996
G01 X116.754521 Y433.698000 Z-0.125000
G01 X136.890950 Y433.698000 Z-0.125000
G01 X136.890950 Y378.536750 Z-0.125000
G03 X137.997535 Y372.101074 Z-0.125000 I22.561682 J0.566402
G03 X140.228006 Y368.311663 Z-0.125000 I9.728017 J3.174832
G03 X143.835274 Y365.915615 Z-0.125000 I6.786595 J6.303863
G03 X149.554650 Y364.903300 Z-0.125000 I5.719376 J15.650500
G03 X155.330248 Y365.920817 Z-0.125000 I0.000000 J16.900401
G03 X158.966862 Y368.325925 Z-0.125000 I-3.192268 J8.778732
G03 X161.134415 Y372.153315 Z-0.125000 I-6.886701 J6.427587
G03 X162.161313 Y379.449450 Z-0.125000 I-25.406169 J7.296135
G01 X162.161313 Y433.698000 Z-0.125000
G01 X182.183650 Y433.698000 Z-0.125000
G00 Z5.000000

(End cutting path id: path4261)


(Start cutting path id: path4289)
(DuduZanette)
(Change tool to Default tool)

G00 Z5.000000
G00 X163.868262 Y513.843963

G01 Z-0.125000 F100.0(Penetrate)
G01 X179.075287 Y544.769150 Z-0.125000 F400.000000
G01 X204.697187 Y544.769150 Z-0.125000
G01 X178.691913 Y498.636950 Z-0.125000
G01 X205.400025 Y451.738013 Z-0.125000
G01 X179.522550 Y451.738013 Z-0.125000
G01 X163.868263 Y483.238250 Z-0.125000
G01 X148.213988 Y451.738013 Z-0.125000
G01 X122.400404 Y451.738013 Z-0.125000
G01 X149.044625 Y498.636950 Z-0.125000
G01 X123.103249 Y544.769150 Z-0.125000
G01 X148.661250 Y544.769150 Z-0.125000
G01 X163.868262 Y513.843963 Z-0.125000
G00 Z5.000000

(End cutting path id: path4289)


(Start cutting path id: path4287)
(DuduZanette)
(Change tool to Default tool)

G00 Z5.000000
G00 X113.518995 Y491.161238

G01 Z-0.125000 F100.0(Penetrate)
G01 X78.248946 Y491.161238 Z-0.125000 F400.000000
G01 X78.248946 Y468.989663 Z-0.125000
G01 X119.908496 Y468.989663 Z-0.125000
G01 X119.908496 Y451.738013 Z-0.125000
G01 X55.821796 Y451.738013 Z-0.125000
G01 X55.821796 Y544.769150 Z-0.125000
G01 X120.036286 Y544.769150 Z-0.125000
G01 X120.036286 Y527.453600 Z-0.125000
G01 X78.248946 Y527.453600 Z-0.125000
G01 X78.248946 Y507.837838 Z-0.125000
G01 X113.518995 Y507.837838 Z-0.125000
G01 X113.518995 Y491.161238 Z-0.125000
G00 Z5.000000

(End cutting path id: path4287)


(Start cutting path id: path4259)
(DuduZanette)
(Change tool to Default tool)

G00 Z5.000000
G00 X74.998529 Y366.044175

G01 Z-0.125000 F100.0(Penetrate)
G01 X109.852231 Y366.044175 Z-0.125000 F400.000000
G01 X109.852231 Y350.642375 Z-0.125000
G01 X54.976189 Y350.642375 Z-0.125000
G01 X54.976189 Y433.698000 Z-0.125000
G01 X74.998529 Y433.698000 Z-0.125000
G01 X74.998529 Y366.044175 Z-0.125000
G00 Z5.000000

(End cutting path id: path4259)


(Start cutting path id: path4278)
(DuduZanette)
(Change tool to Default tool)

G00 Z5.000000
G00 X189.339903 Y167.516381

G01 Z-0.125000 F100.0(Penetrate)
G01 X45.702394 Y167.516381 Z-0.125000 F400.000000
G01 X45.702394 Y192.501123 Z-0.125000
G01 X111.866127 Y248.376094 Z-0.125000
G03 X132.722792 Y272.335261 Z-0.125000 I-94.556947 J103.370187
G03 X136.324089 Y283.922567 Z-0.125000 I-16.840645 J11.587305
G03 X134.603051 Y293.864349 Z-0.125000 I-29.575478 J0.000000
G03 X130.527693 Y300.162649 Z-0.125000 I-15.398355 J-5.495967
G03 X124.060102 Y304.059135 Z-0.125000 I-11.833537 J-12.326056
G03 X113.704009 Y305.727434 Z-0.125000 I-10.356093 J-31.308957
G03 X103.718633 Y303.697348 Z-0.125000 I-0.000000 J-25.572557
G03 X96.032071 Y298.232004 Z-0.125000 I8.554753 J-20.169499
G03 X91.093872 Y290.129868 Z-0.125000 I17.934549 J-16.486959
G03 X89.246048 Y279.720583 Z-0.125000 I28.395229 J-10.409286
G01 X41.461129 Y279.720583 Z-0.125000
G02 X43.832932 Y294.158044 Z-0.125000 I45.127215 J0.000000
G02 X50.933287 Y307.771637 Z-0.125000 I47.085409 J-15.899595
G02 X61.831175 Y318.931502 Z-0.125000 I44.512960 J-32.567057
G02 X77.229129 Y327.986565 Z-0.125000 I44.085417 J-57.346885
G02 X94.456298 Y333.303554 Z-0.125000 I33.032515 J-76.459423
G02 X114.835013 Y335.254847 Z-0.125000 I20.378715 J-105.438891
G02 X147.008712 Y331.429373 Z-0.125000 I-0.000000 J-137.209280
G02 X166.154320 Y322.876043 Z-0.125000 I-13.476349 J-55.869444
G02 X179.316953 Y307.894735 Z-0.125000 I-22.756814 J-33.267244
G02 X184.250381 Y287.329570 Z-0.125000 I-40.396585 J-20.565164
G02 X183.138202 Y277.818664 Z-0.125000 I-41.222818 J0.000000
G02 X179.726369 Y268.250317 Z-0.125000 I-45.141001 J10.703690
G02 X174.476308 Y259.554436 Z-0.125000 I-52.998770 J26.064759
G02 X165.588810 Y248.830357 Z-0.125000 I-89.773269 J65.354149
G02 X155.676489 Y239.197950 Z-0.125000 I-107.886531 J101.105284
G02 X134.910333 Y221.687841 Z-0.125000 I-378.402442 J427.698399
G01 X108.331739 Y197.043802 Z-0.125000
G01 X189.339903 Y197.043802 Z-0.125000
G01 X189.339903 Y167.516381 Z-0.125000
G00 Z5.000000

(End cutting path id: path4278)


(Start cutting path id: path26)
(DuduZanette)
(Change tool to Default tool)

G00 Z5.000000
G00 X203.132588 Y700.098772

G01 Z-0.125000 F100.0(Penetrate)
G01 X271.946293 Y648.433135 Z-0.125000 F400.000000
G01 X445.388624 Y707.394145 Z-0.125000
G01 X376.793101 Y769.598442 Z-0.125000
G01 X203.132588 Y700.098772 Z-0.125000
G00 Z5.000000

(End cutting path id: path26)


(Start cutting path id: path24)
(DuduZanette)
(Change tool to Default tool)

G00 Z5.000000
G00 X203.132588 Y700.098772

G01 Z-0.125000 F100.0(Penetrate)
G01 X376.793101 Y769.598442 Z-0.125000 F400.000000
G01 X430.464313 Y950.787861 Z-0.125000
G01 X341.169680 Y903.071872 Z-0.125000
G01 X242.674987 Y793.009619 Z-0.125000
G01 X203.132588 Y700.098772 Z-0.125000
G00 Z5.000000

(End cutting path id: path24)


(Start cutting path id: path36)
(DuduZanette)
(Change tool to Default tool)

G00 Z5.000000
G00 X189.426337 Y807.358337

G01 Z-0.125000 F100.0(Penetrate)
G01 X142.106241 Y844.180320 Z-0.125000 F400.000000
G01 X278.087168 Y997.982465 Z-0.125000
G01 X322.380054 Y953.972481 Z-0.125000
G02 X325.511647 Y944.921047 Z-0.125000 I-6.696168 J-7.384170
G02 X317.164572 Y919.573915 Z-0.125000 I-87.985588 J14.926617
G02 X302.411517 Y895.140316 Z-0.125000 I-169.945022 J85.942377
G02 X276.062957 Y862.383301 Z-0.125000 I-289.617195 J205.982186
G02 X246.030864 Y832.966813 Z-0.125000 I-263.265359 J238.736230
G02 X223.152254 Y815.902233 Z-0.125000 I-124.976372 J143.687710
G02 X198.739951 Y805.124071 Z-0.125000 I-47.844298 J75.330550
G02 X189.426337 Y807.358337 Z-0.125000 I-2.617395 J9.618493
G01 X189.426337 Y807.358337 Z-0.125000
G00 Z5.000000

(End cutting path id: path36)


(Start cutting path id: path32)
(DuduZanette)
(Change tool to Default tool)

G00 Z5.000000
G00 X305.945598 Y835.284904

G01 Z-0.125000 F100.0(Penetrate)
G03 X325.068683 Y860.146172 Z-0.125000 I-143.751421 J130.357722 F400.000000
G03 X335.147235 Y879.712030 Z-0.125000 I-93.348771 J60.463510
G03 X339.182246 Y899.824830 Z-0.125000 I-53.700626 J21.234519
G03 X335.155801 Y909.155216 Z-0.125000 I-12.271294 J0.238413
G03 X325.477321 Y912.252826 Z-0.125000 I-8.244827 J-9.091947
G03 X305.853752 Y906.276162 Z-0.125000 I6.745254 J-57.351131
G03 X287.363714 Y894.338075 Z-0.125000 I50.786509 J-98.947528
G03 X264.485249 Y872.882283 Z-0.125000 I120.874103 J-151.814554
G03 X245.362312 Y848.021215 Z-0.125000 I143.750512 J-130.356898
G03 X235.283807 Y828.455456 Z-0.125000 I93.348218 J-60.463187
G03 X231.248819 Y808.342766 Z-0.125000 I53.700275 J-21.234387
G03 X235.275265 Y799.012381 Z-0.125000 I12.271297 J-0.238410
G03 X244.953757 Y795.914748 Z-0.125000 I8.244874 J9.092000
G03 X264.577289 Y801.891324 Z-0.125000 I-6.745026 J57.350978
G03 X283.067294 Y813.829312 Z-0.125000 I-50.785644 J98.946710
G03 X305.945598 Y835.284904 Z-0.125000 I-120.871061 J151.811449
G01 X305.945598 Y835.284904 Z-0.125000
G00 Z5.000000

(End cutting path id: path32)


(Start cutting path id: path30)
(DuduZanette)
(Change tool to Default tool)

G00 Z5.000000
G00 X367.647727 Y876.286441

G01 Z-0.125000 F100.0(Penetrate)
G02 X371.960015 Y866.037356 Z-0.125000 I-10.623937 J-10.501744 F400.000000
G02 X368.680813 Y846.217953 Z-0.125000 I-55.825963 J-0.944345
G02 X359.353850 Y827.000962 Z-0.125000 I-94.113354 J33.805985
G02 X341.338139 Y803.189979 Z-0.125000 I-142.644369 J89.205694
G02 X319.039835 Y782.665873 Z-0.125000 I-124.570348 J112.963800
G02 X300.633120 Y771.524998 Z-0.125000 I-59.881095 J78.158230
G02 X281.160687 Y766.622522 Z-0.125000 I-22.609464 J48.680774
G02 X270.613139 Y770.342286 Z-0.125000 I-0.844223 J14.420064
G01 X235.275038 Y799.012130 Z-0.125000
G01 X335.155801 Y909.155216 Z-0.125000
G01 X367.648788 Y876.287612 Z-0.125000
G01 X367.648030 Y876.286775 Z-0.125000
G01 X367.647727 Y876.286441 Z-0.125000
G00 Z5.000000

(End cutting path id: path30)


(Start cutting path id: path20)
(DuduZanette)
(Change tool to Default tool)

G00 Z5.000000
G00 X414.586637 Y736.766237

G01 Z-0.125000 F100.0(Penetrate)
G02 X429.797977 Y751.023583 Z-0.125000 I95.219672 J-86.347804 F400.000000
G02 X443.817312 Y760.292998 Z-0.125000 I59.751307 J-75.133290
G01 X462.586971 Y781.116012 Z-0.125000
G01 X482.205783 Y762.715611 Z-0.125000
G01 X482.201991 Y762.711430 Z-0.125000
G02 X487.665702 Y751.870229 Z-0.125000 I-12.091083 J-12.891014
G02 X486.185057 Y733.297894 Z-0.125000 I-47.560701 J-5.553499
G02 X478.478523 Y715.068632 Z-0.125000 I-76.614423 J21.645602
G02 X462.559911 Y693.262455 Z-0.125000 I-110.439418 J63.907876
G02 X443.099592 Y675.788303 Z-0.125000 I-94.631583 J85.814509
G02 X426.132717 Y666.294118 Z-0.125000 I-48.198393 J66.226736
G02 X408.012940 Y662.446445 Z-0.125000 I-19.515853 J47.316250
G02 X396.622658 Y665.937077 Z-0.125000 I-0.509355 J18.667054
G01 X396.619625 Y665.933732 Z-0.125000
G01 X396.554959 Y665.984754 Z-0.125000
G02 X396.102439 Y666.325729 Z-0.125000 I9.849849 J13.542860
G02 X395.658919 Y666.682411 Z-0.125000 I11.954609 J15.319135
G01 X374.374098 Y683.253693 Z-0.125000
G01 X393.764533 Y704.765130 Z-0.125000
G02 X401.649126 Y719.877872 Z-0.125000 I87.716637 J-36.150230
G02 X414.586561 Y736.766154 Z-0.125000 I108.126777 J-69.432018
G01 X414.586637 Y736.766237 Z-0.125000
G00 Z5.000000

(End cutting path id: path20)


(Start cutting path id: path28)
(DuduZanette)
(Change tool to Default tool)

G00 Z5.000000
G00 X445.388624 Y707.394145

G01 Z-0.125000 F100.0(Penetrate)
G01 X487.443555 Y887.656589 Z-0.125000 F400.000000
G01 X430.464313 Y950.787861 Z-0.125000
G01 X376.793101 Y769.598442 Z-0.125000
G01 X445.388624 Y707.394145 Z-0.125000
G00 Z5.000000

(End cutting path id: path28)


(Start cutting path id: path40)
(DuduZanette)
(Change tool to Default tool)

G00 Z5.000000
G00 X197.685168 Y933.458881

G01 Z-0.125000 F100.0(Penetrate)
G03 X233.350119 Y976.799494 Z-0.125000 I-433.043935 J392.696089 F400.000000
G03 X254.038762 Y1008.427377 Z-0.125000 I-247.510217 J184.483487
G03 X262.412180 Y1024.952258 Z-0.125000 I-164.255368 J93.614692
G03 X266.184697 Y1035.715749 Z-0.125000 I-62.899246 J28.088542
G03 X267.097083 Y1046.295310 Z-0.125000 I-30.694993 J7.976275
G03 X264.729887 Y1051.094893 Z-0.125000 I-7.261980 J-0.598120
G03 X259.722382 Y1052.982894 Z-0.125000 I-4.894799 J-5.397718
G03 X249.282147 Y1051.043444 Z-0.125000 I0.490548 J-31.710748
G03 X238.937697 Y1046.239558 Z-0.125000 I23.742400 J-64.665265
G03 X223.307850 Y1036.295009 Z-0.125000 I93.551929 J-164.290557
G03 X193.847565 Y1012.621483 Z-0.125000 I178.273206 J-252.017861
G03 X154.190455 Y972.901077 Z-0.125000 I393.380189 J-432.410477
G03 X118.525948 Y929.560934 Z-0.125000 I433.032093 J-392.685350
G03 X97.837125 Y897.932703 Z-0.125000 I247.514864 J-184.486364
G03 X89.463631 Y881.407679 Z-0.125000 I164.259564 J-93.616947
G03 X85.691036 Y870.644045 Z-0.125000 I62.901126 J-28.089456
G03 X84.778575 Y860.064335 Z-0.125000 I30.695779 J-7.976600
G03 X87.145752 Y855.264745 Z-0.125000 I7.261911 J0.598058
G03 X92.153257 Y853.376776 Z-0.125000 I4.894720 J5.397631
G03 X102.593586 Y855.316350 Z-0.125000 I-0.490909 J31.711313
G03 X112.938119 Y860.120367 Z-0.125000 I-23.743595 J64.666794
G03 X128.568038 Y870.065071 Z-0.125000 I-93.555772 J164.294980
G03 X158.028537 Y893.738898 Z-0.125000 I-178.279432 J252.024596
G03 X197.685168 Y933.458881 Z-0.125000 I-393.382098 J432.411351
G01 X197.685168 Y933.458881 Z-0.125000
G00 Z5.000000

(End cutting path id: path40)


(Start cutting path id: path44)
(DuduZanette)
(Change tool to Default tool)

G00 Z5.000000
G00 X145.420778 Y980.853203

G01 Z-0.125000 F100.0(Penetrate)
G03 X167.473897 Y1007.284571 Z-0.125000 I-309.296617 J280.478635 F400.000000
G03 X180.505266 Y1026.283309 Z-0.125000 I-172.883659 J132.550645
G03 X189.725984 Y1046.133973 Z-0.125000 I-82.497817 J50.387451
G03 X188.394421 Y1051.212707 Z-0.125000 I-4.560266 J1.518296
G03 X183.210063 Y1052.042788 Z-0.125000 I-3.228703 J-3.560439
G03 X164.352913 Y1040.930704 Z-0.125000 I39.333190 J-88.304503
G03 X146.715142 Y1026.109178 Z-0.125000 I131.136301 J-173.958913
G03 X122.559701 Y1001.584253 Z-0.125000 I285.141176 J-305.003560
G03 X100.506616 Y975.152931 Z-0.125000 I309.296720 J-280.478728
G03 X87.475165 Y956.154095 Z-0.125000 I172.885766 J-132.552305
G03 X78.254350 Y936.303321 Z-0.125000 I82.499063 J-50.388313
G03 X79.585906 Y931.224581 Z-0.125000 I4.560254 J-1.518307
G03 X84.770268 Y930.394508 Z-0.125000 I3.228698 J3.560433
G03 X103.627518 Y941.506700 Z-0.125000 I-39.334069 J88.305767
G03 X121.265379 Y956.328317 Z-0.125000 I-131.138070 J173.960939
G03 X145.420778 Y980.853203 Z-0.125000 I-285.141321 J305.003615
G01 X145.420778 Y980.853203 Z-0.125000
G00 Z5.000000

(End cutting path id: path44)


(Start cutting path id: path42)
(DuduZanette)
(Change tool to Default tool)

G00 Z5.000000
G00 X228.725070 Y1011.390230

G01 Z-0.125000 F100.0(Penetrate)
G01 X188.394421 Y1051.212707 Z-0.125000 F400.000000
G01 X79.585906 Y931.224581 Z-0.125000
G01 X123.077948 Y895.042577 Z-0.125000
G01 X123.114153 Y895.005362 Z-0.125000
G01 X123.150919 Y894.968786 Z-0.125000
G03 X123.334896 Y894.813021 Z-0.125000 I2.379888 J2.624411
G03 X123.528239 Y894.668526 Z-0.125000 I2.800298 J3.545372
G01 X123.542682 Y894.655887 Z-0.125000
G01 X123.544957 Y894.658395 Z-0.125000
G03 X129.685350 Y893.947196 Z-0.125000 I3.728600 J5.328958
G03 X148.376911 Y904.171733 Z-0.125000 I-32.820964 J82.197638
G03 X165.695639 Y918.197990 Z-0.125000 I-108.981780 J152.268923
G03 X188.867196 Y941.455716 Z-0.125000 I-235.823961 J258.121948
G03 X210.122514 Y967.277715 Z-0.125000 I-258.833763 J234.717538
G03 X222.406531 Y986.050921 Z-0.125000 I-146.540007 J109.292207
G03 X230.430039 Y1005.613427 Z-0.125000 I-71.512548 J40.757338
G03 X228.725525 Y1011.390732 Z-0.125000 I-5.592172 J1.490206
G01 X228.725070 Y1011.390230 Z-0.125000
G00 Z5.000000

(End cutting path id: path42)


(Start cutting path id: path38)
(DuduZanette)
(Change tool to Default tool)

G00 Z5.000000
G00 X297.464183 Y1015.328221

G01 Z-0.125000 F100.0(Penetrate)
G02 X299.453953 Y1010.503992 Z-0.125000 I-5.612689 J-5.137431 F400.000000
G02 X298.257201 Y1000.079783 Z-0.125000 I-33.850745 J-1.394567
G02 X294.455086 Y989.614795 Z-0.125000 I-68.245087 J18.871466
G02 X286.319137 Y973.780622 Z-0.125000 I-170.799431 J77.753238
G02 X266.370492 Y943.473142 Z-0.125000 I-262.100432 J150.797835
G02 X232.266881 Y902.098780 Z-0.125000 I-454.927557 J340.240307
G02 X193.869342 Y863.628476 Z-0.125000 I-420.651960 J381.458706
G02 X165.451480 Y840.785645 Z-0.125000 I-199.985479 J219.695836
G02 X150.366901 Y831.192611 Z-0.125000 I-104.896442 J148.288142
G02 X140.387646 Y826.568206 Z-0.125000 I-32.695359 J57.475499
G02 X130.317625 Y824.715600 Z-0.125000 I-10.472269 J28.628454
G02 X125.467279 Y826.550644 Z-0.125000 I-0.093442 J7.080700
G01 X87.630631 Y854.864815 Z-0.125000
G01 X264.729911 Y1051.094414 Z-0.125000
G01 X297.468278 Y1015.332736 Z-0.125000
G01 X297.464486 Y1015.328555 Z-0.125000
G01 X297.464183 Y1015.328221 Z-0.125000
G00 Z5.000000

(End cutting path id: path38)


(Footer)
M5
G00 X0.0000 Y0.0000
M2
(Using default footer. To add your own footer create file "footer" in the output dir.)
(end)
%