%
(Header)
(Generated by gcodetools from Inkscape.)
(Using default header. To add your own header create file "header" in the output dir.)
M3
(Header end.)
G21 (All units in mm)

(Start cutting path id: path915)
(ZZZanette)
(Change tool to Default tool)

G00 Z5.000000
G00 X140.143810 Y178.419561

G01 Z-0.125000 F100.0(Penetrate)
G01 X143.276700 Y154.435800 Z-0.125000 F400.000000
G00 Z5.000000

(End cutting path id: path915)


(Start cutting path id: path3268)
(ZZZanette)
(Change tool to Default tool)

G00 Z5.000000
G00 X108.267720 Y165.308146

G01 Z-0.125000 F100.0(Penetrate)
G01 X114.590410 Y104.414360 Z-0.125000 F400.000000
G00 Z5.000000

(End cutting path id: path3268)


(Start cutting path id: path3326)
(ZZZanette)
(Change tool to Default tool)

G00 Z5.000000
G00 X117.917150 Y108.630170

G01 Z-0.125000 F100.0(Penetrate)
G01 X115.880840 Y104.167930 Z-0.125000 F400.000000
G00 Z5.000000

(End cutting path id: path3326)


(Start cutting path id: path3328)
(ZZZanette)
(Change tool to Default tool)

G00 Z5.000000
G00 X115.188780 Y110.087640

G01 Z-0.125000 F100.0(Penetrate)
G01 X114.902633 Y109.584354 Z-0.125000 F400.000000
G03 X117.136810 Y106.819720 Z-0.125000 I10.728565 J6.384982
G01 X117.916010 Y108.632580 Z-0.125000
G02 X126.268294 Y106.797819 Z-0.125000 I-0.000000 J-19.928209
G02 X132.092890 Y102.088810 Z-0.125000 I-6.409352 J-13.884498
G01 X130.828650 Y99.560330 Z-0.125000
G03 X134.343897 Y99.577507 Z-0.125000 I1.730233 J5.613881
G03 X135.851340 Y101.394910 Z-0.125000 I-0.665186 J2.085613
G00 Z5.000000

(End cutting path id: path3328)


(Start cutting path id: path3322)
(ZZZanette)
(Change tool to Default tool)

G00 Z5.000000
G00 X135.727680 Y101.360560

G01 Z-0.125000 F100.0(Penetrate)
G01 X148.812970 Y130.075500 Z-0.125000 F400.000000
G03 X150.008569 Y138.640034 Z-0.125000 I-13.811313 J6.293762
G03 X147.722530 Y145.705150 Z-0.125000 I-22.655198 J-3.428074
G01 X141.543370 Y157.699990 Z-0.125000
G03 X135.942686 Y165.819902 Z-0.125000 I-22.144191 J-9.282403
G03 X124.459790 Y167.877447 Z-0.125000 I-7.302131 J-7.681200
G03 X117.202571 Y158.815433 Z-0.125000 I4.865312 J-11.333275
G03 X117.190190 Y147.159070 Z-0.125000 I31.284482 J-5.861418
G01 X124.459790 Y130.075500 Z-0.125000
G01 X115.009300 Y109.720610 Z-0.125000
G02 X127.781484 Y107.445845 Z-0.125000 I2.803928 J-21.250259
G02 X135.727680 Y101.360560 Z-0.125000 I-13.768671 J-26.209934
G01 X135.727680 Y101.360560 Z-0.125000
G00 Z5.000000

(End cutting path id: path3322)


(Start cutting path id: path3268)
(ZZZanette)
(Change tool to Default tool)

G00 Z5.000000
G00 X136.245440 Y102.785740

G01 Z-0.125000 F100.0(Penetrate)
G01 X149.140140 Y107.225520 Z-0.125000 F400.000000
G01 X146.903150 Y125.568260 Z-0.125000
G00 Z5.000000

(End cutting path id: path3268)


(Start cutting path id: path3326)
(ZZZanette)
(Change tool to Default tool)

G00 Z5.000000
G00 X129.548530 Y96.998790

G01 Z-0.125000 F100.0(Penetrate)
G01 X132.092890 Y102.087510 Z-0.125000 F400.000000
G00 Z5.000000

(End cutting path id: path3326)


(Start cutting path id: path3450)
(ZZZanette)
(Change tool to Default tool)

G00 Z5.000000
G00 X129.731400 Y96.817200

G01 Z-0.125000 F100.0(Penetrate)
G02 X121.291175 Y99.335291 Z-0.125000 I-0.033248 J15.292726 F400.000000
G02 X116.103150 Y103.901650 Z-0.125000 I13.642444 J20.730073
G01 X109.010740 Y105.905340 Z-0.125000
G01 X108.923240 Y105.523700 Z-0.125000
G03 X109.046587 Y105.481296 Z-0.125000 I1.349058 J3.723582
G02 X109.169730 Y105.436300 Z-0.125000 I-0.568947 J-1.748083
G00 Z5.000000

(End cutting path id: path3450)


(Start cutting path id: path3333)
(ZZZanette)
(Change tool to Default tool)

G00 Z5.000000
G00 X106.720820 Y105.929190

G01 Z-0.125000 F100.0(Penetrate)
G03 X106.542413 Y105.927186 Z-0.125000 I-0.038012 J-4.558032 F400.000000
G02 X106.363030 Y105.922190 Z-0.125000 I-0.932939 J30.275389
G03 X100.706004 Y103.728624 Z-0.125000 I0.351382 J-9.297472
G03 X95.350711 Y96.356990 Z-0.125000 I12.352748 J-14.604992
G03 X94.016943 Y87.308109 Z-0.125000 I17.706044 J-7.232534
G03 X96.551331 Y81.782550 Z-0.125000 I9.205297 J0.878161
G01 X97.982531 Y85.289000 Z-0.125000
G02 X96.565297 Y89.335595 Z-0.125000 I6.175885 J4.434448
G02 X97.608821 Y95.474400 Z-0.125000 I14.285656 J0.729705
G02 X101.777482 Y101.098183 Z-0.125000 I13.092694 J-5.348120
G02 X106.132430 Y102.574770 Z-0.125000 I4.163367 J-5.118768
G02 X107.006727 Y102.470170 Z-0.125000 I-0.151127 J-4.969403
G02 X107.857830 Y102.209010 Z-0.125000 I-1.021658 J-4.846934
G02 X111.164466 Y98.273598 Z-0.125000 I-2.087766 J-5.111063
G02 X110.465800 Y90.226660 Z-0.125000 I-13.301488 J-2.898913
G02 X107.535867 Y85.712469 Z-0.125000 I-13.334787 J5.447004
G02 X104.255970 Y83.547710 Z-0.125000 I-6.395296 J6.122602
G01 X102.729350 Y79.834530 Z-0.125000
G03 X107.900408 Y82.401075 Z-0.125000 I-1.807396 J10.134110
G03 X112.676210 Y89.280470 Z-0.125000 I-13.063602 J14.166413
G03 X113.623860 Y100.130608 Z-0.125000 I-17.021957 J6.953148
G03 X109.169780 Y105.437180 Z-0.125000 I-7.265312 J-1.575596
G03 X107.962707 Y105.800120 Z-0.125000 I-2.494088 J-6.106162
G03 X106.720820 Y105.930140 Z-0.125000 I-1.325051 J-6.660291
G01 X106.720820 Y105.929190 Z-0.125000
G00 Z5.000000

(End cutting path id: path3333)


(Start cutting path id: path3291)
(ZZZanette)
(Change tool to Default tool)

G00 Z5.000000
G00 X93.927451 Y90.592460

G01 Z-0.125000 F100.0(Penetrate)
G01 X91.928311 Y91.183100 Z-0.125000 F400.000000
G00 Z5.000000

(End cutting path id: path3291)


(Start cutting path id: path3276)
(ZZZanette)
(Change tool to Default tool)

G00 Z5.000000
G00 X85.894593 Y93.529950

G01 Z-0.125000 F100.0(Penetrate)
G03 X83.406056 Y80.859549 Z-0.125000 I17.453976 J-10.007639 F400.000000
G03 X89.252181 Y70.729540 Z-0.125000 I15.221189 J2.032362
G01 X88.743311 Y41.946430 Z-0.125000
G01 X81.285153 Y38.344580 Z-0.125000
G01 X81.285153 Y21.893680 Z-0.125000
G01 X85.975191 Y23.900770 Z-0.125000
G01 X85.975191 Y37.365450 Z-0.125000
G01 X94.061481 Y41.231980 Z-0.125000
G01 X94.396561 Y68.932580 Z-0.125000
G02 X92.784175 Y70.915721 Z-0.125000 I4.525218 J5.326256
G02 X89.996338 Y78.136504 Z-0.125000 I26.156005 J14.247010
G02 X89.444949 Y84.916040 Z-0.125000 I21.138267 J5.131394
G02 X92.136031 Y91.218940 Z-0.125000 I10.616068 J-0.806688
G02 X89.273334 Y92.326742 Z-0.125000 I13.883398 J40.129085
G03 X85.894593 Y93.529950 Z-0.125000 I-11.184570 J-26.061972
G01 X85.894593 Y93.529950 Z-0.125000
G00 Z5.000000

(End cutting path id: path3276)


(Start cutting path id: path3289)
(ZZZanette)
(Change tool to Default tool)

G00 Z5.000000
G00 X85.567404 Y93.727480

G01 Z-0.125000 F100.0(Penetrate)
G01 X58.851617 Y103.177960 Z-0.125000 F400.000000
G03 X57.254685 Y91.638861 Z-0.125000 I18.591660 J-8.453010
G03 X61.032492 Y81.187390 Z-0.125000 I28.324717 J4.329801
G00 Z5.000000

(End cutting path id: path3289)


(Start cutting path id: path3293)
(ZZZanette)
(Change tool to Default tool)

G00 Z5.000000
G00 X89.202201 Y70.282980

G01 Z-0.125000 F100.0(Penetrate)
G01 X61.032492 Y80.823930 Z-0.125000 F400.000000
G01 X60.850758 Y53.562880 Z-0.125000
G00 Z5.000000

(End cutting path id: path3293)


(Start cutting path id: path3297)
(ZZZanette)
(Change tool to Default tool)

G00 Z5.000000
G00 X81.205637 Y38.660210

G01 Z-0.125000 F100.0(Penetrate)
G01 X52.127223 Y50.836790 Z-0.125000 F400.000000
G01 X51.945490 Y34.116690 Z-0.125000
G01 X81.205637 Y21.576630 Z-0.125000
G00 Z5.000000

(End cutting path id: path3297)


(Start cutting path id: path3283)
(ZZZanette)
(Change tool to Default tool)

G00 Z5.000000
G00 X85.975191 Y23.900770

G01 Z-0.125000 F100.0(Penetrate)
G01 X86.298881 Y20.738510 Z-0.125000 F400.000000
G01 X115.342080 Y9.301180 Z-0.125000
G00 Z5.000000

(End cutting path id: path3283)


(Start cutting path id: path3285)
(ZZZanette)
(Change tool to Default tool)

G00 Z5.000000
G00 X115.213590 Y26.007400

G01 Z-0.125000 F100.0(Penetrate)
G01 X86.427421 Y37.316260 Z-0.125000 F400.000000
G00 Z5.000000

(End cutting path id: path3285)


(Start cutting path id: path3295)
(ZZZanette)
(Change tool to Default tool)

G00 Z5.000000
G00 X89.020471 Y42.113260

G01 Z-0.125000 F100.0(Penetrate)
G01 X60.850758 Y53.381150 Z-0.125000 F400.000000
G01 X52.672442 Y50.655060 Z-0.125000
G00 Z5.000000

(End cutting path id: path3295)


(Start cutting path id: path3285)
(ZZZanette)
(Change tool to Default tool)

G00 Z5.000000
G00 X94.061481 Y41.231980

G01 Z-0.125000 F100.0(Penetrate)
G01 X122.485400 Y29.605680 Z-0.125000 F400.000000
G00 Z5.000000

(End cutting path id: path3285)


(Start cutting path id: path3287)
(ZZZanette)
(Change tool to Default tool)

G00 Z5.000000
G00 X123.181200 Y58.134820

G01 Z-0.125000 F100.0(Penetrate)
G01 X94.780551 Y68.672620 Z-0.125000 F400.000000
G00 Z5.000000

(End cutting path id: path3287)


(Start cutting path id: path3355)
(ZZZanette)
(Change tool to Default tool)

G00 Z5.000000
G00 X96.653561 Y81.641750

G01 Z-0.125000 F100.0(Penetrate)
G01 X102.729350 Y79.833600 Z-0.125000 F400.000000
G00 Z5.000000

(End cutting path id: path3355)


(Start cutting path id: path3337)
(ZZZanette)
(Change tool to Default tool)

G00 Z5.000000
G00 X102.729350 Y79.833600

G01 Z-0.125000 F100.0(Penetrate)
G01 X115.188780 Y74.466570 Z-0.125000 F400.000000
G00 Z5.000000

(End cutting path id: path3337)


(Start cutting path id: path3448)
(ZZZanette)
(Change tool to Default tool)

G00 Z5.000000
G00 X115.188780 Y74.466570

G01 Z-0.125000 F100.0(Penetrate)
G03 X123.594496 Y76.010459 Z-0.125000 I0.323154 J21.895029 F400.000000
G03 X131.003590 Y82.823210 Z-0.125000 I-5.198078 J13.088277
G03 X131.883527 Y88.936181 Z-0.125000 I-19.256282 J5.891681
G03 X129.731400 Y96.817200 Z-0.125000 I-16.156267 J-0.177552
G02 X121.291175 Y99.335291 Z-0.125000 I-0.033248 J15.292726
G02 X116.103150 Y103.901650 Z-0.125000 I13.642444 J20.730073
G01 X109.010740 Y105.905340 Z-0.125000
G01 X108.923240 Y105.523700 Z-0.125000
G03 X109.046587 Y105.481296 Z-0.125000 I1.349058 J3.723582
G02 X109.169730 Y105.436300 Z-0.125000 I-0.568947 J-1.748083
G00 Z5.000000

(End cutting path id: path3448)


(Start cutting path id: path3342)
(ZZZanette)
(Change tool to Default tool)

G00 Z5.000000
G00 X104.255970 Y83.546770

G01 Z-0.125000 F100.0(Penetrate)
G03 X100.487604 Y84.545357 Z-0.125000 I-25.619744 J-89.071576 F400.000000
G02 X97.851971 Y85.398040 Z-0.125000 I4.364581 J17.990561
G00 Z5.000000

(End cutting path id: path3342)


(Start cutting path id: path3274)
(ZZZanette)
(Change tool to Default tool)

G00 Z5.000000
G00 X130.967050 Y94.374570

G01 Z-0.125000 F100.0(Penetrate)
G02 X137.841285 Y94.092675 Z-0.125000 I2.991008 J-11.019683 F400.000000
G02 X142.135969 Y91.012149 Z-0.125000 I-3.306970 J-9.144335
G02 X145.067479 Y85.647980 Z-0.125000 I-13.866038 J-11.060886
G02 X146.902250 Y78.439360 Z-0.125000 I-45.356038 J-15.382036
G01 X146.131190 Y21.124030 Z-0.125000
G01 X115.031840 Y9.558180 Z-0.125000
G01 X115.031840 Y26.007400 Z-0.125000
G01 X122.485400 Y29.605680 Z-0.125000
G01 X122.999450 Y58.391850 Z-0.125000
G02 X117.927130 Y64.571945 Z-0.125000 I35.764077 J34.525014
G02 X116.156691 Y67.885744 Z-0.125000 I13.324253 J9.248487
G02 X115.314391 Y71.493431 Z-0.125000 I11.911626 J4.683222
G02 X115.188780 Y74.466570 Z-0.125000 I35.389501 J2.984386
G00 Z5.000000

(End cutting path id: path3274)


(Start cutting path id: path3272)
(ZZZanette)
(Change tool to Default tool)

G00 Z5.000000
G00 X131.146700 Y94.376210

G01 Z-0.125000 F100.0(Penetrate)
G02 X137.123772 Y94.462246 Z-0.125000 I3.156556 J-11.629641 F400.000000
G02 X140.998150 Y92.412270 Z-0.125000 I-2.070085 J-8.598588
G01 X147.597590 Y95.147470 Z-0.125000
G01 X147.597590 Y106.453960 Z-0.125000
G00 Z5.000000

(End cutting path id: path3272)


(Start cutting path id: path3929)
(ZZZanette)
(Change tool to Default tool)

G00 Z5.000000
G00 X97.104191 Y142.046480

G01 Z-0.125000 F100.0(Penetrate)
G01 X96.937051 Y134.023530 Z-0.125000 F400.000000
G01 X91.421261 Y136.530710 Z-0.125000
G01 X91.086991 Y129.343480 Z-0.125000
G01 X97.104191 Y126.836320 Z-0.125000
G01 X97.271341 Y119.314820 Z-0.125000
G01 X103.455670 Y116.513910 Z-0.125000
G01 X103.455670 Y124.162010 Z-0.125000
G01 X108.804310 Y121.989130 Z-0.125000
G01 X108.470010 Y129.677780 Z-0.125000
G01 X103.288540 Y131.850660 Z-0.125000
G01 X103.121400 Y139.873610 Z-0.125000
G01 X97.104191 Y142.046480 Z-0.125000
G00 Z5.000000

(End cutting path id: path3929)


(Start cutting path id: path3937)
(ZZZanette)
(Change tool to Default tool)

G00 Z5.000000
G00 X86.574091 Y143.216500

G01 Z-0.125000 F100.0(Penetrate)
G02 X84.262713 Y135.990128 Z-0.125000 I-30.611754 J5.808428 F400.000000
G03 X83.231193 Y130.513510 Z-0.125000 I10.415358 J-4.797184
G01 X87.075511 Y117.643370 Z-0.125000
G00 Z5.000000

(End cutting path id: path3937)


(Start cutting path id: path3939)
(ZZZanette)
(Change tool to Default tool)

G00 Z5.000000
G00 X84.735494 Y117.476220

G01 Z-0.125000 F100.0(Penetrate)
G01 X84.568348 Y112.461880 Z-0.125000 F400.000000
G01 X90.251261 Y113.966180 Z-0.125000
G01 X86.741221 Y117.643370 Z-0.125000
G01 X84.735494 Y117.476220 Z-0.125000
G00 Z5.000000

(End cutting path id: path3939)


(Start cutting path id: path3937)
(ZZZanette)
(Change tool to Default tool)

G00 Z5.000000
G00 X84.735494 Y117.141930

G01 Z-0.125000 F100.0(Penetrate)
G01 X81.225453 Y129.009210 Z-0.125000 F400.000000
G02 X81.947186 Y136.387848 Z-0.125000 I10.384727 J2.708847
G03 X83.398340 Y143.216500 Z-0.125000 I-13.179839 J6.369361
G00 Z5.000000

(End cutting path id: path3937)


(Start cutting path id: path3941)
(ZZZanette)
(Change tool to Default tool)

G00 Z5.000000
G00 X80.222592 Y151.406570

G01 Z-0.125000 F100.0(Penetrate)
G02 X82.771938 Y147.603292 Z-0.125000 I-7.895788 J-8.048620 F400.000000
G02 X83.398340 Y143.216500 Z-0.125000 I-8.488998 J-3.450286
G01 X86.574091 Y143.216500 Z-0.125000
G02 X87.797827 Y148.246801 Z-0.125000 I7.550984 J0.827051
G02 X89.582691 Y150.236570 Z-0.125000 I7.715207 J-5.125284
G01 X87.576951 Y152.409450 Z-0.125000
G02 X84.650440 Y151.961291 Z-0.125000 I-2.092064 J3.882084
G02 X81.894039 Y153.579460 Z-0.125000 I0.905555 J4.699251
G01 X80.222592 Y151.406570 Z-0.125000
G00 Z5.000000

(End cutting path id: path3941)


(Start cutting path id: path3933)
(ZZZanette)
(Change tool to Default tool)

G00 Z5.000000
G00 X81.655508 Y153.269550

G01 Z-0.125000 F100.0(Penetrate)
G02 X74.600045 Y167.082206 Z-0.125000 I17.828668 J17.815113 F400.000000
G02 X73.369656 Y179.152590 Z-0.125000 I103.513549 J16.649507
G00 Z5.000000

(End cutting path id: path3933)


(Start cutting path id: path3933)
(ZZZanette)
(Change tool to Default tool)

G00 Z5.000000
G00 X71.196769 Y180.117785

G01 Z-0.125000 F100.0(Penetrate)
G03 X72.236135 Y170.055623 Z-0.125000 I162.684503 J11.719651 F400.000000
G03 X73.703949 Y163.775290 Z-0.125000 I33.463216 J4.509195
G03 X75.926029 Y158.932369 Z-0.125000 I24.102882 J8.127897
G03 X80.485482 Y151.787890 Z-0.125000 I110.768153 J65.662748
G00 Z5.000000

(End cutting path id: path3933)


(Start cutting path id: path3935)
(ZZZanette)
(Change tool to Default tool)

G00 Z5.000000
G00 X89.357101 Y150.577330

G01 Z-0.125000 F100.0(Penetrate)
G03 X93.556071 Y154.336578 Z-0.125000 I-27.704658 J35.169982 F400.000000
G03 X95.599891 Y157.423800 Z-0.125000 I-6.883626 J6.777278
G03 X96.627436 Y162.060788 Z-0.125000 I-12.685823 J5.243493
G03 X96.602751 Y170.024550 Z-0.125000 I-84.136382 J3.721120
G00 Z5.000000

(End cutting path id: path3935)


(Start cutting path id: path3935)
(ZZZanette)
(Change tool to Default tool)

G00 Z5.000000
G00 X93.761301 Y171.160479

G01 Z-0.125000 F100.0(Penetrate)
G02 X93.672709 Y161.423143 Z-0.125000 I-72.546769 J-4.209031 F400.000000
G02 X87.859281 Y152.170920 Z-0.125000 I-11.688615 J0.891800
G00 Z5.000000

(End cutting path id: path3935)


(Start cutting path id: path3943)
(ZZZanette)
(Change tool to Default tool)

G00 Z5.000000
G00 X66.349573 Y147.896550

G01 Z-0.125000 F100.0(Penetrate)
G03 X66.430018 Y153.099916 Z-0.125000 I-75.061872 J3.762775 F400.000000
G02 X68.522460 Y154.248050 Z-0.125000 I1.347045 J0.025825
G02 X70.036519 Y151.581382 Z-0.125000 I-1.725880 J-2.743060
G03 X70.361054 Y145.723660 Z-0.125000 I92.313716 J2.176600
G02 X69.431220 Y138.178397 Z-0.125000 I-27.660808 J-0.421169
G02 X68.355313 Y136.865010 Z-0.125000 I-1.985577 J0.529178
G01 X68.355313 Y147.562260 Z-0.125000
G01 X66.349573 Y147.896550 Z-0.125000
G00 Z5.000000

(End cutting path id: path3943)


(Start cutting path id: path3931)
(ZZZanette)
(Change tool to Default tool)

G00 Z5.000000
G00 X64.009558 Y145.055080

G01 Z-0.125000 F100.0(Penetrate)
G01 X64.009558 Y149.735130 Z-0.125000 F400.000000
G01 X77.381119 Y143.885070 Z-0.125000
G01 X77.213972 Y139.873610 Z-0.125000
G00 Z5.000000

(End cutting path id: path3931)


(Start cutting path id: path3270)
(ZZZanette)
(Change tool to Default tool)

G00 Z5.000000
G00 X56.722744 Y117.451520

G01 Z-0.125000 F100.0(Penetrate)
G01 X56.371736 Y104.246420 Z-0.125000 F400.000000
G01 X58.851617 Y103.177960 Z-0.125000
G00 Z5.000000

(End cutting path id: path3270)


(Start cutting path id: path3357)
(ZZZanette)
(Change tool to Default tool)

G00 Z5.000000
G00 X22.867066 Y111.719750

G01 Z-0.125000 F100.0(Penetrate)
G01 X34.317823 Y106.446010 Z-0.125000 F400.000000
G03 X44.662519 Y109.102046 Z-0.125000 I0.559512 J19.294036
G03 X49.584000 Y114.444850 Z-0.125000 I-6.337522 J10.775850
G03 X50.276425 Y122.110974 Z-0.125000 I-14.108104 J5.138616
G03 X47.583723 Y128.803310 Z-0.125000 I-16.788161 J-2.866939
G00 Z5.000000

(End cutting path id: path3357)


(Start cutting path id: path3357)
(ZZZanette)
(Change tool to Default tool)

G00 Z5.000000
G00 X34.861905 Y135.709440

G01 Z-0.125000 F100.0(Penetrate)
G01 X27.408295 Y137.344110 Z-0.125000 F400.000000
G01 X27.328775 Y136.962460 Z-0.125000
G03 X27.448170 Y136.919975 Z-0.125000 I2.909252 J7.986852
G02 X27.567306 Y136.875060 Z-0.125000 I-0.799975 J-2.302365
G00 Z5.000000

(End cutting path id: path3357)


(Start cutting path id: path3335)
(ZZZanette)
(Change tool to Default tool)

G00 Z5.000000
G00 X24.832128 Y137.367960

G01 Z-0.125000 F100.0(Penetrate)
G03 X19.143303 Y135.205559 Z-0.125000 I0.253645 J-9.231542 F400.000000
G03 X13.748257 Y127.802760 Z-0.125000 I12.298536 J-14.630297
G03 X12.414782 Y118.742797 Z-0.125000 I17.712133 J-7.235043
G03 X14.956833 Y113.212440 Z-0.125000 I9.205835 J0.882088
G01 X16.562954 Y116.305420 Z-0.125000
G02 X14.979696 Y120.383683 Z-0.125000 I5.732742 J4.572014
G02 X16.006376 Y126.737310 Z-0.125000 I14.229888 J0.960363
G02 X19.981662 Y132.203963 Z-0.125000 I13.111465 J-5.355786
G02 X24.180149 Y133.829720 Z-0.125000 I4.459605 J-5.282712
G02 X25.239457 Y133.762312 Z-0.125000 I0.197988 J-5.245771
G02 X26.263332 Y133.471910 Z-0.125000 I-0.784325 J-4.715459
G02 X29.567848 Y129.533742 Z-0.125000 I-2.085407 J-5.105358
G02 X28.863353 Y121.481610 Z-0.125000 I-13.343166 J-2.889469
G02 X26.103281 Y117.145620 Z-0.125000 I-13.357398 J5.456187
G02 X22.987476 Y114.937830 Z-0.125000 I-6.777829 J6.262872
G01 X22.740975 Y111.725570 Z-0.125000
G03 X27.144246 Y114.651806 Z-0.125000 I-4.266024 J11.195367
G03 X31.073762 Y120.718290 Z-0.125000 I-14.067002 J13.417686
G03 X32.021398 Y131.568441 Z-0.125000 I-17.021996 J6.953134
G03 X27.567327 Y136.875000 Z-0.125000 I-7.265307 J-1.575604
G03 X26.418115 Y137.227615 Z-0.125000 I-2.526679 J-6.185728
G03 X25.237644 Y137.367960 Z-0.125000 I-1.373912 J-6.521469
G03 X25.035482 Y137.370961 Z-0.125000 I-0.202162 J-6.807364
G03 X24.832128 Y137.367960 Z-0.125000 I0.000000 J-6.890842
G01 X24.832128 Y137.367960 Z-0.125000
G00 Z5.000000

(End cutting path id: path3335)


(Start cutting path id: path3359)
(ZZZanette)
(Change tool to Default tool)

G00 Z5.000000
G00 X38.882239 Y141.150610

G01 Z-0.125000 F100.0(Penetrate)
G01 X34.861905 Y135.709440 Z-0.125000 F400.000000
G02 X39.701247 Y131.934795 Z-0.125000 I-15.415377 J-24.753025
G03 X47.583723 Y128.803310 Z-0.125000 I7.753603 J8.030623
G01 X49.855473 Y131.983770 Z-0.125000
G00 Z5.000000

(End cutting path id: path3359)


(Start cutting path id: path3350)
(ZZZanette)
(Change tool to Default tool)

G00 Z5.000000
G00 X22.778173 Y114.848110

G01 Z-0.125000 F100.0(Penetrate)
G02 X19.447591 Y115.612450 Z-0.125000 I1.925704 J16.029785 F400.000000
G03 X16.562954 Y116.305420 Z-0.125000 I-5.046081 J-14.654963
G00 Z5.000000

(End cutting path id: path3350)


(Start cutting path id: path3374)
(ZZZanette)
(Change tool to Default tool)

G00 Z5.000000
G00 X14.956833 Y113.212440

G01 Z-0.125000 F100.0(Penetrate)
G01 X22.867066 Y111.719750 Z-0.125000 F400.000000
G00 Z5.000000

(End cutting path id: path3374)


(Start cutting path id: path3324)
(ZZZanette)
(Change tool to Default tool)

G00 Z5.000000
G00 X61.941178 Y179.508809

G01 Z-0.125000 F100.0(Penetrate)
G01 X36.134094 Y143.524270 Z-0.125000 F400.000000
G01 X51.683483 Y130.344290 Z-0.125000
G01 X56.670724 Y138.253800 Z-0.125000
G00 Z5.000000

(End cutting path id: path3324)


(Start cutting path id: path3266)
(ZZZanette)
(Change tool to Default tool)

G00 Z5.000000
G00 X62.524622 Y183.560282

G01 Z-0.125000 F100.0(Penetrate)
G01 X54.042972 Y118.791400 Z-0.125000 F400.000000
G01 X98.658311 Y101.688270 Z-0.125000
G00 Z5.000000

(End cutting path id: path3266)


(Start cutting path id: path3258)
(ZZZanette)
(Change tool to Default tool)

G00 Z5.000000
G00 X105.555240 Y173.648889

G01 Z-0.125000 F100.0(Penetrate)
G02 X94.838111 Y174.351788 Z-0.125000 I-2.950744 J37.063607 F400.000000
G02 X83.086495 Y178.165127 Z-0.125000 I12.508156 J58.560762
G01 X82.967311 Y181.727242 Z-0.125000
G02 X77.640252 Y184.757696 Z-0.125000 I7.537730 J19.447425
G02 X74.499346 Y187.945021 Z-0.125000 I10.806534 J13.790398
G01 X73.783735 Y187.650829 Z-0.125000
G02 X73.169799 Y187.350780 Z-0.125000 I-2.559523 J4.458972
G02 X72.511565 Y187.126057 Z-0.125000 I-2.228379 J5.450745
G01 X62.524694 Y183.560282 Z-0.125000
G01 X108.267800 Y165.308146 Z-0.125000
G01 X140.143890 Y178.419561 Z-0.125000
G01 X134.262310 Y181.112730 Z-0.125000
G00 Z5.000000

(End cutting path id: path3258)


(Start cutting path id: path3384)
(ZZZanette)
(Change tool to Default tool)

G00 Z5.000000
G00 X86.425961 Y202.837489

G01 Z-0.125000 F100.0(Penetrate)
G03 X85.142882 Y202.195266 Z-0.125000 I0.000000 J-1.602826 F400.000000
G03 X84.501796 Y200.269275 Z-0.125000 I2.572551 J-1.925991
G03 X85.141972 Y198.337829 Z-0.125000 I3.233729 J-0.000000
G03 X86.425961 Y197.693108 Z-0.125000 I1.283989 J0.956200
G03 X87.714042 Y198.337151 Z-0.125000 I-0.000000 J1.610099
G03 X88.358081 Y200.269275 Z-0.125000 I-2.576180 J1.932124
G03 X88.351931 Y200.393925 Z-0.125000 I-1.266316 J-0.000000
G02 X88.341881 Y200.515757 Z-0.125000 I3.734232 J0.369373
G02 X89.176074 Y200.642893 Z-0.125000 I9.243713 J-57.851764
G03 X90.170641 Y201.135948 Z-0.125000 I-0.256213 J1.766444
G01 X88.246461 Y201.636865 Z-0.125000
G03 X89.520868 Y202.022436 Z-0.125000 I-0.217253 J3.016974
G03 X90.337591 Y202.638717 Z-0.125000 I-1.935407 J3.414209
G02 X88.494670 Y202.531984 Z-0.125000 I-1.191838 J4.615150
G02 X86.823201 Y202.805683 Z-0.125000 I4.575463 J33.182836
G01 X86.839401 Y202.773773 Z-0.125000
G03 X86.637078 Y202.819915 Z-0.125000 I-0.493365 J-1.696670
G03 X86.425941 Y202.837423 Z-0.125000 I-0.211137 J-1.264326
G01 X86.425961 Y202.837489 Z-0.125000
G00 Z5.000000

(End cutting path id: path3384)


(Start cutting path id: path3927)
(ZZZanette)
(Change tool to Default tool)

G00 Z5.000000
G00 X73.449713 Y208.570255

G01 Z-0.125000 F100.0(Penetrate)
G03 X73.517281 Y207.345803 Z-0.125000 I1.628730 J-0.524213 F400.000000
G03 X74.077856 Y206.479102 Z-0.125000 I3.100256 J1.390581
G02 X73.534290 Y206.621836 Z-0.125000 I0.344067 J2.416677
G02 X72.781830 Y206.980037 Z-0.125000 I2.102244 J5.385541
G03 X73.091847 Y206.232452 Z-0.125000 I1.617898 J0.232856
G03 X73.823422 Y205.413656 Z-0.125000 I5.118502 J3.837037
G03 X73.679696 Y204.888791 Z-0.125000 I2.987669 J-1.100235
G03 X73.624649 Y204.284596 Z-0.125000 I3.288272 J-0.604195
G03 X74.269596 Y202.357923 Z-0.125000 I3.200282 J-0.000000
G03 X75.556769 Y201.716381 Z-0.125000 I1.287173 J0.970503
G03 X76.839852 Y202.358605 Z-0.125000 I-0.000000 J1.602831
G03 X77.480938 Y204.284596 Z-0.125000 I-2.572548 J1.925991
G03 X76.839852 Y206.210587 Z-0.125000 I-3.213634 J0.000000
G03 X75.556769 Y206.852811 Z-0.125000 I-1.283083 J-0.960606
G03 X75.253987 Y206.822503 Z-0.125000 I0.000000 J-1.527586
G03 X74.968384 Y206.733626 Z-0.125000 I0.290668 J-1.437374
G02 X73.980680 Y207.686854 Z-0.125000 I5.301181 J6.481236
G02 X73.449713 Y208.570327 Z-0.125000 I2.162827 J1.901151
G01 X73.449713 Y208.570255 Z-0.125000
G00 Z5.000000

(End cutting path id: path3927)


(Start cutting path id: path3248)
(ZZZanette)
(Change tool to Default tool)

G00 Z5.000000
G00 X71.151836 Y211.864286

G01 Z-0.125000 F100.0(Penetrate)
G01 X71.263086 Y193.582367 Z-0.125000 F400.000000
G03 X75.444350 Y187.159015 Z-0.125000 I23.876689 J10.969901
G03 X85.137818 Y180.987776 Z-0.125000 I15.558516 J13.739901
G03 X94.925530 Y179.829595 Z-0.125000 I41.876358 J311.957568
G03 X104.562430 Y179.520240 Z-0.125000 I7.023405 J68.533236
G00 Z5.000000

(End cutting path id: path3248)


(Start cutting path id: path3925)
(ZZZanette)
(Change tool to Default tool)

G00 Z5.000000
G00 X75.279021 Y192.803684

G01 Z-0.125000 F100.0(Penetrate)
G02 X77.277507 Y189.638857 Z-0.125000 I-5.956186 J-5.974542 F400.000000
G03 X79.770214 Y187.130601 Z-0.125000 I3.891374 J1.374495
G03 X82.061942 Y187.859369 Z-0.125000 I0.394185 J2.728158
G02 X84.734160 Y189.021629 Z-0.125000 I2.933040 J-3.090465
G02 X82.320695 Y191.671379 Z-0.125000 I2.664649 J4.851036
G03 X80.006581 Y192.094547 Z-0.125000 I-1.298694 J-0.562964
G03 X77.425442 Y192.897433 Z-0.125000 I-1.760842 J-1.110401
G02 X75.279021 Y192.803684 Z-0.125000 I-1.197223 J2.792441
G01 X75.279021 Y192.803684 Z-0.125000
G00 Z5.000000

(End cutting path id: path3925)


(Start cutting path id: path3945)
(ZZZanette)
(Change tool to Default tool)

G00 Z5.000000
G00 X73.274218 Y187.647295

G01 Z-0.125000 F100.0(Penetrate)
G02 X70.189133 Y186.713217 Z-0.125000 I-3.085085 J4.627688 F400.000000
G02 X65.338796 Y187.647295 Z-0.125000 I-0.000000 J13.060079
G03 X67.999618 Y201.838583 Z-0.125000 I-39.353338 J14.723718
G03 X67.534132 Y213.096467 Z-0.125000 I-104.378852 J1.322754
G02 X66.843624 Y224.306840 Z-0.125000 I165.414075 J15.815196
G02 X68.810540 Y234.267945 Z-0.125000 I22.980279 J0.637069
G02 X81.207991 Y246.387921 Z-0.125000 I27.470910 J-15.699203
G02 X104.519960 Y251.626681 Z-0.125000 I20.921851 J-38.612819
G02 X116.599873 Y249.329684 Z-0.125000 I-2.465889 J-45.880762
G02 X125.615339 Y244.221623 Z-0.125000 I-8.535211 J-25.574156
G02 X131.715161 Y236.244265 Z-0.125000 I-15.743970 J-18.359268
G02 X135.269730 Y222.860761 Z-0.125000 I-34.164290 J-16.237594
G02 X135.150026 Y204.470251 Z-0.125000 I-643.420349 J-5.007627
G03 X137.749560 Y185.663444 Z-0.125000 I60.260789 J-1.253633
G02 X123.204123 Y174.498431 Z-0.125000 I-21.878408 J13.445339
G02 X106.007860 Y172.272409 Z-0.125000 I-15.457708 J51.877968
G01 X100.056290 Y203.518156 Z-0.125000
G02 X91.874109 Y204.316281 Z-0.125000 I-2.155798 J20.239199
G02 X86.685545 Y207.264429 Z-0.125000 I4.119806 J13.290466
G02 X82.771286 Y212.255817 Z-0.125000 I12.330349 J13.699971
G02 X79.721747 Y219.389018 Z-0.125000 I38.852117 J20.828259
G02 X75.641284 Y214.340203 Z-0.125000 I-21.643464 J13.318967
G02 X71.151836 Y211.864286 Z-0.125000 I-6.916903 J7.233853
G00 Z5.000000

(End cutting path id: path3945)


(Footer)
M5
G00 X0.0000 Y0.0000
M2
(Using default footer. To add your own footer create file "footer" in the output dir.)
(end)
%