%
(Header)
(Generated by gcodetools from Inkscape.)
(Using default header. To add your own header create file "header" in the output dir.)
M3
(Header end.)
G21 (All units in mm)

(Start cutting path id: path6471)
(DuduZanette)
(Change tool to Default tool)

G00 Z5.000000
G00 X174.789090 Y115.391280

G01 Z-0.125000 F100.0(Penetrate)
G02 X173.912216 Y114.198256 Z-0.125000 I-3.377690 J1.563843 F400.000000
G02 X171.611330 Y112.508680 Z-0.125000 I-9.295452 J10.247187
G02 X169.135713 Y111.465750 Z-0.125000 I-5.185763 J8.849846
G02 X166.477930 Y111.102370 Z-0.125000 I-2.702472 J9.864761
G02 X162.360484 Y111.980690 Z-0.125000 I-0.043166 J9.887817
G02 X157.677580 Y115.082070 Z-0.125000 I7.251747 J16.035865
G03 X152.853855 Y118.156717 Z-0.125000 I-10.969596 J-11.888656
G03 X149.257660 Y118.540360 Z-0.125000 I-2.456631 J-5.981139
G03 X147.972007 Y118.118207 Z-0.125000 I0.853969 J-4.769517
G03 X146.316190 Y117.092660 Z-0.125000 I4.432385 J-9.005883
G03 X144.806021 Y115.855822 Z-0.125000 I17.147364 J-22.477161
G01 X144.738640 Y115.706950 Z-0.125000
G01 X144.798054 Y115.555631 Z-0.125000
G03 X145.222240 Y115.186020 Z-0.125000 I1.953281 J1.813474
G03 X146.314707 Y114.837732 Z-0.125000 I1.104453 J1.576812
G03 X149.803110 Y115.157520 Z-0.125000 I0.111867 J17.966211
G02 X152.577794 Y115.106667 Z-0.125000 I1.266492 J-6.619391
G02 X154.272140 Y114.131390 Z-0.125000 I-0.748461 J-3.259730
G02 X154.638440 Y112.581200 Z-0.125000 I-1.171000 J-1.095072
G02 X153.334060 Y110.962780 Z-0.125000 I-2.617820 J0.775008
G02 X152.643085 Y110.760519 Z-0.125000 I-0.803845 J1.464734
G02 X149.416880 Y110.697550 Z-0.125000 I-2.267299 J33.486141
G03 X141.828328 Y110.728116 Z-0.125000 I-4.416799 J-154.535532
G03 X141.079910 Y110.526480 Z-0.125000 I0.033091 J-1.612604
G01 X140.808002 Y110.203848 Z-0.125000
G01 X140.862310 Y109.902610 Z-0.125000
G03 X141.796300 Y109.318527 Z-0.125000 I1.349458 J1.119080
G03 X144.677250 Y108.971980 Z-0.125000 I2.882914 J11.818149
G02 X146.773238 Y108.834246 Z-0.125000 I-0.002219 J-16.050624
G02 X147.565010 Y108.591190 Z-0.125000 I-0.326168 J-2.473669
G02 X148.478021 Y107.152960 Z-0.125000 I-0.741384 J-1.479555
G02 X147.640810 Y105.556740 Z-0.125000 I-1.852072 J-0.046262
G02 X146.991273 Y105.333153 Z-0.125000 I-0.765906 J1.169743
G02 X142.898260 Y105.160650 Z-0.125000 I-4.138596 J49.553192
G03 X138.203052 Y104.728970 Z-0.125000 I0.024033 J-26.011150
G01 X137.775690 Y104.215550 Z-0.125000
G01 X137.872057 Y103.867648 Z-0.125000
G03 X138.311540 Y103.322550 Z-0.125000 I2.180783 J1.308532
G01 X138.847390 Y102.819140 Z-0.125000
G01 X139.997880 Y103.316490 Z-0.125000
G02 X144.973968 Y104.232136 Z-0.125000 I4.478756 J-10.360725
G02 X150.356610 Y102.859610 Z-0.125000 I-0.599447 J-13.591684
G02 X153.733364 Y100.568330 Z-0.125000 I-6.387625 J-13.047576
G02 X155.791000 Y97.926360 Z-0.125000 I-6.575362 J-7.243322
G02 X157.048091 Y94.632396 Z-0.125000 I-12.466235 J-6.644407
G02 X157.382090 Y91.409280 Z-0.125000 I-11.592000 J-2.830096
G02 X156.833050 Y90.044342 Z-0.125000 I-2.147447 J0.070907
G02 X155.064880 Y88.829830 Z-0.125000 I-3.397532 J3.051994
G02 X150.940967 Y88.609581 Z-0.125000 I-2.404035 J6.294909
G02 X148.050800 Y90.681420 Z-0.125000 I1.275199 J4.830651
G02 X147.729614 Y91.472633 Z-0.125000 I1.797411 J1.190442
G02 X147.681780 Y92.639750 Z-0.125000 I3.964172 J0.747009
G03 X146.865846 Y95.097190 Z-0.125000 I-3.123624 J0.327051
G03 X144.120720 Y96.497170 Z-0.125000 I-3.268263 J-3.017160
G03 X141.804731 Y96.221341 Z-0.125000 I-0.585566 J-4.944293
G03 X139.352020 Y94.729410 Z-0.125000 I2.620840 J-7.070695
G02 X136.500864 Y92.558348 Z-0.125000 I-13.848407 J15.228800
G02 X134.344840 Y91.564720 Z-0.125000 I-4.825904 J7.635551
G03 X133.274430 Y91.026563 Z-0.125000 I1.073023 J-3.467892
G01 X132.944080 Y90.539900 Z-0.125000
G02 X132.357388 Y89.837719 Z-0.125000 I-1.034337 J0.268028
G02 X129.993000 Y89.178310 Z-0.125000 I-3.221284 J6.981687
G03 X128.418859 Y88.942209 Z-0.125000 I2.387441 J-21.283262
G01 X128.242200 Y88.848730 Z-0.125000
G01 X128.276350 Y88.435261 Z-0.125000
G03 X129.905360 Y87.654860 Z-0.125000 I3.010759 J4.194265
G03 X130.716368 Y87.524166 Z-0.125000 I0.991035 J3.568100
G03 X134.511800 Y87.430640 Z-0.125000 I3.846051 J79.019858
G02 X138.306548 Y87.332088 Z-0.125000 I-0.035561 J-74.476644
G02 X139.172900 Y87.191320 Z-0.125000 I-0.206303 J-4.006047
G02 X140.729842 Y86.211773 Z-0.125000 I-0.858317 J-3.091368
G02 X141.257170 Y84.807550 Z-0.125000 I-1.605990 J-1.404223
G02 X140.779533 Y83.252724 Z-0.125000 I-2.769488 J0.000000
G02 X139.279570 Y81.892540 Z-0.125000 I-3.551658 J2.409498
G02 X137.249964 Y81.296592 Z-0.125000 I-2.393664 J4.397983
G02 X132.888890 Y81.426670 Z-0.125000 I-1.548790 J21.245434
G03 X129.025313 Y81.698797 Z-0.125000 I-4.120423 J-30.937511
G03 X128.297650 Y81.464470 Z-0.125000 I-0.010007 J-1.215907
G01 X128.080828 Y81.096842 Z-0.125000
G03 X128.166380 Y80.430890 Z-0.125000 I1.324866 J-0.168272
G02 X128.684860 Y78.375557 Z-0.125000 I-7.320720 J-2.939792
G02 X128.468303 Y77.405108 Z-0.125000 I-1.516139 J-0.171059
G02 X127.699787 Y76.779165 Z-0.125000 I-1.280897 J0.787898
G02 X125.651410 Y76.342270 Z-0.125000 I-2.602368 J7.180835
G01 X124.034360 Y76.224660 Z-0.125000
G01 X125.084420 Y74.917660 Z-0.125000
G02 X128.763498 Y66.600966 Z-0.125000 I-13.771459 J-11.064225
G02 X127.602230 Y58.926040 Z-0.125000 I-12.713434 J-2.001689
G02 X125.431722 Y55.976887 Z-0.125000 I-9.283261 J4.558967
G02 X121.891410 Y53.515960 Z-0.125000 I-9.861085 J10.409220
G02 X114.662694 Y51.903994 Z-0.125000 I-6.949457 J14.149971
G02 X111.777840 Y53.695140 Z-0.125000 I0.058703 J3.313323
G02 X111.465761 Y56.410138 Z-0.125000 I3.420025 J1.768555
G02 X113.310030 Y59.736840 Z-0.125000 I7.229551 J-1.833378
G01 X114.256120 Y60.724220 Z-0.125000
G01 X116.442270 Y60.569230 Z-0.125000
G03 X118.580744 Y60.607910 Z-0.125000 I0.852158 J12.020896
G03 X119.391470 Y60.885840 Z-0.125000 I-0.206531 J1.923870
G03 X121.499985 Y65.116972 Z-0.125000 I-2.358591 J3.816303
G03 X118.439480 Y71.137280 Z-0.125000 I-9.116906 J-0.846623
G03 X116.958723 Y72.168017 Z-0.125000 I-5.215028 J-5.912918
G03 X112.648610 Y74.251590 Z-0.125000 I-26.292656 J-48.889632
G02 X109.160872 Y76.033173 Z-0.125000 I11.920585 J27.641176
G02 X107.080390 Y77.569400 Z-0.125000 I6.718658 J11.275838
G01 X106.287080 Y78.286110 Z-0.125000
G01 X104.966780 Y77.716430 Z-0.125000
G03 X103.779276 Y77.033817 Z-0.125000 I2.377588 J-5.510379
G01 X103.521590 Y76.649230 Z-0.125000
G02 X102.608929 Y75.072421 Z-0.125000 I-3.210684 J0.805823
G02 X99.732225 Y72.994400 Z-0.125000 I-8.719223 J9.040247
G02 X94.547725 Y71.380662 Z-0.125000 I-6.974817 J13.273121
G02 X88.541000 Y71.648530 Z-0.125000 I-2.195290 J18.254290
G02 X85.604013 Y72.636258 Z-0.125000 I2.784344 J13.139575
G02 X84.141099 Y73.720090 Z-0.125000 I1.975229 J4.195296
G01 X83.757908 Y73.824223 Z-0.125000
G03 X82.403638 Y73.174020 Z-0.125000 I1.579303 J-5.024908
G02 X80.969952 Y72.329064 Z-0.125000 I-7.975231 J11.893247
G02 X79.309625 Y71.585130 Z-0.125000 I-7.818641 J15.225063
G02 X73.538884 Y70.454296 Z-0.125000 I-6.091513 J15.795797
G02 X64.917222 Y71.312390 Z-0.125000 I-0.696351 J36.745367
G03 X57.573555 Y72.523059 Z-0.125000 I-14.879087 J-67.375524
G03 X54.520528 Y72.454650 Z-0.125000 I-1.268563 J-11.546256
G03 X50.652948 Y71.062735 Z-0.125000 I1.661075 J-10.684666
G03 X48.295449 Y68.751080 Z-0.125000 I3.567239 J-5.995936
G03 X47.991657 Y67.902847 Z-0.125000 I1.814531 J-1.128386
G03 X47.830597 Y65.236230 Z-0.125000 I18.623547 J-2.463010
G03 X48.001545 Y62.533179 Z-0.125000 I25.891135 J0.280490
G03 X48.436359 Y60.014000 Z-0.125000 I22.916560 J2.658320
G02 X49.102844 Y55.591149 Z-0.125000 I-28.409939 J-6.542771
G02 X48.848290 Y54.364000 Z-0.125000 I-2.282827 J-0.166438
G02 X47.707324 Y53.269575 Z-0.125000 I-2.197872 J1.149383
G02 X45.435809 Y52.756600 Z-0.125000 I-2.293049 J4.868134
G02 X42.023398 Y54.237759 Z-0.125000 I-0.018554 J4.628724
G02 X39.516388 Y59.139170 Z-0.125000 I7.433374 J6.893935
G02 X39.414605 Y64.660193 Z-0.125000 I15.171792 J3.041150
G02 X41.424942 Y70.893640 Z-0.125000 I21.486220 J-3.488581
G02 X42.734280 Y73.057004 Z-0.125000 I13.934960 J-6.955979
G02 X44.421686 Y75.042600 Z-0.125000 I13.406499 J-9.683362
G02 X49.362725 Y78.321894 Z-0.125000 I10.493105 J-10.448293
G02 X56.069632 Y79.753550 Z-0.125000 I7.425104 J-18.358709
G02 X60.376093 Y79.507063 Z-0.125000 I0.838268 J-23.097447
G02 X65.541473 Y78.315970 Z-0.125000 I-5.237810 J-34.510480
G03 X69.784326 Y77.356992 Z-0.125000 I8.076118 J25.866154
G03 X71.943662 Y77.401110 Z-0.125000 I0.945005 J6.613129
G03 X76.573732 Y79.201543 Z-0.125000 I-2.415133 J13.064516
G03 X77.502522 Y80.877960 Z-0.125000 I-1.048527 J1.676417
G01 X77.375919 Y81.212107 Z-0.125000
G03 X76.313415 Y82.221910 Z-0.125000 I-6.355089 J-5.622879
G02 X75.171076 Y83.218634 Z-0.125000 I10.767162 J13.493160
G02 X74.366306 Y84.077570 Z-0.125000 I7.178555 J7.532335
G03 X73.512558 Y84.813883 Z-0.125000 I-2.667232 J-2.229518
G03 X72.647659 Y85.128440 Z-0.125000 I-1.208400 J-1.976258
G02 X70.473042 Y85.808050 Z-0.125000 I1.100942 J7.341767
G02 X67.339253 Y87.738380 Z-0.125000 I8.548965 J17.387733
G02 X62.618678 Y92.837513 Z-0.125000 I11.916297 J15.766261
G02 X59.760265 Y99.558850 Z-0.125000 I18.381125 J11.785497
G02 X59.465988 Y102.818345 Z-0.125000 I11.090758 J2.644338
G02 X60.076271 Y105.407340 Z-0.125000 I7.520653 J-0.406356
G01 X60.558805 Y106.520560 Z-0.125000
G01 X59.469711 Y107.638680 Z-0.125000
G02 X58.274906 Y109.204248 Z-0.125000 I5.874847 J5.722255
G02 X56.872144 Y112.056580 Z-0.125000 I18.416867 J10.828419
G01 X56.637966 Y112.638480 Z-0.125000
G01 X55.483427 Y112.329790 Z-0.125000
G02 X49.110379 Y111.279385 Z-0.125000 I-8.533975 J31.919016
G02 X41.815375 Y111.433930 Z-0.125000 I-2.757769 J42.075476
G01 X40.181494 Y111.610770 Z-0.125000
G01 X39.254051 Y110.295670 Z-0.125000
G02 X34.096426 Y105.921505 Z-0.125000 I-11.031529 J7.779606
G02 X27.673787 Y104.698920 Z-0.125000 I-5.490021 J11.359474
G02 X22.339327 Y106.589799 Z-0.125000 I0.793829 J10.709620
G02 X18.549545 Y111.039500 Z-0.125000 I6.535898 J9.405299
G02 X17.124512 Y116.926228 Z-0.125000 I13.099715 J6.286967
G02 X18.242745 Y122.173340 Z-0.125000 I11.396172 J0.314029
G02 X21.403384 Y126.065675 Z-0.125000 I9.725737 J-4.668043
G02 X26.421852 Y128.446040 Z-0.125000 I8.056578 J-10.505153
G02 X29.855744 Y128.843840 Z-0.125000 I3.420648 J-14.507820
G02 X32.995766 Y128.441040 Z-0.125000 I-0.011131 J-12.527176
G02 X37.903291 Y125.753459 Z-0.125000 I-2.893014 J-11.107009
G02 X40.644742 Y121.354310 Z-0.125000 I-6.694511 J-7.225648
G03 X41.458953 Y120.230283 Z-0.125000 I2.017108 J0.604224
G03 X43.775650 Y119.175140 Z-0.125000 I4.046566 J5.813868
G03 X48.493917 Y118.600173 Z-0.125000 I4.638685 J18.418860
G03 X54.531716 Y119.220240 Z-0.125000 I-0.129759 J30.969561
G01 X56.040092 Y119.526750 Z-0.125000
G01 X56.330892 Y121.267390 Z-0.125000
G02 X57.755822 Y125.824905 Z-0.125000 I17.181960 J-2.870514
G02 X60.124759 Y129.315310 Z-0.125000 I12.297317 J-5.797084
G01 X61.429157 Y130.709720 Z-0.125000
G01 X60.885256 Y132.217540 Z-0.125000
G02 X59.658017 Y137.914226 Z-0.125000 I20.514354 J7.399950
G02 X59.999386 Y143.525340 Z-0.125000 I20.232473 J1.585038
G02 X61.025695 Y146.870197 Z-0.125000 I17.523702 J-3.546952
G02 X62.071178 Y148.484730 Z-0.125000 I4.986061 J-2.082934
G01 X62.224923 Y148.982950 Z-0.125000
G03 X61.741454 Y150.595580 Z-0.125000 I-6.119918 J-0.955976
G02 X61.041713 Y152.274134 Z-0.125000 I25.367362 J11.560052
G02 X60.397673 Y154.140480 Z-0.125000 I30.715924 J11.643770
G03 X59.599422 Y155.840464 Z-0.125000 I-6.575030 J-2.049989
G03 X58.918565 Y156.419020 Z-0.125000 I-1.307436 J-0.848717
G03 X54.366318 Y156.990292 Z-0.125000 I-3.237416 J-7.374537
G03 X45.031749 Y154.121110 Z-0.125000 I5.957032 J-35.999637
G03 X42.452143 Y152.699032 Z-0.125000 I8.652409 J-18.745909
G01 X42.137138 Y152.244360 Z-0.125000
G02 X41.932592 Y151.672862 Z-0.125000 I-2.331913 J0.512268
G02 X41.187796 Y150.380900 Z-0.125000 I-12.837337 J6.539856
G02 X36.643769 Y146.199443 Z-0.125000 I-10.385545 J6.726319
G02 X30.502492 Y144.658530 Z-0.125000 I-6.141277 J11.467512
G02 X26.084680 Y145.536240 Z-0.125000 I-0.000000 J11.557032
G02 X22.331112 Y148.038860 Z-0.125000 I4.431948 J10.713494
G02 X18.812154 Y154.741134 Z-0.125000 I8.942373 J8.970031
G02 X19.720008 Y162.386900 Z-0.125000 I12.891537 J2.346048
G02 X23.556330 Y166.770116 Z-0.125000 I8.938993 J-3.953236
G02 X29.632121 Y168.454033 Z-0.125000 I5.978100 J-9.766676
G02 X37.553883 Y166.591918 Z-0.125000 I-0.157346 J-18.450711
G02 X41.629226 Y162.611130 Z-0.125000 I-3.959588 J-8.130106
G03 X42.433125 Y161.398278 Z-0.125000 I5.961513 J3.078550
G01 X42.687685 Y161.339010 Z-0.125000
G02 X46.779649 Y162.578814 Z-0.125000 I6.974928 J-15.648048
G02 X51.608989 Y162.861980 Z-0.125000 I3.690573 J-21.618671
G02 X55.566236 Y162.318786 Z-0.125000 I-1.229333 J-23.642018
G02 X58.179904 Y161.386540 Z-0.125000 I-2.503104 J-11.147762
G03 X59.386509 Y160.878974 Z-0.125000 I4.433308 J8.851042
G01 X59.515166 Y160.926160 Z-0.125000
G01 X59.575963 Y161.098054 Z-0.125000
G03 X59.758933 Y162.609950 Z-0.125000 I-32.322873 J4.678745
G03 X59.722340 Y164.102036 Z-0.125000 I-6.121097 J0.596375
G03 X59.358524 Y165.329870 Z-0.125000 I-4.479128 J-0.659381
G02 X58.810103 Y171.210417 Z-0.125000 I8.118518 J3.722980
G02 X62.597307 Y178.340017 Z-0.125000 I16.193570 J-4.031263
G01 X63.633059 Y179.491353 Z-0.125000
G01 X63.387227 Y180.715423 Z-0.125000
G02 X63.678746 Y185.174104 Z-0.125000 I8.410126 J1.688996
G02 X66.381463 Y189.492240 Z-0.125000 I10.552843 J-3.600132
G02 X70.976901 Y192.560439 Z-0.125000 I10.173174 J-10.261475
G02 X76.238597 Y193.616922 Z-0.125000 I5.261696 J-12.574400
G03 X77.828601 Y193.781017 Z-0.125000 I-0.000000 J7.785264
G01 X78.063553 Y193.997709 Z-0.125000
G02 X78.199683 Y194.369166 Z-0.125000 I2.929457 J-0.862901
G02 X78.738734 Y195.525716 Z-0.125000 I29.098192 J-12.858349
G02 X80.428262 Y197.514325 Z-0.125000 I4.770424 J-2.340948
G02 X83.680394 Y199.042173 Z-0.125000 I5.841617 J-8.209173
G03 X84.893110 Y199.477362 Z-0.125000 I-1.959284 J7.367110
G01 X85.180022 Y199.728404 Z-0.125000
G03 X85.299081 Y200.684443 Z-0.125000 I-0.959940 J0.604977
G03 X84.126117 Y202.967709 Z-0.125000 I-7.660336 J-2.492360
G03 X80.133255 Y205.677301 Z-0.125000 I-5.826502 J-4.289206
G03 X75.640844 Y205.190803 Z-0.125000 I-1.607923 J-6.137263
G03 X74.401993 Y204.446666 Z-0.125000 I4.769838 J-9.344196
G03 X72.171503 Y202.766828 Z-0.125000 I22.429241 J-32.102308
G02 X68.508890 Y200.369088 Z-0.125000 I-13.601128 J16.779855
G02 X65.545898 Y199.333204 Z-0.125000 I-5.109492 J9.859397
G02 X63.728829 Y199.131152 Z-0.125000 I-2.111537 J10.717654
G02 X61.723912 Y199.230126 Z-0.125000 I-0.355011 J13.164814
G02 X53.260226 Y202.663904 Z-0.125000 I2.227841 J17.638925
G02 X47.724410 Y209.766876 Z-0.125000 I10.393254 J13.808851
G02 X47.325242 Y211.168645 Z-0.125000 I5.562417 J2.341675
G02 X47.148797 Y213.417814 Z-0.125000 I14.284577 J2.252113
G02 X47.343598 Y215.655514 Z-0.125000 I12.918567 J0.002712
G02 X47.760364 Y216.899308 Z-0.125000 I4.338943 J-0.762155
G02 X49.406010 Y219.192990 Z-0.125000 I8.430697 J-4.311574
G02 X52.434256 Y221.700426 Z-0.125000 I13.160853 J-12.812109
G02 X59.778720 Y223.801885 Z-0.125000 I7.001886 J-10.586194
G02 X64.174962 Y221.383419 Z-0.125000 I-0.147792 J-5.473589
G02 X64.828232 Y218.445577 Z-0.125000 I-3.425845 J-2.303337
G02 X63.333476 Y215.973618 Z-0.125000 I-3.758128 J0.584575
G02 X62.714816 Y215.677014 Z-0.125000 I-1.079027 J1.457142
G02 X60.956697 Y215.349703 Z-0.125000 I-3.127801 J11.915227
G03 X58.365717 Y214.661403 Z-0.125000 I1.009079 J-9.019279
G03 X57.481236 Y213.847858 Z-0.125000 I0.723411 J-1.674061
G03 X57.130051 Y212.349284 Z-0.125000 I2.627445 J-1.406168
G03 X57.581671 Y210.610606 Z-0.125000 I4.057226 J0.125867
G03 X58.480173 Y209.457880 Z-0.125000 I3.531848 J1.826395
G03 X60.373144 Y208.143128 Z-0.125000 I6.548484 J7.408342
G03 X61.333199 Y207.818354 Z-0.125000 I1.461030 J2.737528
G03 X63.358998 Y207.654645 Z-0.125000 I2.014769 J12.315656
G03 X65.801276 Y208.087678 Z-0.125000 I-0.006521 J7.140440
G03 X70.648355 Y210.315972 Z-0.125000 I-11.326230 J31.023223
G02 X75.362805 Y212.305439 Z-0.125000 I11.166607 J-19.880904
G02 X79.243269 Y212.851629 Z-0.125000 I3.784050 J-12.826497
G02 X83.938774 Y212.328284 Z-0.125000 I-0.164308 J-22.800114
G02 X87.368054 Y211.079184 Z-0.125000 I-2.900193 J-13.294123
G02 X90.131502 Y209.103616 Z-0.125000 I-5.792270 J-11.022855
G02 X91.515895 Y207.156716 Z-0.125000 I-4.231349 J-4.474462
G03 X91.979930 Y206.314889 Z-0.125000 I5.426587 J2.442454
G01 X92.124414 Y206.237250 Z-0.125000
G01 X92.307428 Y206.281417 Z-0.125000
G03 X93.995307 Y207.196058 Z-0.125000 I-19.042874 J37.156437
G02 X96.904398 Y208.479614 Z-0.125000 I7.600279 J-13.287102
G02 X99.601412 Y209.001010 Z-0.125000 I3.501251 J-10.874756
G02 X102.898825 Y208.781993 Z-0.125000 I0.853070 J-12.088212
G02 X106.173630 Y207.647526 Z-0.125000 I-2.688410 J-13.054326
G02 X109.222030 Y205.384571 Z-0.125000 I-4.885991 J-9.766571
G02 X110.441630 Y203.134512 Z-0.125000 I-3.605745 J-3.409982
G01 X110.585960 Y202.534084 Z-0.125000
G01 X111.447030 Y202.973376 Z-0.125000
G02 X116.327127 Y203.999679 Z-0.125000 I4.334983 J-8.497313
G02 X121.653300 Y202.389186 Z-0.125000 I-0.678674 J-11.857014
G02 X125.159188 Y199.339145 Z-0.125000 I-6.356254 J-10.846188
G02 X127.235970 Y195.327128 Z-0.125000 I-9.321289 J-7.368597
G03 X127.809559 Y194.046731 Z-0.125000 I5.007831 J1.474718
G03 X128.697010 Y192.975678 Z-0.125000 I4.357938 J2.707706
G01 X129.750530 Y192.008079 Z-0.125000
G01 X130.732870 Y192.540480 Z-0.125000
G03 X133.077111 Y194.358840 Z-0.125000 I-4.354097 J8.033614
G03 X135.062900 Y197.207062 Z-0.125000 I-9.174564 J8.512894
G03 X135.623480 Y198.804382 Z-0.125000 I-5.727261 J2.907013
G01 X135.514900 Y199.377154 Z-0.125000
G03 X133.286392 Y201.284071 Z-0.125000 I-4.393296 J-2.878575
G03 X129.489160 Y202.102992 Z-0.125000 I-3.797232 J-8.394182
G02 X128.043422 Y202.294016 Z-0.125000 I0.000000 J5.566439
G02 X127.403220 Y202.664056 Z-0.125000 I0.371638 J1.381790
G02 X127.057070 Y203.306946 Z-0.125000 I0.898266 J0.898285
G02 X126.940260 Y204.919798 Z-0.125000 I6.103987 J1.252735
G02 X128.824699 Y208.734135 Z-0.125000 I5.440002 J-0.314921
G02 X133.315080 Y210.408938 Z-0.125000 I4.511861 J-5.239856
G02 X136.176807 Y209.954999 Z-0.125000 I0.027625 J-9.073274
G02 X139.144070 Y208.492140 Z-0.125000 I-3.693214 J-11.232146
G02 X143.221102 Y204.118357 Z-0.125000 I-7.645205 J-11.213595
G02 X144.513880 Y199.289199 Z-0.125000 I-8.194169 J-4.781219
G02 X144.358916 Y197.887514 Z-0.125000 I-6.697605 J0.031049
G02 X143.787750 Y195.970664 Z-0.125000 I-13.211262 J2.893054
G02 X142.093838 Y192.620832 Z-0.125000 I-16.805337 J6.394771
G02 X139.734070 Y189.684430 Z-0.125000 I-15.218888 J9.813900
G02 X137.768573 Y187.980357 Z-0.125000 I-12.266737 J12.163043
G02 X135.926200 Y186.855733 Z-0.125000 I-7.092600 J9.547773
G03 X133.968057 Y185.891965 Z-0.125000 I2440.166390 J-4960.297091
G03 X133.894560 Y185.855300 Z-0.125000 I3.512212 J-7.132411
G01 X133.865181 Y185.797428 Z-0.125000
G03 X134.122910 Y184.460246 Z-0.125000 I23.920169 J3.916949
G01 X134.424550 Y183.102207 Z-0.125000
G01 X135.817300 Y182.720962 Z-0.125000
G02 X137.473040 Y181.953896 Z-0.125000 I-1.452197 J-5.305142
G01 X137.775740 Y181.379707 Z-0.125000
G01 X137.719008 Y181.218064 Z-0.125000
G02 X137.197650 Y180.657562 Z-0.125000 I-4.033076 J3.228693
G03 X136.747425 Y180.119386 Z-0.125000 I1.886720 J-2.035798
G01 X136.762640 Y179.978734 Z-0.125000
G01 X136.930731 Y179.886033 Z-0.125000
G03 X138.129690 Y179.669555 Z-0.125000 I3.071610 J13.583587
G02 X140.267644 Y179.064308 Z-0.125000 I-1.063130 J-7.834012
G01 X140.726270 Y178.519715 Z-0.125000
G01 X141.003294 Y178.238287 Z-0.125000
G03 X143.824190 Y177.689917 Z-0.125000 I5.337010 J19.924612
G02 X146.792756 Y177.246144 Z-0.125000 I-7.016341 J-57.085792
G02 X150.831290 Y176.454677 Z-0.125000 I-18.764953 J-106.449148
G03 X158.786905 Y175.312369 Z-0.125000 I12.129063 J56.198331
G03 X160.761430 Y175.731932 Z-0.125000 I0.263260 J3.617039
G03 X161.177096 Y176.024328 Z-0.125000 I-0.988106 J1.846326
G03 X161.926670 Y176.784580 Z-0.125000 I-6.194837 J6.857481
G03 X162.384400 Y177.677360 Z-0.125000 I-1.543151 J1.354906
G03 X162.498360 Y179.259854 Z-0.125000 I-5.003831 J1.155690
G02 X162.549486 Y180.876253 Z-0.125000 I7.032972 J0.586558
G02 X162.851890 Y181.656553 Z-0.125000 I1.869426 J-0.275745
G02 X164.233949 Y182.741361 Z-0.125000 I2.370833 J-1.597686
G02 X167.259550 Y183.281229 Z-0.125000 I3.025601 J-8.208307
G02 X169.607168 Y183.083625 Z-0.125000 I-0.000000 J-14.044153
G02 X170.915310 Y182.661408 Z-0.125000 I-0.799182 J-4.713678
G02 X172.070872 Y181.920327 Z-0.125000 I-2.664036 J-5.425481
G02 X172.764860 Y181.153307 Z-0.125000 I-2.168553 J-2.659538
G02 X173.156897 Y180.206539 Z-0.125000 I-2.244704 J-1.484037
G02 X173.347960 Y178.291644 Z-0.125000 I-9.299207 J-1.894829
G02 X173.165460 Y176.362641 Z-0.125000 I-10.480532 J0.018412
G02 X172.769780 Y175.230301 Z-0.125000 I-3.962459 J0.749323
G02 X169.001682 Y171.574182 Z-0.125000 I-7.494094 J3.953810
G02 X160.086570 Y169.020294 Z-0.125000 I-11.624717 J23.742181
G02 X155.591590 Y168.900985 Z-0.125000 I-3.029483 J29.401920
G02 X151.161090 Y169.463386 Z-0.125000 I1.445626 J29.120939
G03 X148.848421 Y169.742137 Z-0.125000 I-2.832207 J-13.764597
G01 X148.655360 Y169.556086 Z-0.125000
G01 X148.563827 Y169.250877 Z-0.125000
G02 X147.991980 Y168.549571 Z-0.125000 I-3.734710 J2.461496
G01 X147.328590 Y167.886194 Z-0.125000
G01 X145.544060 Y168.041924 Z-0.125000
G03 X141.735995 Y168.211386 Z-0.125000 I-3.892975 J-44.609803
G01 X141.505900 Y168.049524 Z-0.125000
G01 X141.567917 Y167.900320 Z-0.125000
G03 X143.223870 Y167.241772 Z-0.125000 I6.221652 J13.233392
G02 X145.658693 Y166.035707 Z-0.125000 I-2.989448 J-9.095910
G01 X146.044250 Y165.302752 Z-0.125000
G02 X145.331711 Y164.088500 Z-0.125000 I-1.390885 J0.000000
G02 X142.584690 Y163.370060 Z-0.125000 I-2.759166 J4.938958
G03 X142.025007 Y163.323633 Z-0.125000 I0.007392 J-3.485832
G03 X141.202810 Y163.142240 Z-0.125000 I1.275107 J-7.733742
G01 X140.595873 Y162.568659 Z-0.125000
G03 X140.648870 Y161.511080 Z-0.125000 I1.360260 J-0.461953
G01 X140.723757 Y160.997277 Z-0.125000
G01 X140.540120 Y160.728460 Z-0.125000
G01 X140.272018 Y160.460705 Z-0.125000
G01 X140.169290 Y160.067840 Z-0.125000
G03 X140.611607 Y158.416245 Z-0.125000 I3.304658 J0.000000
G01 X141.250940 Y158.193290 Z-0.125000
G01 X141.392514 Y158.288331 Z-0.125000
G03 X142.291150 Y159.277200 Z-0.125000 I-17.716109 J17.002278
G02 X146.169045 Y162.023646 Z-0.125000 I7.451760 J-6.410695
G02 X151.025150 Y162.685920 Z-0.125000 I3.801663 J-9.740817
G02 X154.600389 Y161.995408 Z-0.125000 I-2.048088 J-20.205266
G02 X158.201540 Y160.617980 Z-0.125000 I-6.304497 J-21.878631
G02 X162.479786 Y156.604883 Z-0.125000 I-4.271770 J-8.841016
G02 X162.519050 Y152.971870 Z-0.125000 I-3.280103 J-1.852169
G02 X161.211376 Y151.131644 Z-0.125000 I-7.953018 J4.266722
G02 X159.647780 Y149.847420 Z-0.125000 I-5.338901 J4.906351
G02 X158.183920 Y149.593466 Z-0.125000 I-1.053721 J1.727916
G02 X156.771560 Y150.442640 Z-0.125000 I0.504616 J2.438402
G03 X153.907731 Y152.418693 Z-0.125000 I-4.938678 J-4.094211
G03 X149.107110 Y153.062380 Z-0.125000 I-4.020720 J-11.763185
G03 X147.118199 Y152.755912 Z-0.125000 I0.701486 J-11.159525
G03 X146.204060 Y152.342740 Z-0.125000 I0.668594 J-2.697106
G03 X144.378270 Y150.721812 Z-0.125000 I5.807908 J-8.380684
G03 X144.085960 Y149.950790 Z-0.125000 I0.870705 J-0.771022
G01 X144.171632 Y149.727448 Z-0.125000
G03 X144.847530 Y149.104160 Z-0.125000 I3.668218 J3.299725
G02 X145.358715 Y148.129253 Z-0.125000 I-0.789940 J-1.035670
G02 X144.941030 Y147.102200 Z-0.125000 I-1.319986 J-0.061644
G03 X144.502846 Y146.484554 Z-0.125000 I1.287578 J-1.377718
G01 X144.560790 Y146.238860 Z-0.125000
G03 X145.826087 Y145.543108 Z-0.125000 I2.441709 J2.942087
G03 X148.839690 Y144.855150 Z-0.125000 I5.390937 J16.670496
G02 X151.145438 Y144.197468 Z-0.125000 I-1.151429 J-8.407430
G01 X151.484170 Y143.675450 Z-0.125000
G01 X151.379740 Y143.408732 Z-0.125000
G02 X150.587510 Y142.705910 Z-0.125000 I-3.943160 J3.646862
G01 X149.690850 Y142.056380 Z-0.125000
G01 X150.315520 Y141.779770 Z-0.125000
G03 X150.964763 Y141.623874 Z-0.125000 I0.750149 J1.694194
G03 X154.421670 Y141.555830 Z-0.125000 I2.705529 J49.605571
G02 X157.883475 Y141.503311 Z-0.125000 I0.864615 J-57.127577
G02 X158.490930 Y141.370620 Z-0.125000 I-0.083735 J-1.840140
G02 X159.719614 Y139.956740 Z-0.125000 I-0.774459 J-1.913830
G02 X159.315170 Y138.068140 Z-0.125000 I-2.129686 J-0.531533
G02 X158.808572 Y137.605402 Z-0.125000 I-1.650799 J1.298591
G02 X157.846410 Y137.114030 Z-0.125000 I-2.836209 J4.365922
G02 X156.302436 Y136.804863 Z-0.125000 I-1.669206 J4.326112
G02 X147.349910 Y136.830440 Z-0.125000 I-4.048219 J149.838460
G03 X143.149782 Y136.246185 Z-0.125000 I-0.407832 J-12.457361
G01 X142.973660 Y135.432660 Z-0.125000
G01 X143.442405 Y135.228271 Z-0.125000
G03 X145.540040 Y135.209370 Z-0.125000 I1.170075 J13.447819
G02 X147.622007 Y135.136189 Z-0.125000 I0.690065 J-10.020090
G02 X148.320620 Y134.820260 Z-0.125000 I-0.188529 J-1.347278
G02 X148.901053 Y133.714120 Z-0.125000 I-1.105828 J-1.285627
G02 X148.579890 Y132.384460 Z-0.125000 I-2.022013 J-0.215224
G02 X147.551261 Y131.557230 Z-0.125000 I-1.790286 J1.173008
G02 X144.793390 Y130.942620 Z-0.125000 I-3.489933 J9.165133
G03 X141.845190 Y130.425728 Z-0.125000 I1.132195 J-15.123975
G03 X140.442300 Y129.727170 Z-0.125000 I1.118616 J-4.004446
G03 X139.922354 Y129.093479 Z-0.125000 I1.080714 J-1.416884
G03 X139.730940 Y128.273340 Z-0.125000 I1.689737 J-0.826778
G02 X139.436546 Y125.959384 Z-0.125000 I-9.528254 J0.036530
G02 X138.519170 Y123.515800 Z-0.125000 I-11.532845 J2.935695
G03 X138.195117 Y122.380344 Z-0.125000 I2.773889 J-1.405624
G03 X138.320290 Y121.235240 Z-0.125000 I2.948257 J-0.257114
G03 X138.827489 Y120.262161 Z-0.125000 I2.993355 J0.941505
G01 X139.217420 Y120.070290 Z-0.125000
G03 X140.475885 Y120.440980 Z-0.125000 I-0.000000 J2.321543
G03 X143.432180 Y122.789170 Z-0.125000 I-10.421890 J16.155854
G02 X145.667849 Y124.725190 Z-0.125000 I18.412673 J-19.003649
G02 X146.952530 Y125.508830 Z-0.125000 I4.188394 J-5.421497
G02 X151.024428 Y126.433521 Z-0.125000 I4.159445 J-8.888516
G02 X155.533170 Y125.585330 Z-0.125000 I0.105681 J-11.845913
G02 X157.036759 Y124.683102 Z-0.125000 I-2.049482 J-5.119522
G02 X160.330730 Y121.543380 Z-0.125000 I-23.928910 J-28.402257
G03 X162.208810 Y120.147476 Z-0.125000 I4.698522 J4.360138
G03 X165.191670 Y119.161530 Z-0.125000 I5.083663 J10.374891
G03 X169.016013 Y119.262644 Z-0.125000 I1.674140 J9.053407
G03 X171.245650 Y120.615600 Z-0.125000 I-0.999277 J4.160455
G02 X172.326019 Y121.079191 Z-0.125000 I1.020341 J-0.887178
G02 X173.755690 Y120.504060 Z-0.125000 I-0.103141 J-2.320906
G02 X175.114458 Y118.157538 Z-0.125000 I-2.798185 J-3.186969
G02 X174.789250 Y115.391960 Z-0.125000 I-4.384121 J-0.886375
G01 X174.789090 Y115.391280 Z-0.125000
G00 Z5.000000

(End cutting path id: path6471)


(Start cutting path id: path6471)
(DuduZanette)
(Change tool to Default tool)

G00 Z5.000000
G00 X174.327960 Y118.353640

G01 Z-0.125000 F100.0(Penetrate)
G03 X173.486686 Y119.886885 Z-0.125000 I-3.681560 J-1.022609 F400.000000
G03 X172.588130 Y120.287110 Z-0.125000 I-0.898556 J-0.808573
G01 X172.165531 Y120.185463 Z-0.125000
G03 X171.326590 Y119.642960 Z-0.125000 I2.232510 J-4.372345
G02 X169.461695 Y118.674164 Z-0.125000 I-3.361761 J4.191935
G02 X166.606710 Y118.273960 Z-0.125000 I-2.816927 J9.711891
G02 X162.373057 Y119.214519 Z-0.125000 I0.038420 J10.171490
G02 X158.876560 Y121.851550 Z-0.125000 I4.355996 J9.412268
G03 X156.901782 Y123.779414 Z-0.125000 I-12.229181 J-10.551426
G03 X155.350630 Y124.748860 Z-0.125000 I-4.504848 J-5.482260
G03 X152.393932 Y125.568903 Z-0.125000 I-4.038920 J-8.822219
G03 X149.338720 Y125.423620 Z-0.125000 I-1.075426 J-9.581710
G03 X146.922389 Y124.492072 Z-0.125000 I1.656931 J-7.897514
G03 X144.085850 Y122.352070 Z-0.125000 I7.668345 J-13.114165
G02 X141.034038 Y119.827900 Z-0.125000 I-18.901945 J19.746164
G02 X139.774080 Y119.283320 Z-0.125000 I-1.903888 J2.675071
G01 X139.140840 Y119.156670 Z-0.125000
G01 X139.024120 Y116.838790 Z-0.125000
G02 X138.846528 Y114.534291 Z-0.125000 I-43.405633 J2.185876
G02 X138.740200 Y114.105610 Z-0.125000 I-1.578299 J0.163948
G01 X138.822602 Y113.896917 Z-0.125000
G01 X139.316690 Y113.837070 Z-0.125000
G03 X140.890604 Y114.411378 Z-0.125000 I-1.050110 J5.321711
G03 X144.521040 Y116.713650 Z-0.125000 I-17.276304 J31.256417
G02 X148.320523 Y119.083768 Z-0.125000 I19.390988 J-26.854771
G02 X150.352370 Y119.824670 Z-0.125000 I3.636604 J-6.816490
G02 X152.766016 Y120.090650 Z-0.125000 I2.539181 J-11.957545
G01 X153.007160 Y119.851970 Z-0.125000
G01 X152.919781 Y119.721749 Z-0.125000
G02 X152.476020 Y119.634380 Z-0.125000 I-0.443761 J1.083283
G01 X152.294646 Y119.406680 Z-0.125000
G01 X152.590060 Y119.137320 Z-0.125000
G02 X154.503519 Y118.451525 Z-0.125000 I-0.645646 J-4.813739
G02 X158.109170 Y115.715760 Z-0.125000 I-12.688182 J-20.466567
G03 X161.955894 Y112.919618 Z-0.125000 I14.065230 J15.305808
G03 X164.593970 Y112.055110 Z-0.125000 I3.482170 J6.168619
G03 X169.284489 Y112.449550 Z-0.125000 I1.388776 J11.571342
G03 X173.025290 Y114.545780 Z-0.125000 I-2.740143 J9.275802
G03 X174.271676 Y116.435530 Z-0.125000 I-3.024829 J3.350931
G03 X174.327960 Y118.353680 Z-0.125000 I-3.069159 J1.049958
G01 X174.327960 Y118.353640 Z-0.125000
G00 Z5.000000

(End cutting path id: path6471)


(Start cutting path id: path6471)
(DuduZanette)
(Change tool to Default tool)

G00 Z5.000000
G00 X149.075320 Y112.917310

G01 Z-0.125000 F100.0(Penetrate)
G01 X148.801738 Y113.143777 Z-0.125000 F400.000000
G01 X148.525840 Y113.089400 Z-0.125000
G01 X148.406885 Y112.812435 Z-0.125000
G01 X148.570040 Y112.427710 Z-0.125000
G03 X148.946550 Y112.138532 Z-0.125000 I0.981604 J0.888352
G01 X149.119510 Y112.145360 Z-0.125000
G01 X149.231814 Y112.361069 Z-0.125000
G03 X149.075310 Y112.917310 Z-0.125000 I-1.339279 J-0.076681
G01 X149.075320 Y112.917310 Z-0.125000
G00 Z5.000000

(End cutting path id: path6471)


(Start cutting path id: path6471)
(DuduZanette)
(Change tool to Default tool)

G00 Z5.000000
G00 X143.296700 Y107.604490

G01 Z-0.125000 F100.0(Penetrate)
G01 X143.104354 Y107.573824 Z-0.125000 F400.000000
G01 X142.912150 Y107.321960 Z-0.125000
G01 X142.994600 Y106.595459 Z-0.125000
G01 X143.470180 Y106.492910 Z-0.125000
G01 X143.740902 Y107.081301 Z-0.125000
G01 X143.296700 Y107.604490 Z-0.125000
G01 X143.296700 Y107.604490 Z-0.125000
G00 Z5.000000

(End cutting path id: path6471)


(Start cutting path id: path6471)
(DuduZanette)
(Change tool to Default tool)

G00 Z5.000000
G00 X136.756500 Y112.412970

G01 Z-0.125000 F100.0(Penetrate)
G01 X136.709946 Y112.684714 Z-0.125000 F400.000000
G01 X136.773600 Y112.830020 Z-0.125000
G01 X136.841313 Y112.816127 Z-0.125000
G01 X136.887880 Y112.544440 Z-0.125000
G01 X136.824061 Y112.399118 Z-0.125000
G01 X136.756420 Y112.412970 Z-0.125000
G01 X136.756500 Y112.412970 Z-0.125000
G00 Z5.000000

(End cutting path id: path6471)


(Start cutting path id: path6471)
(DuduZanette)
(Change tool to Default tool)

G00 Z5.000000
G00 X136.972100 Y113.817870

G01 Z-0.125000 F100.0(Penetrate)
G02 X136.925738 Y114.199124 Z-0.125000 I1.395120 J0.363096 F400.000000
G01 X136.981100 Y114.470650 Z-0.125000
G01 X137.034916 Y114.467160 Z-0.125000
G02 X137.081450 Y114.085720 Z-0.125000 I-1.396424 J-0.363917
G01 X137.026983 Y113.814356 Z-0.125000
G01 X136.973130 Y113.817870 Z-0.125000
G01 X136.972100 Y113.817870 Z-0.125000
G00 Z5.000000

(End cutting path id: path6471)


(Start cutting path id: path6471)
(DuduZanette)
(Change tool to Default tool)

G00 Z5.000000
G00 X137.182790 Y116.102350

G01 Z-0.125000 F100.0(Penetrate)
G02 X137.139500 Y116.812819 Z-0.125000 I5.652323 J0.700958 F400.000000
G02 X137.184790 Y117.407910 Z-0.125000 I4.020484 J-0.006714
G01 X137.229641 Y117.407288 Z-0.125000
G02 X137.272790 Y116.696840 Z-0.125000 I-5.657214 J-0.700128
G02 X137.227241 Y116.101754 Z-0.125000 I-4.057794 J0.011302
G01 X137.182490 Y116.102350 Z-0.125000
G01 X137.182790 Y116.102350 Z-0.125000
G00 Z5.000000

(End cutting path id: path6471)


(Start cutting path id: path6471)
(DuduZanette)
(Change tool to Default tool)

G00 Z5.000000
G00 X136.974100 Y118.940750

G01 Z-0.125000 F100.0(Penetrate)
G01 X136.927547 Y119.212491 Z-0.125000 F400.000000
G01 X136.991200 Y119.357810 Z-0.125000
G01 X137.058915 Y119.343918 Z-0.125000
G01 X137.105490 Y119.072220 Z-0.125000
G01 X137.041667 Y118.926898 Z-0.125000
G01 X136.974020 Y118.940750 Z-0.125000
G01 X136.974100 Y118.940750 Z-0.125000
G00 Z5.000000

(End cutting path id: path6471)


(Start cutting path id: path6471)
(DuduZanette)
(Change tool to Default tool)

G00 Z5.000000
G00 X137.462580 Y120.831090

G01 Z-0.125000 F100.0(Penetrate)
G03 X136.212273 Y123.633671 Z-0.125000 I-11.673291 J-3.527583 F400.000000
G03 X134.119490 Y126.335660 Z-0.125000 I-12.926876 J-7.850845
G03 X132.991022 Y127.333089 Z-0.125000 I-7.225712 J-7.037923
G03 X131.931080 Y127.996240 Z-0.125000 I-4.202313 J-5.538087
G03 X130.901095 Y128.322648 Z-0.125000 I-1.512740 J-2.985203
G01 X130.664950 Y128.180810 Z-0.125000
G02 X129.736204 Y125.874291 Z-0.125000 I-30.399073 J10.900286
G02 X129.042700 Y124.560870 Z-0.125000 I-10.514012 J4.711740
G03 X128.464222 Y123.511915 Z-0.125000 I11.023660 J-6.763317
G01 X128.479780 Y123.417890 Z-0.125000
G03 X130.140032 Y122.306373 Z-0.125000 I3.637141 J3.637027
G01 X130.680510 Y122.501650 Z-0.125000
G01 X130.712822 Y122.501732 Z-0.125000
G01 X130.725110 Y122.417750 Z-0.125000
G01 X130.759299 Y122.160985 Z-0.125000
G03 X131.509760 Y120.844940 Z-0.125000 I12.214574 J6.093246
G02 X132.910637 Y117.150559 Z-0.125000 I-7.908675 J-5.111692
G02 X132.723130 Y112.875000 Z-0.125000 I-10.922540 J-1.662876
G02 X131.828714 Y110.271454 Z-0.125000 I-14.530477 J3.536357
G02 X131.002230 Y109.053090 Z-0.125000 I-3.899867 J1.755992
G03 X130.515410 Y108.289923 Z-0.125000 I1.627260 J-1.574873
G03 X130.150270 Y106.834180 Z-0.125000 I5.811564 J-2.231365
G02 X129.634978 Y103.876828 Z-0.125000 I-31.298412 J3.929896
G02 X128.985570 Y101.628490 Z-0.125000 I-18.707663 J4.185550
G03 X128.770870 Y100.784693 Z-0.125000 I4.411299 J-1.571648
G01 X128.840090 Y100.703730 Z-0.125000
G03 X129.778939 Y101.036737 Z-0.125000 I0.000000 J1.489955
G03 X132.667980 Y103.810030 Z-0.125000 I-15.172727 J18.697443
G03 X135.204912 Y107.236506 Z-0.125000 I-18.777205 J16.554874
G01 X135.280840 Y108.052070 Z-0.125000
G01 X135.308391 Y108.174467 Z-0.125000
G01 X135.421630 Y108.186280 Z-0.125000
G01 X135.521184 Y108.214573 Z-0.125000
G01 X135.530390 Y108.403880 Z-0.125000
G01 X135.510575 Y108.628197 Z-0.125000
G01 X135.579390 Y108.658420 Z-0.125000
G01 X135.960481 Y108.777708 Z-0.125000
G01 X135.913960 Y109.427080 Z-0.125000
G01 X135.915861 Y109.555353 Z-0.125000
G01 X136.045330 Y109.625030 Z-0.125000
G01 X136.171223 Y109.712886 Z-0.125000
G01 X136.169460 Y109.962720 Z-0.125000
G01 X136.186550 Y110.123391 Z-0.125000
G01 X136.289240 Y110.146280 Z-0.125000
G01 X136.398205 Y110.182118 Z-0.125000
G01 X136.415850 Y110.461680 Z-0.125000
G01 X136.424241 Y110.753710 Z-0.125000
G01 X136.522100 Y110.789640 Z-0.125000
G01 X136.618117 Y110.833171 Z-0.125000
G03 X136.604000 Y111.278920 Z-0.125000 I-1.120821 J0.187602
G01 X136.593796 Y111.593392 Z-0.125000
G01 X136.658400 Y111.607270 Z-0.125000
G01 X136.884124 Y111.643214 Z-0.125000
G03 X137.864540 Y115.935220 Z-0.125000 I-44.931264 J12.521558
G03 X137.970605 Y118.156264 Z-0.125000 I-8.464935 J1.517296
G03 X137.462600 Y120.831050 Z-0.125000 I-12.851882 J-1.055244
G01 X137.462580 Y120.831090 Z-0.125000
G00 Z5.000000

(End cutting path id: path6471)


(Start cutting path id: path6471)
(DuduZanette)
(Change tool to Default tool)

G00 Z5.000000
G00 X134.837690 Y123.333420

G01 Z-0.125000 F100.0(Penetrate)
G02 X134.328942 Y123.859693 Z-0.125000 I5.206577 J5.542234 F400.000000
G01 X134.293710 Y123.953250 Z-0.125000
G01 X134.332326 Y123.972724 Z-0.125000
G02 X134.837690 Y123.551000 Z-0.125000 I-3.330782 J-4.505033
G02 X135.346447 Y123.024718 Z-0.125000 I-5.206784 J-5.542455
G01 X135.381680 Y122.931160 Z-0.125000
G01 X135.343063 Y122.911686 Z-0.125000
G02 X134.837690 Y123.333420 Z-0.125000 I3.329972 J4.504046
G01 X134.837690 Y123.333420 Z-0.125000
G00 Z5.000000

(End cutting path id: path6471)


(Start cutting path id: path6471)
(DuduZanette)
(Change tool to Default tool)

G00 Z5.000000
G00 X133.078830 Y124.438550

G01 Z-0.125000 F100.0(Penetrate)
G01 X132.933500 Y124.502370 Z-0.125000 F400.000000
G01 X132.947350 Y124.570010 Z-0.125000
G01 X133.219093 Y124.616589 Z-0.125000
G01 X133.364410 Y124.552910 Z-0.125000
G01 X133.350525 Y124.485217 Z-0.125000
G01 X133.078830 Y124.438630 Z-0.125000
G01 X133.078830 Y124.438550 Z-0.125000
G00 Z5.000000

(End cutting path id: path6471)


(Start cutting path id: path6471)
(DuduZanette)
(Change tool to Default tool)

G00 Z5.000000
G00 X131.410610 Y123.856720

G01 Z-0.125000 F100.0(Penetrate)
G01 X130.921020 Y123.442200 Z-0.125000 F400.000000
G01 X131.335540 Y123.931790 Z-0.125000
G02 X131.822168 Y124.385821 Z-0.125000 I2.166665 J-1.834422
G01 X131.900190 Y124.346310 Z-0.125000
G01 X131.874099 Y124.283318 Z-0.125000
G02 X131.410610 Y123.856720 Z-0.125000 I-5.375660 J5.375444
G01 X131.410610 Y123.856720 Z-0.125000
G00 Z5.000000

(End cutting path id: path6471)


(Start cutting path id: path6471)
(DuduZanette)
(Change tool to Default tool)

G00 Z5.000000
G00 X130.376530 Y120.782680

G01 Z-0.125000 F100.0(Penetrate)
G03 X129.877309 Y121.259243 Z-0.125000 I-1.915012 J-1.506304 F400.000000
G03 X128.814170 Y121.898230 Z-0.125000 I-4.573254 J-6.405007
G03 X127.717691 Y122.242186 Z-0.125000 I-1.625256 J-3.261385
G01 X127.311160 Y122.118670 Z-0.125000
G01 X127.190923 Y121.730924 Z-0.125000
G03 X127.790210 Y120.107690 Z-0.125000 I7.041453 J1.677411
G02 X128.589012 Y118.414200 Z-0.125000 I-25.454531 J-13.041789
G02 X129.011150 Y117.283210 Z-0.125000 I-10.917103 J-4.719041
G01 X129.376400 Y116.128860 Z-0.125000
G01 X129.804350 Y116.956820 Z-0.125000
G03 X130.602768 Y118.832119 Z-0.125000 I-12.157099 J6.283563
G03 X130.797960 Y119.876980 Z-0.125000 I-3.523368 J1.198867
G01 X130.733531 Y120.202738 Z-0.125000
G03 X130.376530 Y120.782680 Z-0.125000 I-2.694560 J-1.258864
G01 X130.376530 Y120.782680 Z-0.125000
G00 Z5.000000

(End cutting path id: path6471)


(Start cutting path id: path6471)
(DuduZanette)
(Change tool to Default tool)

G00 Z5.000000
G00 X131.874150 Y117.703950

G01 Z-0.125000 F100.0(Penetrate)
G01 X131.630240 Y118.841280 Z-0.125000 F400.000000
G01 X131.122400 Y117.593030 Z-0.125000
G02 X130.576611 Y116.364068 Z-0.125000 I-19.743108 J8.032347
G02 X130.184640 Y115.649160 Z-0.125000 I-7.059607 J3.405746
G03 X129.956186 Y114.911669 Z-0.125000 I1.310988 J-0.810237
G03 X130.054160 Y112.887680 Z-0.125000 I10.603781 J-0.501075
G02 X130.344213 Y110.820659 Z-0.125000 I-227.164844 J-32.930525
G02 X130.419870 Y110.192620 Z-0.125000 I-20.925323 J-2.839371
G01 X130.486170 Y109.563410 Z-0.125000
G01 X130.989290 Y110.463900 Z-0.125000
G03 X132.052810 Y113.721549 Z-0.125000 I-7.761369 J4.336270
G03 X131.874200 Y117.703950 Z-0.125000 I-11.942007 J1.459609
G01 X131.874150 Y117.703950 Z-0.125000
G00 Z5.000000

(End cutting path id: path6471)


(Start cutting path id: path6471)
(DuduZanette)
(Change tool to Default tool)

G00 Z5.000000
G00 X128.534790 Y114.732390

G01 Z-0.125000 F100.0(Penetrate)
G03 X126.668513 Y120.276491 Z-0.125000 I-37.204527 J-9.437769 F400.000000
G01 X125.995290 Y120.722300 Z-0.125000
G03 X125.245687 Y120.437824 Z-0.125000 I-0.000000 J-1.129852
G03 X121.631530 Y116.852910 Z-0.125000 I30.218155 J-34.078927
G03 X120.388879 Y114.961691 Z-0.125000 I5.543034 J-4.995985
G03 X120.251000 Y113.835640 Z-0.125000 I1.705353 J-0.780278
G03 X120.477728 Y113.282365 Z-0.125000 I1.454149 J0.272806
G01 X120.651050 Y113.241220 Z-0.125000
G01 X120.697017 Y113.217871 Z-0.125000
G01 X120.665450 Y113.120350 Z-0.125000
G01 X120.559972 Y112.819225 Z-0.125000
G03 X120.771590 Y111.619670 Z-0.125000 I5.851031 J0.413758
G02 X120.995761 Y110.368665 Z-0.125000 I-6.041019 J-1.728095
G02 X121.122310 Y107.013960 Z-0.125000 I-43.712968 J-3.328714
G02 X120.908500 Y103.677162 Z-0.125000 I-26.272056 J0.008173
G02 X120.438940 Y101.682930 Z-0.125000 I-9.826889 J1.261430
G03 X119.883393 Y99.699597 Z-0.125000 I15.766331 J-5.485748
G03 X119.661800 Y98.061260 Z-0.125000 I10.515063 J-2.256365
G02 X118.909736 Y95.323743 Z-0.125000 I-6.778874 J0.390261
G02 X117.530010 Y93.953610 Z-0.125000 I-2.827236 J1.467271
G03 X116.915475 Y93.363423 Z-0.125000 I0.669341 J-1.311990
G03 X116.669020 Y92.422150 Z-0.125000 I1.674247 J-0.941273
G02 X116.236241 Y90.605270 Z-0.125000 I-4.030180 J0.000000
G02 X114.839040 Y88.798840 Z-0.125000 I-5.378236 J2.716297
G03 X114.174566 Y87.920256 Z-0.125000 I1.818342 J-2.065778
G01 X114.231570 Y87.528440 Z-0.125000
G01 X114.224975 Y87.478747 Z-0.125000
G01 X114.160270 Y87.482540 Z-0.125000
G01 X113.685855 Y87.654307 Z-0.125000
G03 X112.745920 Y87.490540 Z-0.125000 I-0.015122 J-2.692448
G03 X111.921627 Y86.969585 Z-0.125000 I0.796538 J-2.172946
G03 X111.216680 Y85.990160 Z-0.125000 I2.482421 J-2.530145
G03 X110.759162 Y84.955838 Z-0.125000 I13.997281 J-6.809849
G01 X110.792300 Y84.928000 Z-0.125000
G02 X110.929469 Y84.999679 Z-0.125000 I0.563113 J-0.910512
G02 X114.210880 Y86.410550 Z-0.125000 I227.314999 J-524.169152
G03 X120.926819 Y90.603628 Z-0.125000 I-10.043248 J23.560905
G03 X125.524740 Y96.200570 Z-0.125000 I-14.026943 J16.210298
G03 X127.054633 Y99.435321 Z-0.125000 I-20.426094 J11.639794
G01 X126.950380 Y99.924690 Z-0.125000
G01 X126.949386 Y99.999531 Z-0.125000
G01 X127.070840 Y100.051740 Z-0.125000
G01 X127.237001 Y100.161817 Z-0.125000
G03 X127.969310 Y102.173270 Z-0.125000 I-19.163551 J8.115903
G03 X128.587427 Y104.560310 Z-0.125000 I-26.597751 J8.160958
G03 X129.158020 Y107.776280 Z-0.125000 I-47.760225 J10.132457
G03 X129.233504 Y110.635452 Z-0.125000 I-12.258606 J1.754218
G03 X128.534790 Y114.733140 Z-0.125000 I-26.052678 J-2.333938
G01 X128.534790 Y114.732390 Z-0.125000
G00 Z5.000000

(End cutting path id: path6471)


(Start cutting path id: path6471)
(DuduZanette)
(Change tool to Default tool)

G00 Z5.000000
G00 X124.828710 Y112.018590

G01 Z-0.125000 F100.0(Penetrate)
G02 X124.319976 Y112.544869 Z-0.125000 I5.206445 J5.541896 F400.000000
G01 X124.284740 Y112.638440 Z-0.125000
G01 X124.323355 Y112.657912 Z-0.125000
G02 X124.828710 Y112.236180 Z-0.125000 I-3.333053 J-4.507595
G02 X125.337467 Y111.709898 Z-0.125000 I-5.206784 J-5.542455
G01 X125.372700 Y111.616340 Z-0.125000
G01 X125.334083 Y111.596865 Z-0.125000
G02 X124.828710 Y112.018590 Z-0.125000 I3.330304 J4.504534
G01 X124.828710 Y112.018590 Z-0.125000
G00 Z5.000000

(End cutting path id: path6471)


(Start cutting path id: path6471)
(DuduZanette)
(Change tool to Default tool)

G00 Z5.000000
G00 X121.891200 Y113.383410

G01 Z-0.125000 F100.0(Penetrate)
G02 X121.401623 Y113.430151 Z-0.125000 I0.000000 J2.587379 F400.000000
G01 X121.401630 Y113.477710 Z-0.125000
G02 X121.891206 Y113.524461 Z-0.125000 I0.489576 J-2.540041
G02 X122.380800 Y113.477710 Z-0.125000 I0.000000 J-2.586979
G01 X122.380796 Y113.430117 Z-0.125000
G02 X121.891200 Y113.383410 Z-0.125000 I-0.489596 J2.542689
G01 X121.891200 Y113.383410 Z-0.125000
G00 Z5.000000

(End cutting path id: path6471)


(Start cutting path id: path6471)
(DuduZanette)
(Change tool to Default tool)

G00 Z5.000000
G00 X127.404520 Y105.436410

G01 Z-0.125000 F100.0(Penetrate)
G01 X127.351683 Y105.708408 Z-0.125000 F400.000000
G01 X127.404520 Y105.980390 Z-0.125000
G01 X127.461471 Y105.980380 Z-0.125000
G01 X127.514260 Y105.708400 Z-0.125000
G01 X127.461453 Y105.436406 Z-0.125000
G01 X127.404520 Y105.436410 Z-0.125000
G01 X127.404520 Y105.436410 Z-0.125000
G00 Z5.000000

(End cutting path id: path6471)


(Start cutting path id: path6471)
(DuduZanette)
(Change tool to Default tool)

G00 Z5.000000
G00 X127.615420 Y103.591020

G01 Z-0.125000 F100.0(Penetrate)
G02 X127.569058 Y103.972261 Z-0.125000 I1.395009 J0.363085 F400.000000
G01 X127.624420 Y104.243790 Z-0.125000
G01 X127.678238 Y104.240300 Z-0.125000
G02 X127.724770 Y103.858870 Z-0.125000 I-1.396115 J-0.363871
G01 X127.670264 Y103.587507 Z-0.125000
G01 X127.616340 Y103.591020 Z-0.125000
G01 X127.615420 Y103.591020 Z-0.125000
G00 Z5.000000

(End cutting path id: path6471)


(Start cutting path id: path6471)
(DuduZanette)
(Change tool to Default tool)

G00 Z5.000000
G00 X127.404520 Y101.954930

G01 Z-0.125000 F100.0(Penetrate)
G01 X127.351685 Y102.226920 Z-0.125000 F400.000000
G01 X127.404520 Y102.498910 Z-0.125000
G01 X127.461471 Y102.498900 Z-0.125000
G01 X127.514260 Y102.226920 Z-0.125000
G01 X127.461453 Y101.954926 Z-0.125000
G01 X127.404520 Y101.954930 Z-0.125000
G01 X127.404520 Y101.954930 Z-0.125000
G00 Z5.000000

(End cutting path id: path6471)


(Start cutting path id: path6471)
(DuduZanette)
(Change tool to Default tool)

G00 Z5.000000
G00 X127.182390 Y100.880560

G01 Z-0.125000 F100.0(Penetrate)
G01 X127.135838 Y101.152295 Z-0.125000 F400.000000
G01 X127.199490 Y101.297610 Z-0.125000
G01 X127.267205 Y101.283718 Z-0.125000
G01 X127.313780 Y101.012020 Z-0.125000
G01 X127.249965 Y100.866708 Z-0.125000
G01 X127.182330 Y100.880560 Z-0.125000
G01 X127.182390 Y100.880560 Z-0.125000
G00 Z5.000000

(End cutting path id: path6471)


(Start cutting path id: path6471)
(DuduZanette)
(Change tool to Default tool)

G00 Z5.000000
G00 X132.444170 Y106.186010

G01 Z-0.125000 F100.0(Penetrate)
G01 X132.172807 Y106.240517 Z-0.125000 F400.000000
G01 X132.176320 Y106.294440 Z-0.125000
G02 X132.557769 Y106.340891 Z-0.125000 I0.363752 J-1.397638
G01 X132.829100 Y106.286440 Z-0.125000
G01 X132.825610 Y106.232625 Z-0.125000
G02 X132.444170 Y106.186100 Z-0.125000 I-0.363877 J1.396391
G01 X132.444170 Y106.186010 Z-0.125000
G00 Z5.000000

(End cutting path id: path6471)


(Start cutting path id: path6471)
(DuduZanette)
(Change tool to Default tool)

G00 Z5.000000
G00 X134.565700 Y107.203790

G01 Z-0.125000 F100.0(Penetrate)
G01 X134.488257 Y107.208455 Z-0.125000 F400.000000
G01 X134.483600 Y107.285890 Z-0.125000
G02 X134.861760 Y107.630714 Z-0.125000 I1.215543 J-0.953285
G01 X134.946530 Y107.584520 Z-0.125000
G01 X134.918200 Y107.516127 Z-0.125000
G02 X134.565750 Y107.203730 Z-0.125000 I-2.769874 J2.769984
G01 X134.565700 Y107.203790 Z-0.125000
G00 Z5.000000

(End cutting path id: path6471)


(Start cutting path id: path6471)
(DuduZanette)
(Change tool to Default tool)

G00 Z5.000000
G00 X140.235990 Y115.123430

G01 Z-0.125000 F100.0(Penetrate)
G02 X140.189628 Y115.504688 Z-0.125000 I1.395135 J0.363100 F400.000000
G01 X140.244990 Y115.776200 Z-0.125000
G01 X140.298809 Y115.772711 Z-0.125000
G02 X140.345340 Y115.391280 Z-0.125000 I-1.396143 J-0.363871
G01 X140.290835 Y115.119917 Z-0.125000
G01 X140.236910 Y115.123430 Z-0.125000
G01 X140.235990 Y115.123430 Z-0.125000
G00 Z5.000000

(End cutting path id: path6471)


(Start cutting path id: path6471)
(DuduZanette)
(Change tool to Default tool)

G00 Z5.000000
G00 X140.015290 Y117.188960

G01 Z-0.125000 F100.0(Penetrate)
G02 X139.969745 Y117.679503 Z-0.125000 I2.482661 J0.477893 F400.000000
G02 X140.019290 Y118.059320 Z-0.125000 I1.539673 J-0.007704
G01 X140.068470 Y118.057694 Z-0.125000
G02 X140.113990 Y117.567200 Z-0.125000 I-2.483261 J-0.477816
G02 X140.064180 Y117.187317 Z-0.125000 I-1.522022 J0.006359
G01 X140.014990 Y117.188960 Z-0.125000
G01 X140.015290 Y117.188960 Z-0.125000
G00 Z5.000000

(End cutting path id: path6471)


(Start cutting path id: path6471)
(DuduZanette)
(Change tool to Default tool)

G00 Z5.000000
G00 X138.855960 Y130.902730

G01 Z-0.125000 F100.0(Penetrate)
G03 X137.590742 Y134.221022 Z-0.125000 I-8.677271 J-1.408172 F400.000000
G03 X133.164530 Y139.828050 Z-0.125000 I-29.990806 J-19.124318
G01 X131.192420 Y141.866590 Z-0.125000
G01 X130.148500 Y140.838370 Z-0.125000
G01 X129.104570 Y139.810140 Z-0.125000
G01 X129.632250 Y138.974250 Z-0.125000
G02 X130.129321 Y138.129509 Z-0.125000 I-13.268710 J-8.376319
G01 X130.159920 Y138.009830 Z-0.125000
G01 X130.257548 Y137.747777 Z-0.125000
G03 X131.537024 Y136.350302 Z-0.125000 I25.493472 J22.056426
G03 X132.890071 Y135.033525 Z-0.125000 I22.966730 J22.245787
G01 X133.058210 Y135.017610 Z-0.125000
G01 X133.130289 Y135.007486 Z-0.125000
G01 X133.137410 Y134.930510 Z-0.125000
G01 X133.120182 Y134.709689 Z-0.125000
G03 X133.757300 Y133.454960 Z-0.125000 I8.995465 J3.778534
G02 X134.931153 Y131.053106 Z-0.125000 I-13.115370 J-7.897623
G02 X135.164570 Y129.795980 Z-0.125000 I-3.268580 J-1.257126
G02 X135.087820 Y129.330066 Z-0.125000 I-1.452544 J-0.000000
G02 X134.718260 Y128.478080 Z-0.125000 I-5.321567 J1.802153
G01 X134.271960 Y127.645380 Z-0.125000
G01 X135.211280 Y126.631770 Z-0.125000
G02 X136.101560 Y125.580340 Z-0.125000 I-11.288962 J-10.461360
G02 X136.877020 Y124.475790 Z-0.125000 I-11.684778 J-9.027897
G03 X137.619151 Y123.361998 Z-0.125000 I26.449184 J16.819206
G01 X137.673930 Y123.333420 Z-0.125000
G01 X138.062290 Y123.617181 Z-0.125000
G03 X138.850380 Y127.021750 Z-0.125000 I-20.498504 J6.538495
G03 X139.001969 Y129.073479 Z-0.125000 I-14.062940 J2.070483
G03 X138.855380 Y130.902740 Z-0.125000 I-11.300788 J0.014910
G01 X138.855960 Y130.902730 Z-0.125000
G00 Z5.000000

(End cutting path id: path6471)


(Start cutting path id: path6471)
(DuduZanette)
(Change tool to Default tool)

G00 Z5.000000
G00 X134.041880 Y130.971080

G01 Z-0.125000 F100.0(Penetrate)
G03 X133.735068 Y131.683297 Z-0.125000 I-4.692999 J-1.599480 F400.000000
G03 X133.193330 Y132.581100 Z-0.125000 I-8.018806 J-4.226232
G03 X131.292392 Y135.025453 Z-0.125000 I-21.227795 J-14.547210
G01 X131.136650 Y134.920440 Z-0.125000
G02 X131.532196 Y133.246942 Z-0.125000 I-3.324253 J-1.669210
G02 X131.132650 Y130.020570 Z-0.125000 I-13.350690 J0.015390
G01 X131.155371 Y129.560093 Z-0.125000
G01 X131.345930 Y129.426010 Z-0.125000
G01 X131.690879 Y129.358476 Z-0.125000
G02 X132.685060 Y128.880770 Z-0.125000 I-3.397157 J-8.343396
G01 X133.661680 Y128.335520 Z-0.125000
G01 X133.969570 Y129.043970 Z-0.125000
G03 X134.185606 Y129.992779 Z-0.125000 I-2.411494 J1.048076
G03 X134.042370 Y130.971080 Z-0.125000 I-2.712577 J0.102480
G01 X134.041880 Y130.971080 Z-0.125000
G00 Z5.000000

(End cutting path id: path6471)


(Start cutting path id: path6471)
(DuduZanette)
(Change tool to Default tool)

G00 Z5.000000
G00 X135.055750 Y136.226260

G01 Z-0.125000 F100.0(Penetrate)
G02 X134.675878 Y136.276044 Z-0.125000 I0.006362 J1.522735 F400.000000
G01 X134.677510 Y136.325260 Z-0.125000
G02 X135.168067 Y136.370805 Z-0.125000 I0.477906 J-2.482819
G02 X135.547880 Y136.321260 Z-0.125000 I-0.007704 J-1.539659
G01 X135.546254 Y136.272079 Z-0.125000
G02 X135.055750 Y136.226560 Z-0.125000 I-0.477826 J2.483382
G01 X135.055750 Y136.226260 Z-0.125000
G00 Z5.000000

(End cutting path id: path6471)


(Start cutting path id: path6471)
(DuduZanette)
(Change tool to Default tool)

G00 Z5.000000
G00 X135.164560 Y139.979260

G01 Z-0.125000 F100.0(Penetrate)
G02 X134.764178 Y140.388531 Z-0.125000 I3.158403 J3.490283 F400.000000
G01 X134.729380 Y140.481890 Z-0.125000
G01 X134.768295 Y140.502918 Z-0.125000
G02 X135.164560 Y140.196840 Z-0.125000 I-1.767027 J-2.697238
G02 X135.564940 Y139.787568 Z-0.125000 I-3.160646 J-3.492455
G01 X135.599740 Y139.694210 Z-0.125000
G01 X135.560824 Y139.673181 Z-0.125000
G02 X135.164560 Y139.979260 Z-0.125000 I1.766589 J2.696653
G01 X135.164560 Y139.979260 Z-0.125000
G00 Z5.000000

(End cutting path id: path6471)


(Start cutting path id: path6471)
(DuduZanette)
(Change tool to Default tool)

G00 Z5.000000
G00 X134.484770 Y140.900390

G01 Z-0.125000 F100.0(Penetrate)
G01 X134.310187 Y141.168939 Z-0.125000 F400.000000
G01 X134.336210 Y141.290570 Z-0.125000
G01 X134.432006 Y141.290745 Z-0.125000
G01 X134.606590 Y141.022200 Z-0.125000
G01 X134.580563 Y140.900571 Z-0.125000
G01 X134.484770 Y140.900390 Z-0.125000
G01 X134.484770 Y140.900390 Z-0.125000
G00 Z5.000000

(End cutting path id: path6471)


(Start cutting path id: path6471)
(DuduZanette)
(Change tool to Default tool)

G00 Z5.000000
G00 X129.956830 Y135.083170

G01 Z-0.125000 F100.0(Penetrate)
G03 X129.506729 Y136.587638 Z-0.125000 I-37.126167 J-10.287690 F400.000000
G03 X129.395880 Y136.827840 Z-0.125000 I-1.040841 J-0.334653
G01 X128.848618 Y137.061349 Z-0.125000
G03 X126.764200 Y136.265180 Z-0.125000 I1.518684 J-7.102652
G03 X125.661678 Y135.171897 Z-0.125000 I1.486417 J-2.601540
G03 X124.405100 Y132.215750 Z-0.125000 I11.079945 J-6.454925
G02 X122.975027 Y129.566485 Z-0.125000 I-6.677263 J1.893776
G02 X118.192140 Y125.039810 Z-0.125000 I-25.106050 J21.736929
G03 X115.021604 Y122.100354 Z-0.125000 I14.879831 J-19.229200
G03 X113.554150 Y119.900520 Z-0.125000 I6.752188 J-6.093583
G03 X113.074140 Y118.389672 Z-0.125000 I5.330541 J-2.525235
G03 X112.861110 Y115.930680 Z-0.125000 I14.085451 J-2.458992
G03 X113.080695 Y113.474918 Z-0.125000 I13.841956 J-0.000000
G03 X113.574210 Y111.975300 Z-0.125000 I5.584056 J1.006661
G03 X114.390494 Y110.601265 Z-0.125000 I9.131283 J4.495209
G03 X115.304540 Y109.523940 Z-0.125000 I6.497622 J4.586426
G03 X117.567970 Y107.846190 Z-0.125000 I7.066385 J7.167504
G03 X119.795750 Y107.085200 Z-0.125000 I3.353485 J6.175871
G01 X120.627120 Y106.950290 Z-0.125000
G01 X120.468050 Y108.435470 Z-0.125000
G03 X120.166849 Y109.871022 Z-0.125000 I-7.294088 J-0.781037
G03 X119.685760 Y110.903430 Z-0.125000 I-4.216465 J-1.336525
G02 X119.125107 Y112.866278 Z-0.125000 I3.045459 J1.931375
G02 X119.725760 Y115.487000 Z-0.125000 I6.255810 J-0.054597
G02 X120.558865 Y116.766430 Z-0.125000 I5.115422 J-2.419969
G02 X123.762070 Y120.159320 Z-0.125000 I39.998570 J-34.553880
G03 X127.806512 Y124.731715 Z-0.125000 I-27.766802 J28.635621
G03 X129.313360 Y127.498050 Z-0.125000 I-8.471056 J6.407827
G03 X130.262713 Y131.798290 Z-0.125000 I-15.638966 J5.707486
G03 X129.956820 Y135.083170 Z-0.125000 I-9.309561 J0.789763
G01 X129.956830 Y135.083170 Z-0.125000
G00 Z5.000000

(End cutting path id: path6471)


(Start cutting path id: path6471)
(DuduZanette)
(Change tool to Default tool)

G00 Z5.000000
G00 X127.766210 Y135.569080

G01 Z-0.125000 F100.0(Penetrate)
G02 X127.385416 Y135.618016 Z-0.125000 I-0.000000 J1.506031 F400.000000
G01 X127.385420 Y135.668580 Z-0.125000
G02 X127.766201 Y135.717487 Z-0.125000 I0.380781 J-1.457898
G02 X128.147000 Y135.668580 Z-0.125000 I0.000000 J-1.506942
G01 X128.147004 Y135.618018 Z-0.125000
G02 X127.766210 Y135.569080 Z-0.125000 I-0.380794 J1.457024
G01 X127.766210 Y135.569080 Z-0.125000
G00 Z5.000000

(End cutting path id: path6471)


(Start cutting path id: path6471)
(DuduZanette)
(Change tool to Default tool)

G00 Z5.000000
G00 X126.297470 Y135.114810

G01 Z-0.125000 F100.0(Penetrate)
G01 X126.131414 Y135.114203 Z-0.125000 F400.000000
G01 X126.121460 Y135.188610 Z-0.125000
G02 X126.558168 Y135.476922 Z-0.125000 I2.025348 J-2.592905
G01 X126.719840 Y135.518540 Z-0.125000
G01 X126.759440 Y135.419814 Z-0.125000
G02 X126.297470 Y135.114740 Z-0.125000 I-1.072673 J1.122022
G01 X126.297470 Y135.114810 Z-0.125000
G00 Z5.000000

(End cutting path id: path6471)


(Start cutting path id: path6471)
(DuduZanette)
(Change tool to Default tool)

G00 Z5.000000
G00 X120.150470 Y133.886650

G01 Z-0.125000 F100.0(Penetrate)
G02 X119.750081 Y134.295933 Z-0.125000 I3.161921 J3.493702 F400.000000
G01 X119.715280 Y134.389290 Z-0.125000
G01 X119.754198 Y134.410321 Z-0.125000
G02 X120.150470 Y134.104250 Z-0.125000 I-1.766509 J-2.696676
G02 X120.550858 Y133.694964 Z-0.125000 I-3.159160 J-3.490959
G01 X120.585650 Y133.601620 Z-0.125000
G01 X120.546734 Y133.580591 Z-0.125000
G02 X120.150470 Y133.886650 Z-0.125000 I1.767330 J2.697773
G01 X120.150470 Y133.886650 Z-0.125000
G00 Z5.000000

(End cutting path id: path6471)


(Start cutting path id: path6471)
(DuduZanette)
(Change tool to Default tool)

G00 Z5.000000
G00 X116.799780 Y136.910840

G01 Z-0.125000 F100.0(Penetrate)
G01 X116.765080 Y139.499840 Z-0.125000 F400.000000
G01 X115.815860 Y139.780100 Z-0.125000
G01 X114.866650 Y140.060380 Z-0.125000
G01 X114.985790 Y137.898350 Z-0.125000
G03 X115.273355 Y135.779360 Z-0.125000 I13.385728 J0.737549
G03 X115.753900 Y134.376310 Z-0.125000 I6.300111 J1.373972
G03 X116.471736 Y133.061499 Z-0.125000 I12.409209 J5.921589
G03 X117.067060 Y132.254720 Z-0.125000 I5.237797 J3.241945
G01 X117.731230 Y131.493140 Z-0.125000
G01 X117.282820 Y132.907490 Z-0.125000
G02 X116.971317 Y134.343960 Z-0.125000 I7.506934 J2.379910
G02 X116.799760 Y136.910840 Z-0.125000 I23.947352 J2.889694
G01 X116.799780 Y136.910840 Z-0.125000
G00 Z5.000000

(End cutting path id: path6471)


(Start cutting path id: path6471)
(DuduZanette)
(Change tool to Default tool)

G00 Z5.000000
G00 X115.245970 Y133.261920

G01 Z-0.125000 F100.0(Penetrate)
G02 X114.113129 Y135.921595 Z-0.125000 I8.870290 J5.349234 F400.000000
G02 X113.897510 Y138.277200 Z-0.125000 I6.697248 J1.800701
G03 X113.975570 Y139.622947 Z-0.125000 I-30.382201 J2.437451
G01 X113.946710 Y139.652860 Z-0.125000
G01 X113.888329 Y139.640485 Z-0.125000
G03 X112.231030 Y138.891280 Z-0.125000 I54.035969 J-121.739267
G03 X107.277594 Y136.178755 Z-0.125000 I16.972433 J-36.873032
G01 X106.880750 Y135.457210 Z-0.125000
G03 X106.944643 Y134.865146 Z-0.125000 I2.628781 J-0.015791
G03 X107.178230 Y134.131890 Z-0.125000 I4.301458 J0.966442
G01 X107.479050 Y133.411940 Z-0.125000
G01 X109.781370 Y133.271070 Z-0.125000
G02 X112.058467 Y132.996143 Z-0.125000 I-1.187647 J-19.404296
G02 X114.050000 Y132.497880 Z-0.125000 I-2.774678 J-15.319417
G03 X115.988294 Y131.903959 Z-0.125000 I22.465281 J69.856891
G01 X116.016300 Y131.924970 Z-0.125000
G01 X116.001543 Y131.980143 Z-0.125000
G03 X115.245900 Y133.261920 Z-0.125000 I-64.601807 J-37.220920
G01 X115.245970 Y133.261920 Z-0.125000
G00 Z5.000000

(End cutting path id: path6471)


(Start cutting path id: path6471)
(DuduZanette)
(Change tool to Default tool)

G00 Z5.000000
G00 X118.516960 Y129.181660

G01 Z-0.125000 F100.0(Penetrate)
G03 X111.504166 Y131.957633 Z-0.125000 I-9.936792 J-14.856783 F400.000000
G03 X103.613600 Y131.653040 Z-0.125000 I-3.205071 J-19.327723
G03 X101.367849 Y130.857198 Z-0.125000 I2.880324 J-11.694374
G01 X101.169260 Y130.503360 Z-0.125000
G02 X101.216792 Y129.969100 Z-0.125000 I-13.617372 J-1.480755
G02 X101.361460 Y127.728740 Z-0.125000 I-239.785498 J-16.608648
G01 X101.495680 Y125.487500 Z-0.125000
G01 X102.173850 Y125.647570 Z-0.125000
G02 X104.588254 Y125.873850 Z-0.125000 I2.019865 J-8.557948
G02 X107.763390 Y125.396520 Z-0.125000 I-0.691676 J-15.399883
G02 X110.636224 Y124.378993 Z-0.125000 I-4.406597 J-17.005627
G02 X112.977320 Y123.022610 Z-0.125000 I-5.737248 J-12.600943
G01 X114.021450 Y122.272470 Z-0.125000
G01 X115.617300 Y123.810460 Z-0.125000
G02 X117.241834 Y125.316012 Z-0.125000 I39.365054 J-40.846805
G02 X118.681910 Y126.541360 Z-0.125000 I27.505768 J-30.866933
G03 X120.086790 Y127.764692 Z-0.125000 I-17.128402 J21.088681
G01 X120.150660 Y127.911630 Z-0.125000
G01 X120.081903 Y128.052176 Z-0.125000
G03 X118.516960 Y129.181660 Z-0.125000 I-16.611378 J-21.366812
G01 X118.516960 Y129.181660 Z-0.125000
G00 Z5.000000

(End cutting path id: path6471)


(Start cutting path id: path6471)
(DuduZanette)
(Change tool to Default tool)

G00 Z5.000000
G00 X117.826090 Y128.079650

G01 Z-0.125000 F100.0(Penetrate)
G01 X117.779538 Y128.351385 Z-0.125000 F400.000000
G01 X117.843190 Y128.496700 Z-0.125000
G01 X117.910903 Y128.482808 Z-0.125000
G01 X117.957480 Y128.211110 Z-0.125000
G01 X117.893662 Y128.065797 Z-0.125000
G01 X117.826020 Y128.079650 Z-0.125000
G01 X117.826090 Y128.079650 Z-0.125000
G00 Z5.000000

(End cutting path id: path6471)


(Start cutting path id: path6471)
(DuduZanette)
(Change tool to Default tool)

G00 Z5.000000
G00 X112.212340 Y122.460400

G01 Z-0.125000 F100.0(Penetrate)
G03 X111.445594 Y122.866688 Z-0.125000 I-2.136282 J-3.104940 F400.000000
G01 X111.368150 Y122.789670 Z-0.125000
G03 X112.573834 Y121.361110 Z-0.125000 I2.657539 J1.019854
G01 X113.187670 Y121.710760 Z-0.125000
G01 X113.156936 Y121.773149 Z-0.125000
G03 X112.212340 Y122.460400 Z-0.125000 I-13.509916 J-17.575990
G01 X112.212340 Y122.460400 Z-0.125000
G00 Z5.000000

(End cutting path id: path6471)


(Start cutting path id: path6471)
(DuduZanette)
(Change tool to Default tool)

G00 Z5.000000
G00 X106.633260 Y124.638970

G01 Z-0.125000 F100.0(Penetrate)
G01 X106.241125 Y124.504051 Z-0.125000 F400.000000
G01 X106.220930 Y124.317150 Z-0.125000
G01 X106.518227 Y124.149714 Z-0.125000
G01 X106.900340 Y124.216040 Z-0.125000
G01 X106.963882 Y124.456751 Z-0.125000
G01 X106.633260 Y124.639000 Z-0.125000
G01 X106.633260 Y124.638970 Z-0.125000
G00 Z5.000000

(End cutting path id: path6471)


(Start cutting path id: path6471)
(DuduZanette)
(Change tool to Default tool)

G00 Z5.000000
G00 X102.947970 Y124.856560

G01 Z-0.125000 F100.0(Penetrate)
G01 X102.655631 Y124.769715 Z-0.125000 F400.000000
G01 X102.628550 Y124.648460 Z-0.125000
G01 X102.789934 Y124.537411 Z-0.125000
G01 X103.076580 Y124.562960 Z-0.125000
G01 X103.145342 Y124.727542 Z-0.125000
G01 X102.947970 Y124.856560 Z-0.125000
G01 X102.947970 Y124.856560 Z-0.125000
G00 Z5.000000

(End cutting path id: path6471)


(Start cutting path id: path6471)
(DuduZanette)
(Change tool to Default tool)

G00 Z5.000000
G00 X99.978220 Y125.022300

G01 Z-0.125000 F100.0(Penetrate)
G02 X99.932696 Y125.512789 Z-0.125000 I2.482447 J0.477761 F400.000000
G02 X99.982620 Y125.892660 Z-0.125000 I1.528755 J-0.007697
G01 X100.031783 Y125.891035 Z-0.125000
G02 X100.077290 Y125.400540 Z-0.125000 I-2.483971 J-0.477814
G02 X100.027492 Y125.020669 Z-0.125000 I-1.522284 J0.006360
G01 X99.978250 Y125.022300 Z-0.125000
G01 X99.978220 Y125.022300 Z-0.125000
G00 Z5.000000

(End cutting path id: path6471)


(Start cutting path id: path6471)
(DuduZanette)
(Change tool to Default tool)

G00 Z5.000000
G00 X99.770416 Y127.413270

G01 Z-0.125000 F100.0(Penetrate)
G01 X99.717594 Y127.685273 Z-0.125000 F400.000000
G01 X99.770416 Y127.957260 Z-0.125000
G01 X99.827364 Y127.957256 Z-0.125000
G01 X99.880165 Y127.685260 Z-0.125000
G01 X99.827367 Y127.413276 Z-0.125000
G01 X99.770416 Y127.413270 Z-0.125000
G01 X99.770416 Y127.413270 Z-0.125000
G00 Z5.000000

(End cutting path id: path6471)


(Start cutting path id: path6471)
(DuduZanette)
(Change tool to Default tool)

G00 Z5.000000
G00 X99.400015 Y129.226550

G01 Z-0.125000 F100.0(Penetrate)
G01 X99.332240 Y129.324792 Z-0.125000 F400.000000
G02 X99.061627 Y129.861190 Z-0.125000 I11.634943 J6.206290
G01 X99.069505 Y129.979310 Z-0.125000
G01 X99.140897 Y129.982800 Z-0.125000
G02 X99.518901 Y129.295342 Z-0.125000 I-1.781500 J-1.427225
G01 X99.399967 Y129.226550 Z-0.125000
G01 X99.400015 Y129.226550 Z-0.125000
G00 Z5.000000

(End cutting path id: path6471)


(Start cutting path id: path6471)
(DuduZanette)
(Change tool to Default tool)

G00 Z5.000000
G00 X100.010640 Y131.012770

G01 Z-0.125000 F100.0(Penetrate)
G03 X99.569374 Y132.376578 Z-0.125000 I-10.409813 J-2.614851 F400.000000
G01 X99.428105 Y132.472300 Z-0.125000
G03 X97.769894 Y132.019371 Z-0.125000 I0.000000 J-3.261890
G01 X97.617759 Y131.403650 Z-0.125000
G01 X97.592933 Y131.329562 Z-0.125000
G02 X97.214107 Y131.246680 Z-0.125000 I-0.453436 J1.165320
G03 X96.757569 Y131.135604 Z-0.125000 I0.078287 J-1.315528
G03 X95.692346 Y130.571100 Z-0.125000 I3.526394 J-7.941622
G01 X94.653313 Y129.924380 Z-0.125000
G01 X94.606143 Y127.988850 Z-0.125000
G02 X94.084388 Y125.061976 Z-0.125000 I-9.812681 J0.239304
G02 X92.994320 Y123.259090 Z-0.125000 I-4.665612 J1.589955
G02 X90.683240 Y121.637621 Z-0.125000 I-5.158894 J4.895246
G01 X90.122884 Y122.004270 Z-0.125000
G01 X90.198598 Y122.139183 Z-0.125000
G02 X90.662863 Y122.333800 Z-0.125000 I0.871487 J-1.427891
G03 X92.636627 Y123.296933 Z-0.125000 I-1.294000 J5.155813
G01 X92.673938 Y123.901180 Z-0.125000
G01 X92.587953 Y123.923108 Z-0.125000
G03 X91.467525 Y123.545840 Z-0.125000 I4.360311 J-14.801825
G02 X88.923926 Y123.289789 Z-0.125000 I-1.747702 J4.599574
G02 X86.270191 Y124.397750 Z-0.125000 I1.007113 J6.144220
G02 X84.534484 Y126.143424 Z-0.125000 I4.550666 J6.260419
G02 X82.605122 Y129.501010 Z-0.125000 I15.556214 J11.172157
G03 X81.888918 Y130.825486 Z-0.125000 I-9.120735 J-4.076116
G01 X81.678329 Y130.943300 Z-0.125000
G01 X81.524731 Y131.020483 Z-0.125000
G01 X81.517893 Y131.150440 Z-0.125000
G01 X81.559155 Y131.356992 Z-0.125000
G03 X81.400052 Y131.883410 Z-0.125000 I-2.031536 J-0.326755
G01 X81.157798 Y132.415090 Z-0.125000
G01 X80.309317 Y131.494590 Z-0.125000
G03 X79.624434 Y130.537920 Z-0.125000 I3.514286 J-3.239377
G01 X79.732824 Y130.434100 Z-0.125000
G01 X79.780819 Y130.402958 Z-0.125000
G01 X79.708144 Y130.231750 Z-0.125000
G02 X79.395063 Y129.962930 Z-0.125000 I-0.895575 J0.726307
G01 X79.251861 Y129.964640 Z-0.125000
G01 X79.105309 Y129.960564 Z-0.125000
G03 X78.484227 Y129.428690 Z-0.125000 I2.376528 J-3.403689
G03 X78.106523 Y128.750832 Z-0.125000 I1.107970 J-1.061520
G01 X78.149792 Y128.133650 Z-0.125000
G03 X78.457633 Y127.578980 Z-0.125000 I2.576329 J1.067100
G01 X78.561295 Y127.558030 Z-0.125000
G01 X78.640863 Y127.528905 Z-0.125000
G02 X78.745929 Y126.997790 Z-0.125000 I-2.094918 J-0.690369
G03 X79.316064 Y125.030491 Z-0.125000 I4.902761 J0.354585
G03 X81.850250 Y121.204840 Z-0.125000 I21.754125 J11.658186
G03 X84.283200 Y118.807895 Z-0.125000 I11.619558 J9.360880
G03 X86.834156 Y117.310790 Z-0.125000 I6.890591 J8.819181
G03 X88.310636 Y116.890732 Z-0.125000 I2.465488 J5.861147
G03 X90.666835 Y116.707310 Z-0.125000 I2.344243 J14.888324
G03 X93.029784 Y116.866609 Z-0.125000 I-0.009039 J17.739032
G03 X94.257117 Y117.191050 Z-0.125000 I-0.684494 J5.073056
G03 X98.831122 Y121.140147 Z-0.125000 I-3.488202 J8.663625
G03 X100.462800 Y127.803280 Z-0.125000 I-10.389765 J6.075611
G03 X100.298208 Y129.541494 Z-0.125000 I-19.165659 J-0.937902
G03 X100.010650 Y131.012770 Z-0.125000 I-13.985916 J-1.969780
G01 X100.010640 Y131.012770 Z-0.125000
G00 Z5.000000

(End cutting path id: path6471)


(Start cutting path id: path6471)
(DuduZanette)
(Change tool to Default tool)

G00 Z5.000000
G00 X106.062250 Y135.419610

G01 Z-0.125000 F100.0(Penetrate)
G01 X105.899344 Y135.572127 Z-0.125000 F400.000000
G03 X103.959020 Y134.871860 Z-0.125000 I2.842347 J-10.913962
G03 X100.726766 Y133.019887 Z-0.125000 I9.599475 J-20.500608
G01 X100.618870 Y132.573580 Z-0.125000
G03 X100.855497 Y132.150229 Z-0.125000 I13.423535 J7.225116
G01 X100.910940 Y132.070070 Z-0.125000
G01 X100.988980 Y132.042460 Z-0.125000
G03 X103.217980 Y132.550310 Z-0.125000 I-12.400653 J59.573191
G02 X105.465347 Y133.096628 Z-0.125000 I64.201475 J-259.207288
G02 X106.049910 Y133.225770 Z-0.125000 I4.156329 J-17.426150
G01 X106.344014 Y133.500170 Z-0.125000
G01 X106.303570 Y134.142340 Z-0.125000
G02 X106.061747 Y134.949014 Z-0.125000 I3.723778 J1.555891
G02 X106.062250 Y135.419610 Z-0.125000 I1.238422 J0.233974
G01 X106.062250 Y135.419610 Z-0.125000
G00 Z5.000000

(End cutting path id: path6471)


(Start cutting path id: path6471)
(DuduZanette)
(Change tool to Default tool)

G00 Z5.000000
G00 X117.158760 Y141.408540

G01 Z-0.125000 F100.0(Penetrate)
G03 X116.588501 Y140.880114 Z-0.125000 I0.856283 J-1.495985 F400.000000
G01 X116.664040 Y140.679130 Z-0.125000
G01 X117.115377 Y140.804831 Z-0.125000
G03 X117.525750 Y141.564460 Z-0.125000 I-1.132776 J1.102619
G01 X117.506164 Y141.580946 Z-0.125000
G03 X117.158760 Y141.408540 Z-0.125000 I1.276514 J-3.008439
G01 X117.158760 Y141.408540 Z-0.125000
G00 Z5.000000

(End cutting path id: path6471)


(Start cutting path id: path6471)
(DuduZanette)
(Change tool to Default tool)

G00 Z5.000000
G00 X126.557450 Y151.281270

G01 Z-0.125000 F100.0(Penetrate)
G01 X126.478054 Y151.268914 Z-0.125000 F400.000000
G01 X126.456340 Y151.348470 Z-0.125000
G02 X126.718594 Y151.798126 Z-0.125000 I3.053900 J-1.479827
G01 X126.794720 Y151.838050 Z-0.125000
G01 X126.845028 Y151.761928 Z-0.125000
G02 X126.557470 Y151.281270 Z-0.125000 I-1.895771 J0.807818
G01 X126.557450 Y151.281270 Z-0.125000
G00 Z5.000000

(End cutting path id: path6471)


(Start cutting path id: path6471)
(DuduZanette)
(Change tool to Default tool)

G00 Z5.000000
G00 X128.397110 Y153.139850

G01 Z-0.125000 F100.0(Penetrate)
G03 X127.700241 Y152.827505 Z-0.125000 I0.671583 J-2.431924 F400.000000
G03 X126.973870 Y152.220970 Z-0.125000 I2.101275 J-3.254640
G03 X125.148124 Y149.817620 Z-0.125000 I10.718542 J-10.037677
G01 X125.207890 Y149.319210 Z-0.125000
G01 X125.379192 Y149.308684 Z-0.125000
G03 X127.088077 Y150.723185 Z-0.125000 I-23.697348 J30.368724
G03 X128.713686 Y152.225896 Z-0.125000 I-28.179200 J32.114435
G03 X128.997260 Y152.644240 Z-0.125000 I-0.874173 J0.897840
G03 X129.215505 Y153.246076 Z-0.125000 I-6.607192 J2.736470
G01 X129.202630 Y153.300910 Z-0.125000
G01 X129.147554 Y153.318170 Z-0.125000
G03 X128.397110 Y153.139850 Z-0.125000 I2.092634 J-10.474918
G01 X128.397110 Y153.139850 Z-0.125000
G00 Z5.000000

(End cutting path id: path6471)


(Start cutting path id: path6471)
(DuduZanette)
(Change tool to Default tool)

G00 Z5.000000
G00 X129.330960 Y156.842690

G01 Z-0.125000 F100.0(Penetrate)
G01 X128.587829 Y156.503699 Z-0.125000 F400.000000
G03 X127.648020 Y154.903860 Z-0.125000 I3.834947 J-3.328762
G03 X127.367400 Y153.763082 Z-0.125000 I5.210036 J-1.886519
G01 X127.480880 Y153.673230 Z-0.125000
G02 X127.810871 Y153.772576 Z-0.125000 I0.837328 J-2.183561
G02 X128.644020 Y153.931610 Z-0.125000 I3.060557 J-13.771842
G03 X129.281890 Y154.257385 Z-0.125000 I-0.183313 J1.146291
G01 X129.567580 Y154.855910 Z-0.125000
G03 X129.556101 Y156.642772 Z-0.125000 I-7.941007 J0.842454
G01 X129.330960 Y156.842690 Z-0.125000
G01 X129.330960 Y156.842690 Z-0.125000
G00 Z5.000000

(End cutting path id: path6471)


(Start cutting path id: path6471)
(DuduZanette)
(Change tool to Default tool)

G00 Z5.000000
G00 X129.137440 Y159.236220

G01 Z-0.125000 F100.0(Penetrate)
G01 X129.034640 Y159.245291 Z-0.125000 F400.000000
G03 X128.764400 Y158.583440 Z-0.125000 I2.366082 J-1.352190
G03 X128.764214 Y157.732582 Z-0.125000 I1.626024 J-0.425784
G01 X129.024280 Y157.589190 Z-0.125000
G01 X129.314048 Y157.957952 Z-0.125000
G03 X129.137440 Y159.236220 Z-0.125000 I-3.148600 J0.216318
G01 X129.137440 Y159.236220 Z-0.125000
G00 Z5.000000

(End cutting path id: path6471)


(Start cutting path id: path6471)
(DuduZanette)
(Change tool to Default tool)

G00 Z5.000000
G00 X135.722040 Y162.792910

G01 Z-0.125000 F100.0(Penetrate)
G03 X134.114255 Y166.902660 Z-0.125000 I-17.226302 J-4.369774 F400.000000
G03 X131.794540 Y170.027017 Z-0.125000 I-12.144156 J-6.593242
G03 X128.939944 Y172.368031 Z-0.125000 I-12.642381 J-12.504988
G03 X126.873510 Y173.271377 Z-0.125000 I-3.652557 J-5.540156
G01 X126.307460 Y173.410707 Z-0.125000
G01 X127.122790 Y171.699726 Z-0.125000
G02 X127.880794 Y169.966358 Z-0.125000 I-26.332586 J-12.547695
G02 X128.390530 Y168.523960 Z-0.125000 I-17.714661 J-7.071537
G02 X129.138559 Y165.200375 Z-0.125000 I-20.834988 J-6.435235
G02 X129.274680 Y162.391340 Z-0.125000 I-14.708753 J-2.120579
G03 X129.355833 Y161.545293 Z-0.125000 I3.002295 J-0.138935
G03 X129.748810 Y160.432990 Z-0.125000 I5.623933 J1.361367
G02 X130.084597 Y159.304816 Z-0.125000 I-3.504352 J-1.657086
G02 X130.265770 Y156.679640 Z-0.125000 I-19.191774 J-2.643332
G03 X130.301034 Y154.046971 Z-0.125000 I103.564871 J0.070647
G01 X130.334670 Y154.014130 Z-0.125000
G01 X130.415394 Y154.066013 Z-0.125000
G03 X131.649160 Y156.909350 Z-0.125000 I-84.053586 J38.161418
G01 X131.932385 Y156.910230 Z-0.125000
G02 X131.977250 Y156.130790 Z-0.125000 I-1.074677 J-0.452870
G02 X130.222057 Y152.900813 Z-0.125000 I-8.310970 J2.424361
G02 X125.392210 Y148.495910 Z-0.125000 I-20.730291 J17.879811
G03 X120.838112 Y144.751328 Z-0.125000 I25.044015 J-35.099713
G03 X118.992550 Y142.454850 Z-0.125000 I7.390420 J-7.829134
G03 X118.404631 Y141.006067 Z-0.125000 I4.366097 J-2.615450
G03 X118.245760 Y139.283720 Z-0.125000 I6.062488 J-1.427712
G02 X118.224185 Y137.680702 Z-0.125000 I-13.176522 J-0.624309
G01 X118.122320 Y137.628710 Z-0.125000
G01 X118.021275 Y137.575518 Z-0.125000
G03 X118.019020 Y135.495540 Z-0.125000 I21.961920 J-1.063800
G03 X118.266239 Y133.266982 Z-0.125000 I17.421426 J0.804605
G03 X118.620400 Y132.089930 Z-0.125000 I5.164333 J0.912081
G03 X120.620545 Y129.587805 Z-0.125000 I5.616536 J2.439240
G03 X121.982540 Y129.629310 Z-0.125000 I0.654383 J0.894135
G03 X122.642576 Y130.616498 Z-0.125000 I-1.331771 J1.604670
G03 X122.975260 Y132.831580 Z-0.125000 I-7.086207 J2.196803
G01 X122.972260 Y134.321840 Z-0.125000
G01 X122.520210 Y133.616000 Z-0.125000
G03 X122.156907 Y132.877599 Z-0.125000 I3.090004 J-1.978898
G03 X121.949880 Y132.028270 Z-0.125000 I3.896335 J-1.399642
G02 X121.708073 Y131.319965 Z-0.125000 I-1.909059 J0.256302
G01 X121.480820 Y131.217690 Z-0.125000
G01 X121.269872 Y131.401187 Z-0.125000
G02 X121.145800 Y132.166050 Z-0.125000 I2.054445 J0.725755
G02 X121.715051 Y133.699994 Z-0.125000 I2.471077 J-0.044426
G02 X127.566920 Y139.903010 Z-0.125000 I51.660528 J-42.874270
G03 X131.675982 Y144.272099 Z-0.125000 I-31.458139 J33.702704
G03 X133.821070 Y147.486210 Z-0.125000 I-14.763287 J12.175841
G03 X135.568204 Y152.137520 Z-0.125000 I-17.188158 J9.110034
G03 X136.235450 Y157.739570 Z-0.125000 I-24.412695 J5.748497
G03 X136.095070 Y160.684358 Z-0.125000 I-27.574909 J0.161227
G03 X135.722740 Y162.792910 Z-0.125000 I-14.472353 J-1.468393
G01 X135.722040 Y162.792910 Z-0.125000
G00 Z5.000000

(End cutting path id: path6471)


(Start cutting path id: path6471)
(DuduZanette)
(Change tool to Default tool)

G00 Z5.000000
G00 X142.127520 Y166.090418

G01 Z-0.125000 F100.0(Penetrate)
G01 X142.006241 Y166.053255 Z-0.125000 F400.000000
G03 X141.913260 Y165.613684 Z-0.125000 I0.965325 J-0.433810
G01 X142.010636 Y165.324620 Z-0.125000
G01 X142.127520 Y165.328844 Z-0.125000
G01 X142.274444 Y165.826892 Z-0.125000
G01 X142.127520 Y166.090418 Z-0.125000
G01 X142.127520 Y166.090418 Z-0.125000
G00 Z5.000000

(End cutting path id: path6471)


(Start cutting path id: path6471)
(DuduZanette)
(Change tool to Default tool)

G00 Z5.000000
G00 X143.124480 Y170.672334

G01 Z-0.125000 F100.0(Penetrate)
G03 X142.808203 Y170.993081 Z-0.125000 I-1.241115 J-0.907510 F400.000000
G01 X142.708030 Y170.985913 Z-0.125000
G01 X142.689662 Y170.872963 Z-0.125000
G03 X143.016630 Y170.363766 Z-0.125000 I2.457458 J1.218421
G01 X143.166482 Y170.389869 Z-0.125000
G01 X143.124510 Y170.672334 Z-0.125000
G01 X143.124480 Y170.672334 Z-0.125000
G00 Z5.000000

(End cutting path id: path6471)


(Start cutting path id: path6471)
(DuduZanette)
(Change tool to Default tool)

G00 Z5.000000
G00 X134.575480 Y173.110318

G01 Z-0.125000 F100.0(Penetrate)
G02 X134.529936 Y173.600860 Z-0.125000 I2.482715 J0.477892 F400.000000
G02 X134.579480 Y173.980692 Z-0.125000 I1.539842 J-0.007705
G01 X134.628662 Y173.979065 Z-0.125000
G02 X134.674180 Y173.488572 Z-0.125000 I-2.483336 J-0.477814
G02 X134.624370 Y173.108676 Z-0.125000 I-1.522138 J0.006359
G01 X134.575180 Y173.110318 Z-0.125000
G01 X134.575480 Y173.110318 Z-0.125000
G00 Z5.000000

(End cutting path id: path6471)


(Start cutting path id: path6471)
(DuduZanette)
(Change tool to Default tool)

G00 Z5.000000
G00 X128.636590 Y176.920514

G01 Z-0.125000 F100.0(Penetrate)
G02 X128.146997 Y176.967263 Z-0.125000 I-0.000000 J2.587094 F400.000000
G01 X128.147000 Y177.014854 Z-0.125000
G02 X128.636594 Y177.061578 Z-0.125000 I0.489594 J-2.541698
G02 X129.126170 Y177.014854 Z-0.125000 I0.000000 J-2.588235
G01 X129.126172 Y176.967256 Z-0.125000
G02 X128.636590 Y176.920514 Z-0.125000 I-0.489582 J2.540604
G01 X128.636590 Y176.920514 Z-0.125000
G00 Z5.000000

(End cutting path id: path6471)


(Start cutting path id: path6471)
(DuduZanette)
(Change tool to Default tool)

G00 Z5.000000
G00 X125.155290 Y180.886714

G01 Z-0.125000 F100.0(Penetrate)
G02 X124.754914 Y181.295989 Z-0.125000 I3.160913 J3.492653 F400.000000
G01 X124.720110 Y181.389360 Z-0.125000
G01 X124.759049 Y181.410401 Z-0.125000
G02 X125.155290 Y181.104313 Z-0.125000 I-1.765557 J-2.695089
G02 X125.555681 Y180.695034 Z-0.125000 I-3.160460 J-3.492314
G01 X125.590480 Y180.601678 Z-0.125000
G01 X125.551540 Y180.580635 Z-0.125000
G02 X125.155290 Y180.886714 Z-0.125000 I1.765492 J2.695138
G01 X125.155290 Y180.886714 Z-0.125000
G00 Z5.000000

(End cutting path id: path6471)


(Start cutting path id: path6471)
(DuduZanette)
(Change tool to Default tool)

G00 Z5.000000
G00 X123.387550 Y182.895823

G01 Z-0.125000 F100.0(Penetrate)
G01 X123.212960 Y183.164369 Z-0.125000 F400.000000
G01 X123.238980 Y183.286001 Z-0.125000
G01 X123.334791 Y183.286183 Z-0.125000
G01 X123.509360 Y183.017627 Z-0.125000
G01 X123.483335 Y182.896004 Z-0.125000
G01 X123.387550 Y182.895823 Z-0.125000
G01 X123.387550 Y182.895823 Z-0.125000
G00 Z5.000000

(End cutting path id: path6471)


(Start cutting path id: path6471)
(DuduZanette)
(Change tool to Default tool)

G00 Z5.000000
G00 X125.947570 Y183.715433

G01 Z-0.125000 F100.0(Penetrate)
G03 X125.582352 Y184.439964 Z-0.125000 I-2.240504 J-0.675068 F400.000000
G01 X125.311510 Y184.567659 Z-0.125000
G02 X124.937663 Y184.550544 Z-0.125000 I-4.737863 J99.398432
G02 X124.067330 Y184.513279 Z-0.125000 I-17.722698 J403.736316
G03 X123.365582 Y184.306702 Z-0.125000 I0.062919 J-1.508955
G01 X123.171720 Y183.987430 Z-0.125000
G01 X123.109468 Y183.859413 Z-0.125000
G01 X123.046970 Y183.878674 Z-0.125000
G01 X122.597792 Y184.230910 Z-0.125000
G03 X120.033190 Y183.923444 Z-0.125000 I-0.143517 J-9.652423
G03 X118.285873 Y183.040521 Z-0.125000 I1.153494 J-4.453223
G01 X118.073850 Y182.331515 Z-0.125000
G03 X118.965793 Y180.858446 Z-0.125000 I3.493742 J1.108890
G03 X120.839650 Y179.544453 Z-0.125000 I4.595601 J4.560556
G02 X121.862107 Y178.927385 Z-0.125000 I-2.304451 J-4.974002
G02 X123.215290 Y177.730460 Z-0.125000 I-7.614346 J-9.971779
G03 X124.453499 Y176.819917 Z-0.125000 I3.401413 J3.328269
G01 X124.812450 Y176.915370 Z-0.125000
G03 X125.886702 Y179.045250 Z-0.125000 I-8.935083 J5.842457
G03 X125.969090 Y180.033701 Z-0.125000 I-1.730624 J0.641908
G01 X125.974281 Y180.397062 Z-0.125000
G01 X126.057090 Y180.432079 Z-0.125000
G01 X126.450058 Y180.659835 Z-0.125000
G03 X125.947560 Y183.715399 Z-0.125000 I-11.968957 J-0.399236
G01 X125.947570 Y183.715433 Z-0.125000
G00 Z5.000000

(End cutting path id: path6471)


(Start cutting path id: path6471)
(DuduZanette)
(Change tool to Default tool)

G00 Z5.000000
G00 X124.512850 Y186.673633

G01 Z-0.125000 F100.0(Penetrate)
G01 X123.870420 Y187.630203 Z-0.125000 F400.000000
G01 X122.464570 Y187.557913 Z-0.125000
G02 X121.128338 Y187.666598 Z-0.125000 I-0.260482 J5.066024
G02 X120.576630 Y187.967713 Z-0.125000 I0.236300 J1.088936
G02 X120.283427 Y188.516765 Z-0.125000 I0.757092 J0.757114
G02 X120.228050 Y189.727306 Z-0.125000 I3.981143 J0.788657
G03 X119.912731 Y190.619005 Z-0.125000 I-1.094853 J0.114442
G01 X119.089900 Y190.868794 Z-0.125000
G01 X118.597984 Y190.577393 Z-0.125000
G01 X118.404590 Y190.052831 Z-0.125000
G02 X118.133593 Y188.155148 Z-0.125000 I-7.178783 J0.056970
G02 X117.434360 Y186.624820 Z-0.125000 I-5.317008 J1.504521
G01 X116.915370 Y185.835118 Z-0.125000
G01 X117.349940 Y184.956784 Z-0.125000
G01 X117.784510 Y184.078429 Z-0.125000
G01 X119.021980 Y184.652475 Z-0.125000
G02 X120.300256 Y185.055614 Z-0.125000 I2.195056 J-4.731942
G02 X122.707380 Y185.310437 Z-0.125000 I2.989962 J-16.747411
G03 X125.077392 Y185.469635 Z-0.125000 I-1.242632 J36.220341
G01 X125.155290 Y185.555727 Z-0.125000
G01 X125.115455 Y185.704987 Z-0.125000
G03 X124.512850 Y186.673651 Z-0.125000 I-14.171875 J-8.144539
G01 X124.512850 Y186.673633 Z-0.125000
G00 Z5.000000

(End cutting path id: path6471)


(Start cutting path id: path6471)
(DuduZanette)
(Change tool to Default tool)

G00 Z5.000000
G00 X126.732650 Y187.930722

G01 Z-0.125000 F100.0(Penetrate)
G01 X126.655206 Y187.935390 Z-0.125000 F400.000000
G01 X126.650550 Y188.012832 Z-0.125000
G02 X126.962974 Y188.365302 Z-0.125000 I3.080549 J-2.415849
G01 X127.031340 Y188.393619 Z-0.125000
G01 X127.077534 Y188.308845 Z-0.125000
G02 X126.732700 Y187.930676 Z-0.125000 I-1.298386 J0.837634
G01 X126.732650 Y187.930722 Z-0.125000
G00 Z5.000000

(End cutting path id: path6471)


(Start cutting path id: path6471)
(DuduZanette)
(Change tool to Default tool)

G00 Z5.000000
G00 X129.289370 Y188.879332

G01 Z-0.125000 F100.0(Penetrate)
G02 X128.908578 Y188.928249 Z-0.125000 I0.000000 J1.506569 F400.000000
G01 X128.908580 Y188.978802 Z-0.125000
G02 X129.289365 Y189.027709 Z-0.125000 I0.380785 J-1.457912
G02 X129.670150 Y188.978802 Z-0.125000 I0.000000 J-1.506820
G01 X129.670134 Y188.928212 Z-0.125000
G02 X129.289370 Y188.879332 Z-0.125000 I-0.380764 J1.458583
G01 X129.289370 Y188.879332 Z-0.125000
G00 Z5.000000

(End cutting path id: path6471)


(Start cutting path id: path6471)
(DuduZanette)
(Change tool to Default tool)

G00 Z5.000000
G00 X126.659310 Y194.174317

G01 Z-0.125000 F100.0(Penetrate)
G03 X125.000604 Y198.176072 Z-0.125000 I-10.143533 J-1.859800 F400.000000
G03 X121.565030 Y201.548491 Z-0.125000 I-10.479335 J-7.239416
G03 X115.975856 Y203.229639 Z-0.125000 I-5.572740 J-8.395722
G03 X110.539850 Y201.530471 Z-0.125000 I0.015648 J-9.595123
G03 X109.824653 Y200.893505 Z-0.125000 I2.211608 J-3.203235
G03 X108.056080 Y198.697734 Z-0.125000 I25.362306 J-22.238074
G02 X106.291074 Y196.488178 Z-0.125000 I-30.129561 J22.257945
G02 X105.082330 Y195.250352 Z-0.125000 I-10.615612 J9.157115
G02 X100.580336 Y192.538057 Z-0.125000 I-9.178875 J10.143069
G02 X96.063787 Y191.969335 Z-0.125000 I-3.508391 J9.643531
G01 X94.715357 Y192.102452 Z-0.125000
G01 X94.635207 Y190.955210 Z-0.125000
G01 X94.555057 Y189.807979 Z-0.125000
G01 X94.514877 Y191.059128 Z-0.125000
G03 X94.352610 Y192.232380 Z-0.125000 I-5.634903 J-0.181487
G01 X94.256235 Y192.285147 Z-0.125000
G01 X94.158135 Y192.172201 Z-0.125000
G03 X94.039442 Y190.898277 Z-0.125000 I6.777148 J-1.273924
G02 X93.925889 Y189.507102 Z-0.125000 I-8.578638 J-0.000000
G02 X93.630538 Y188.410129 Z-0.125000 I-5.607745 J0.921592
G01 X93.221645 Y187.334015 Z-0.125000
G01 X94.990487 Y187.427705 Z-0.125000
G03 X100.302883 Y188.247649 Z-0.125000 I-1.421749 J26.830878
G03 X104.747030 Y189.953634 Z-0.125000 I-5.281517 J20.400095
G03 X106.336453 Y190.980221 Z-0.125000 I-4.663953 J8.964721
G03 X108.607530 Y192.994787 Z-0.125000 I-16.098607 J20.435824
G02 X111.873156 Y195.440851 Z-0.125000 I10.241910 J-10.270575
G02 X114.414520 Y196.180467 Z-0.125000 I2.935712 J-5.351328
G02 X115.935651 Y196.106657 Z-0.125000 I0.435795 J-6.730005
G02 X117.168250 Y195.731446 Z-0.125000 I-0.776822 J-4.764128
G02 X120.103102 Y193.258690 Z-0.125000 I-2.985787 J-6.521786
G02 X121.129770 Y189.938740 Z-0.125000 I-4.854552 J-3.319950
G03 X121.688913 Y188.775069 Z-0.125000 I1.490470 J-0.000000
G03 X123.026820 Y188.420473 Z-0.125000 I1.070424 J1.337468
G03 X125.398606 Y189.598939 Z-0.125000 I-0.689941 J4.364546
G03 X126.663430 Y191.915146 Z-0.125000 I-3.040095 J3.163569
G02 X126.857300 Y192.847932 Z-0.125000 I44.182019 J-8.696251
G01 X126.872120 Y192.868659 Z-0.125000
G01 X126.881730 Y192.890587 Z-0.125000
G03 X126.659240 Y194.174219 Z-0.125000 I-66.387805 J-10.845817
G01 X126.659310 Y194.174317 Z-0.125000
G00 Z5.000000

(End cutting path id: path6471)


(Start cutting path id: path6471)
(DuduZanette)
(Change tool to Default tool)

G00 Z5.000000
G00 X119.037780 Y193.266163

G01 Z-0.125000 F100.0(Penetrate)
G03 X117.476694 Y194.691226 Z-0.125000 I-7.283398 J-6.411023 F400.000000
G03 X116.771030 Y194.921456 Z-0.125000 I-0.705664 J-0.966330
G01 X116.733618 Y194.865340 Z-0.125000
G03 X117.065620 Y194.214271 Z-0.125000 I4.396193 J1.831586
G02 X117.443789 Y193.483239 Z-0.125000 I-4.955462 J-3.026834
G02 X117.776330 Y192.563171 Z-0.125000 I-7.537211 J-3.244308
G03 X118.211386 Y191.878132 Z-0.125000 I1.414729 J0.417801
G01 X118.694890 Y191.747197 Z-0.125000
G02 X119.336693 Y191.855010 Z-0.125000 I2.053579 J-10.260607
G02 X119.633870 Y191.875149 Z-0.125000 I0.297177 J-2.182537
G01 X119.778145 Y192.093940 Z-0.125000
G03 X119.037780 Y193.266163 Z-0.125000 I-4.037796 J-1.730319
G01 X119.037780 Y193.266163 Z-0.125000
G00 Z5.000000

(End cutting path id: path6471)


(Start cutting path id: path6471)
(DuduZanette)
(Change tool to Default tool)

G00 Z5.000000
G00 X116.756350 Y192.107652

G01 Z-0.125000 F100.0(Penetrate)
G03 X116.347963 Y193.264404 Z-0.125000 I-11.101927 J-3.269025 F400.000000
G03 X115.831590 Y194.342037 Z-0.125000 I-10.146020 J-4.199172
G01 X115.254830 Y195.394565 Z-0.125000
G01 X114.256860 Y195.281278 Z-0.125000
G03 X113.284036 Y195.081361 Z-0.125000 I0.626559 J-5.515830
G03 X112.247800 Y194.676745 Z-0.125000 I2.005040 J-6.664206
G03 X111.661032 Y194.152094 Z-0.125000 I0.628199 J-1.293020
G01 X111.722610 Y193.846303 Z-0.125000
G02 X112.159884 Y193.473807 Z-0.125000 I-1.712405 J-2.453099
G01 X112.261540 Y193.289498 Z-0.125000
G03 X112.323651 Y193.074586 Z-0.125000 I2.586703 J0.631140
G03 X112.769040 Y191.775434 Z-0.125000 I94.199324 J31.568501
G02 X113.095499 Y190.066844 Z-0.125000 I-5.552553 J-1.946406
G02 X112.902660 Y188.471924 Z-0.125000 I-5.014363 J-0.202839
G01 X112.943982 Y188.371469 Z-0.125000
G03 X113.646900 Y188.056687 Z-0.125000 I2.140702 J3.838043
G02 X114.409280 Y187.736476 Z-0.125000 I-2.103517 J-6.075860
G02 X115.326420 Y187.220392 Z-0.125000 I-4.640691 J-9.320013
G01 X116.220370 Y186.656064 Z-0.125000
G01 X116.474740 Y187.131379 Z-0.125000
G03 X117.081525 Y189.290507 Z-0.125000 I-4.583142 J2.452838
G03 X116.756350 Y192.107652 Z-0.125000 I-8.297549 J0.469578
G01 X116.756350 Y192.107652 Z-0.125000
G00 Z5.000000

(End cutting path id: path6471)


(Start cutting path id: path6471)
(DuduZanette)
(Change tool to Default tool)

G00 Z5.000000
G00 X116.735950 Y189.757764

G01 Z-0.125000 F100.0(Penetrate)
G02 X116.689588 Y190.139026 Z-0.125000 I1.395174 J0.363103 F400.000000
G01 X116.744950 Y190.410539 Z-0.125000
G01 X116.798767 Y190.407050 Z-0.125000
G02 X116.845300 Y190.025613 Z-0.125000 I-1.396137 J-0.363878
G01 X116.790795 Y189.754251 Z-0.125000
G01 X116.736870 Y189.757764 Z-0.125000
G01 X116.735950 Y189.757764 Z-0.125000
G00 Z5.000000

(End cutting path id: path6471)


(Start cutting path id: path6471)
(DuduZanette)
(Change tool to Default tool)

G00 Z5.000000
G00 X118.914050 Y189.876020

G01 Z-0.125000 F100.0(Penetrate)
G01 X118.867515 Y190.147705 Z-0.125000 F400.000000
G01 X118.931250 Y190.293070 Z-0.125000
G01 X118.998968 Y190.279171 Z-0.125000
G01 X119.045530 Y190.007487 Z-0.125000
G01 X118.981710 Y189.862168 Z-0.125000
G01 X118.914070 Y189.876020 Z-0.125000
G01 X118.914050 Y189.876020 Z-0.125000
G00 Z5.000000

(End cutting path id: path6471)


(Start cutting path id: path6471)
(DuduZanette)
(Change tool to Default tool)

G00 Z5.000000
G00 X118.914050 Y187.917685

G01 Z-0.125000 F100.0(Penetrate)
G01 X118.867515 Y188.189370 Z-0.125000 F400.000000
G01 X118.931250 Y188.334735 Z-0.125000
G01 X118.998967 Y188.320838 Z-0.125000
G01 X119.045530 Y188.049153 Z-0.125000
G01 X118.981710 Y187.903833 Z-0.125000
G01 X118.914070 Y187.917685 Z-0.125000
G01 X118.914050 Y187.917685 Z-0.125000
G00 Z5.000000

(End cutting path id: path6471)


(Start cutting path id: path6471)
(DuduZanette)
(Change tool to Default tool)

G00 Z5.000000
G00 X120.068500 Y186.000144

G01 Z-0.125000 F100.0(Penetrate)
G01 X120.000235 Y186.028413 Z-0.125000 F400.000000
G02 X119.687710 Y186.380931 Z-0.125000 I2.766546 J2.767481
G01 X119.692374 Y186.458381 Z-0.125000
G01 X119.769810 Y186.463041 Z-0.125000
G02 X120.114626 Y186.084870 Z-0.125000 I-0.953363 J-1.215562
G01 X120.068430 Y186.000098 Z-0.125000
G01 X120.068500 Y186.000144 Z-0.125000
G00 Z5.000000

(End cutting path id: path6471)


(Start cutting path id: path6471)
(DuduZanette)
(Change tool to Default tool)

G00 Z5.000000
G00 X111.994840 Y191.358854

G01 Z-0.125000 F100.0(Penetrate)
G03 X111.570346 Y192.381751 Z-0.125000 I-5.079660 J-1.508487 F400.000000
G03 X111.124480 Y192.959420 Z-0.125000 I-2.020993 J-1.098975
G01 X110.576560 Y193.474164 Z-0.125000
G01 X109.978180 Y192.951307 Z-0.125000
G03 X107.998232 Y190.954017 Z-0.125000 I12.929689 J-14.797445
G01 X107.995630 Y190.642027 Z-0.125000
G01 X108.248939 Y190.458124 Z-0.125000
G01 X108.420800 Y190.473270 Z-0.125000
G01 X109.369541 Y190.539912 Z-0.125000
G02 X111.015550 Y189.335266 Z-0.125000 I-1.890011 J-4.309345
G03 X111.818007 Y188.869573 Z-0.125000 I1.093577 J0.960171
G01 X112.163740 Y189.100840 Z-0.125000
G03 X112.222647 Y190.118705 Z-0.125000 I-3.789873 J0.729969
G03 X111.994840 Y191.358854 Z-0.125000 I-5.886569 J-0.440326
G01 X111.994840 Y191.358854 Z-0.125000
G00 Z5.000000

(End cutting path id: path6471)


(Start cutting path id: path6471)
(DuduZanette)
(Change tool to Default tool)

G00 Z5.000000
G00 X113.840450 Y194.319150

G01 Z-0.125000 F100.0(Penetrate)
G02 X113.459669 Y194.368067 Z-0.125000 I0.000000 J1.506502 F400.000000
G01 X113.459670 Y194.418620 Z-0.125000
G02 X113.840455 Y194.467623 Z-0.125000 I0.380785 J-1.454986
G02 X114.221240 Y194.418620 Z-0.125000 I-0.000000 J-1.503989
G01 X114.221225 Y194.368034 Z-0.125000
G02 X113.840450 Y194.319150 Z-0.125000 I-0.380775 J1.458539
G01 X113.840450 Y194.319150 Z-0.125000
G00 Z5.000000

(End cutting path id: path6471)


(Start cutting path id: path6471)
(DuduZanette)
(Change tool to Default tool)

G00 Z5.000000
G00 X109.252950 Y204.080949

G01 Z-0.125000 F100.0(Penetrate)
G03 X106.379811 Y206.850361 Z-0.125000 I-5.354542 J-2.680011 F400.000000
G03 X100.225980 Y208.191392 Z-0.125000 I-6.181154 J-13.574469
G03 X97.483572 Y207.825722 Z-0.125000 I-0.021428 J-10.305736
G03 X94.474674 Y206.617721 Z-0.125000 I3.743651 J-13.676003
G03 X92.858877 Y205.233903 Z-0.125000 I2.409045 J-4.448132
G03 X92.657056 Y204.230357 Z-0.125000 I0.931859 J-0.709470
G02 X92.868893 Y203.084585 Z-0.125000 I-7.950661 J-2.062435
G02 X92.951526 Y201.608340 Z-0.125000 I-13.145339 J-1.476245
G01 X92.951526 Y200.121531 Z-0.125000
G01 X93.667884 Y200.667919 Z-0.125000
G02 X98.055721 Y202.377145 Z-0.125000 I5.164257 J-6.770685
G02 X101.709650 Y201.404215 Z-0.125000 I0.500620 J-5.467675
G01 X101.912341 Y201.565533 Z-0.125000
G03 X101.242080 Y202.556666 Z-0.125000 I-2.669500 J-1.083067
G03 X100.087842 Y203.419971 Z-0.125000 I-4.017495 J-4.168125
G03 X98.957354 Y203.856843 Z-0.125000 I-2.024341 J-3.557254
G02 X98.156410 Y204.268608 Z-0.125000 I0.390306 J1.744063
G01 X98.243061 Y204.495520 Z-0.125000
G02 X101.077649 Y203.599710 Z-0.125000 I-0.000000 J-4.932612
G02 X103.303060 Y200.942440 Z-0.125000 I-3.853289 J-5.487557
G02 X103.915583 Y198.527709 Z-0.125000 I-6.063280 J-2.823069
G02 X103.617310 Y195.804802 Z-0.125000 I-8.070995 J-0.493678
G03 X103.461335 Y195.074037 Z-0.125000 I5.208316 J-1.493696
G01 X103.497830 Y194.964663 Z-0.125000
G01 X104.086861 Y194.974571 Z-0.125000
G03 X107.394280 Y199.132105 Z-0.125000 I-24.340742 J22.757982
G02 X108.640131 Y200.860651 Z-0.125000 I27.360772 J-18.407053
G02 X109.250590 Y201.539647 Z-0.125000 I4.795372 J-3.697414
G03 X109.638371 Y202.446009 Z-0.125000 I-0.867701 J0.907376
G03 X109.252590 Y204.080949 Z-0.125000 I-3.644848 J0.002945
G01 X109.252950 Y204.080949 Z-0.125000
G00 Z5.000000

(End cutting path id: path6471)


(Start cutting path id: path6471)
(DuduZanette)
(Change tool to Default tool)

G00 Z5.000000
G00 X102.634650 Y199.272865

G01 Z-0.125000 F100.0(Penetrate)
G03 X101.761173 Y200.355699 Z-0.125000 I-3.086751 J-1.596238 F400.000000
G03 X100.283030 Y201.215618 Z-0.125000 I-3.344057 J-4.047834
G01 X99.674310 Y201.447040 Z-0.125000
G01 X100.467800 Y199.979384 Z-0.125000
G03 X101.356583 Y198.588403 Z-0.125000 I9.961925 J5.385841
G03 X102.111040 Y197.779319 Z-0.125000 I4.075485 J3.044022
G01 X102.960800 Y197.046899 Z-0.125000
G01 X102.960800 Y197.844518 Z-0.125000
G03 X102.873295 Y198.620845 Z-0.125000 I-3.487482 J-0.000000
G03 X102.634650 Y199.272865 Z-0.125000 I-2.685159 J-0.613111
G01 X102.634650 Y199.272865 Z-0.125000
G00 Z5.000000

(End cutting path id: path6471)


(Start cutting path id: path6471)
(DuduZanette)
(Change tool to Default tool)

G00 Z5.000000
G00 X98.913656 Y200.796450

G01 Z-0.125000 F100.0(Penetrate)
G01 X98.515040 Y201.314153 Z-0.125000 F400.000000
G03 X97.702689 Y201.525495 Z-0.125000 I-0.763680 J-1.268495
G03 X96.738441 Y201.397630 Z-0.125000 I0.160708 J-4.911610
G03 X96.004483 Y201.126287 Z-0.125000 I0.729136 J-3.100567
G01 X95.549112 Y200.617473 Z-0.125000
G03 X95.385526 Y199.513787 Z-0.125000 I2.393451 J-0.918719
G03 X95.879283 Y197.622900 Z-0.125000 I5.349977 J0.387101
G03 X97.349626 Y195.326822 Z-0.125000 I9.451057 J4.433366
G03 X99.414510 Y193.428615 Z-0.125000 I8.472236 J7.143962
G01 X100.249240 Y193.272158 Z-0.125000
G03 X101.500864 Y193.942816 Z-0.125000 I-0.709754 J2.827847
G03 X102.591860 Y195.402132 Z-0.125000 I-3.229398 J3.551799
G01 X102.932280 Y196.105026 Z-0.125000
G01 X101.033870 Y198.069956 Z-0.125000
G02 X99.264406 Y200.109690 Z-0.125000 I18.120465 J17.506828
G02 X98.913656 Y200.796450 Z-0.125000 I1.622125 J1.261420
G01 X98.913656 Y200.796450 Z-0.125000
G00 Z5.000000

(End cutting path id: path6471)


(Start cutting path id: path6471)
(DuduZanette)
(Change tool to Default tool)

G00 Z5.000000
G00 X95.188882 Y197.241218

G01 Z-0.125000 F100.0(Penetrate)
G02 X94.677637 Y198.533637 Z-0.125000 I11.521898 J5.305072 F400.000000
G02 X94.475003 Y199.382068 Z-0.125000 I4.738429 J1.580109
G01 X94.346101 Y200.252442 Z-0.125000
G01 X92.886132 Y198.761844 Z-0.125000
G01 X91.426162 Y197.271246 Z-0.125000
G01 X92.290672 Y196.185458 Z-0.125000
G02 X93.085296 Y195.060608 Z-0.125000 I-9.389406 J-7.476023
G02 X93.413772 Y194.384589 Z-0.125000 I-3.033278 J-1.891675
G03 X93.770812 Y193.751136 Z-0.125000 I2.065633 J0.746926
G03 X94.282846 Y193.308879 Z-0.125000 I1.479222 J1.195069
G03 X96.099430 Y192.691112 Z-0.125000 I2.388191 J4.042853
G03 X98.238388 Y192.823759 Z-0.125000 I0.713047 J5.813848
G01 X98.346779 Y193.081543 Z-0.125000
G03 X97.278892 Y194.465708 Z-0.125000 I-5.899381 J-3.447366
G02 X95.896681 Y196.056313 Z-0.125000 I10.655109 J10.654989
G02 X95.188882 Y197.241218 Z-0.125000 I5.163593 J3.888307
G01 X95.188882 Y197.241218 Z-0.125000
G00 Z5.000000

(End cutting path id: path6471)


(Start cutting path id: path6471)
(DuduZanette)
(Change tool to Default tool)

G00 Z5.000000
G00 X93.332325 Y198.055838

G01 Z-0.125000 F100.0(Penetrate)
G01 X92.842750 Y197.641321 Z-0.125000 F400.000000
G01 X93.257266 Y198.130908 Z-0.125000
G02 X93.683868 Y198.594409 Z-0.125000 I5.804014 J-4.913887
G01 X93.746842 Y198.620494 Z-0.125000
G01 X93.786353 Y198.542471 Z-0.125000
G02 X93.332325 Y198.055838 Z-0.125000 I-2.289011 J1.680522
G01 X93.332325 Y198.055838 Z-0.125000
G00 Z5.000000

(End cutting path id: path6471)


(Start cutting path id: path6471)
(DuduZanette)
(Change tool to Default tool)

G00 Z5.000000
G00 X92.733950 Y197.097346

G01 Z-0.125000 F100.0(Penetrate)
G01 X92.584193 Y196.983358 Z-0.125000 F400.000000
G01 X92.519682 Y197.030086 Z-0.125000
G01 X92.576114 Y197.256558 Z-0.125000
G01 X92.733950 Y197.423714 Z-0.125000
G01 X92.816638 Y197.377612 Z-0.125000
G01 X92.733950 Y197.097327 Z-0.125000
G01 X92.733950 Y197.097346 Z-0.125000
G00 Z5.000000

(End cutting path id: path6471)


(Start cutting path id: path6471)
(DuduZanette)
(Change tool to Default tool)

G00 Z5.000000
G00 X92.496511 Y194.048888

G01 Z-0.125000 F100.0(Penetrate)
G03 X91.116139 Y196.074235 Z-0.125000 I-5.900159 J-2.538176 F400.000000
G03 X88.803042 Y197.706946 Z-0.125000 I-6.030939 J-6.089299
G03 X84.467263 Y198.440911 Z-0.125000 I-3.439232 J-7.143266
G03 X80.589854 Y196.772171 Z-0.125000 I0.826144 J-7.258646
G03 X79.560719 Y195.426037 Z-0.125000 I2.515665 J-2.989715
G03 X78.249859 Y191.725391 Z-0.125000 I19.029483 J-8.823204
G02 X77.005918 Y188.107745 Z-0.125000 I-21.982876 J5.536203
G02 X73.275551 Y180.455589 Z-0.125000 I-102.702028 J45.331107
G03 X69.390708 Y170.943246 Z-0.125000 I43.717839 J-23.403833
G03 X67.813501 Y161.738510 Z-0.125000 I39.323699 J-11.475504
G03 X68.264818 Y158.889168 Z-0.125000 I6.827297 J-0.379014
G03 X69.559479 Y157.232060 Z-0.125000 I3.387971 J1.312645
G02 X70.376038 Y156.124726 Z-0.125000 I-1.254563 J-1.779863
G01 X70.219995 Y155.197910 Z-0.125000
G03 X70.136975 Y153.982585 Z-0.125000 I0.887306 J-0.671111
G03 X71.787694 Y152.402780 Z-0.125000 I3.413645 J1.914566
G02 X72.460400 Y152.000795 Z-0.125000 I-2.474727 J-4.905218
G02 X73.256442 Y151.376220 Z-0.125000 I-5.246024 J-7.505820
G02 X73.842364 Y150.624132 Z-0.125000 I-1.678958 J-1.912289
G02 X74.020953 Y149.883790 Z-0.125000 I-1.445255 J-0.740342
G02 X73.638620 Y148.969992 Z-0.125000 I-1.283181 J0.000000
G02 X72.366152 Y148.252430 Z-0.125000 I-1.959333 J1.987500
G01 X71.388409 Y148.004170 Z-0.125000
G01 X73.137826 Y145.706380 Z-0.125000
G03 X74.992058 Y143.331500 Z-0.125000 I98.403143 J74.918799
G01 X75.328008 Y143.102439 Z-0.125000
G01 X75.518270 Y143.241565 Z-0.125000
G03 X75.464140 Y144.983850 Z-0.125000 I-22.973666 J0.158224
G03 X74.914581 Y149.168696 Z-0.125000 I-34.217536 J-2.364983
G03 X74.130725 Y151.838020 Z-0.125000 I-14.627502 J-2.845661
G02 X71.597580 Y163.476641 Z-0.125000 I33.725237 J13.435274
G02 X73.035917 Y173.932265 Z-0.125000 I28.467425 J1.410600
G02 X75.639457 Y179.763569 Z-0.125000 I31.268523 J-10.463799
G02 X78.597310 Y183.715400 Z-0.125000 I17.126094 J-9.735623
G03 X79.531367 Y184.877332 Z-0.125000 I-5.897097 J5.696979
G03 X80.077217 Y185.944609 Z-0.125000 I-4.416440 J2.931974
G02 X82.374181 Y190.037608 Z-0.125000 I14.513843 J-5.454053
G02 X84.376847 Y191.446612 Z-0.125000 I3.325252 J-2.598565
G01 X84.894548 Y191.991374 Z-0.125000
G03 X84.792598 Y192.961538 Z-0.125000 I-1.292259 J0.354641
G01 X84.928435 Y193.289422 Z-0.125000
G01 X85.344238 Y193.137043 Z-0.125000
G02 X85.637813 Y192.378729 Z-0.125000 I-1.815610 J-1.138882
G02 X85.718353 Y191.063630 Z-0.125000 I-5.537459 J-0.999144
G02 X85.101473 Y189.151800 Z-0.125000 I-3.961861 J0.222914
G02 X82.942254 Y186.713750 Z-0.125000 I-8.790654 J5.610136
G03 X81.540662 Y185.533506 Z-0.125000 I54.494793 J-66.137342
G03 X80.063033 Y184.236161 Z-0.125000 I64.411885 J-74.852947
G03 X75.824538 Y178.741075 Z-0.125000 I12.701268 J-14.178971
G03 X72.708121 Y169.888823 Z-0.125000 I30.978505 J-15.880610
G03 X72.406368 Y167.598935 Z-0.125000 I15.663236 J-3.228870
G03 X72.350330 Y163.805660 Z-0.125000 I43.073594 J-2.533376
G03 X73.217562 Y157.141343 Z-0.125000 I33.577746 J0.980907
G03 X75.336308 Y151.029990 Z-0.125000 I30.300577 J7.081964
G03 X78.835899 Y145.216203 Z-0.125000 I29.598078 J13.856296
G03 X82.531090 Y141.483870 Z-0.125000 I15.634408 J11.783446
G03 X83.794501 Y140.567090 Z-0.125000 I16.929293 J22.001257
G01 X83.936452 Y140.523210 Z-0.125000
G01 X83.963155 Y140.579252 Z-0.125000
G03 X82.991216 Y141.688550 Z-0.125000 I-15.063211 J-12.217566
G02 X79.177198 Y147.348956 Z-0.125000 I15.131709 J14.311001
G02 X76.742740 Y155.373360 Z-0.125000 I28.596624 J13.057182
G02 X76.369141 Y159.965161 Z-0.125000 I28.595354 J4.637679
G02 X76.728870 Y164.069950 Z-0.125000 I23.180405 J0.036710
G02 X77.551436 Y166.924893 Z-0.125000 I14.079192 J-2.510527
G02 X78.699598 Y168.939088 Z-0.125000 I8.072434 J-3.267227
G03 X79.113217 Y169.682106 Z-0.125000 I-2.361615 J1.801285
G03 X79.544770 Y171.155467 Z-0.125000 I-9.046226 J3.449556
G02 X80.971130 Y175.386329 Z-0.125000 I18.316025 J-3.819055
G02 X83.516385 Y179.488373 Z-0.125000 I19.745133 J-9.410884
G02 X84.758114 Y180.797562 Z-0.125000 I7.637060 J-6.000067
G02 X88.310067 Y183.682675 Z-0.125000 I41.132909 J-47.011005
G03 X91.637132 Y186.958416 Z-0.125000 I-10.663898 J14.158447
G03 X92.944994 Y189.641409 Z-0.125000 I-5.717667 J4.447420
G03 X93.096663 Y191.735240 Z-0.125000 I-5.889312 J1.479007
G03 X92.496399 Y194.048888 Z-0.125000 I-7.830904 J-0.796995
G01 X92.496511 Y194.048888 Z-0.125000
G00 Z5.000000

(End cutting path id: path6471)


(Start cutting path id: path6471)
(DuduZanette)
(Change tool to Default tool)

G00 Z5.000000
G00 X94.761240 Y189.223234

G01 Z-0.125000 F100.0(Penetrate)
G01 X94.714680 Y189.494940 Z-0.125000 F400.000000
G01 X94.778380 Y189.640295 Z-0.125000
G01 X94.846071 Y189.626411 Z-0.125000
G01 X94.892661 Y189.354713 Z-0.125000
G01 X94.828831 Y189.209381 Z-0.125000
G01 X94.761193 Y189.223234 Z-0.125000
G01 X94.761240 Y189.223234 Z-0.125000
G00 Z5.000000

(End cutting path id: path6471)


(Start cutting path id: path6471)
(DuduZanette)
(Change tool to Default tool)

G00 Z5.000000
G00 X84.889812 Y191.004754

G01 Z-0.125000 F100.0(Penetrate)
