%
(Header)
(Generated by gcodetools from Inkscape.)
(Using default header. To add your own header create file "header" in the output dir.)
M3
(Header end.)
G21 (All units in mm)

(Start cutting path id: path836)
(DuduZanette)
(Change tool to Default tool)

G00 Z5.000000
G00 X111.411582 Y176.194796

G01 Z-0.125000 F100.0(Penetrate)
G02 X111.939280 Y177.139995 Z-0.125000 I57.042761 J-31.226658 F400.000000
G02 X112.132477 Y177.461169 Z-0.125000 I6.776810 J-3.857778
G03 X112.315012 Y177.787807 Z-0.125000 I-2.825475 J1.793284
G03 X113.213014 Y179.677323 Z-0.125000 I-93.968511 J45.817171
G02 X114.998992 Y183.083400 Z-0.125000 I35.420555 J-16.401507
G02 X116.782352 Y185.738292 Z-0.125000 I23.260095 J-13.697996
G03 X117.584595 Y186.882356 Z-0.125000 I-14.178861 J10.795848
G03 X118.044713 Y187.697688 Z-0.125000 I-6.724315 J4.332233
G02 X118.513818 Y188.503904 Z-0.125000 I5.842838 J-2.860136
G02 X119.098553 Y189.242299 Z-0.125000 I5.479721 J-3.738665
G03 X119.691635 Y189.976930 Z-0.125000 I-5.654624 J5.171804
G03 X120.265277 Y190.885096 Z-0.125000 I-8.086338 J5.742985
G02 X120.803605 Y191.820156 Z-0.125000 I35.713226 J-19.938124
G02 X121.142241 Y192.362939 Z-0.125000 I12.370659 J-7.340890
G03 X121.855602 Y193.548955 Z-0.125000 I-15.021588 J9.842680
G03 X122.679314 Y195.156829 Z-0.125000 I-26.810149 J14.749742
G02 X124.176677 Y197.647716 Z-0.125000 I13.503756 J-6.422096
G02 X128.442922 Y202.920787 Z-0.125000 I65.393476 J-48.545052
G03 X129.368995 Y204.088352 Z-0.125000 I-10.899278 J9.595993
G01 X129.445467 Y204.327401 Z-0.125000
G01 X129.523471 Y204.561701 Z-0.125000
G02 X130.131420 Y205.243404 Z-0.125000 I4.280284 J-3.205257
G03 X130.748030 Y205.945586 Z-0.125000 I-3.449076 J3.650581
G03 X131.556090 Y207.207951 Z-0.125000 I-10.458998 J7.584771
G02 X132.334119 Y208.498373 Z-0.125000 I21.054416 J-11.814504
G02 X132.974712 Y209.402883 Z-0.125000 I10.969737 J-7.089902
G03 X133.618691 Y210.304670 Z-0.125000 I-11.373121 J8.802540
G03 X134.107326 Y211.125608 Z-0.125000 I-8.931022 J5.871782
G02 X136.454192 Y213.651861 Z-0.125000 I5.991430 J-3.212746
G02 X138.794876 Y214.102443 Z-0.125000 I1.741647 J-2.742525
G02 X139.775682 Y213.586727 Z-0.125000 I-0.347222 J-1.850881
G02 X140.726728 Y212.180919 Z-0.125000 I-3.115587 J-3.132333
G03 X141.641669 Y210.252588 Z-0.125000 I23.667217 J10.048228
G03 X142.502061 Y208.808260 Z-0.125000 I14.115812 J7.430415
G02 X143.176241 Y207.730319 Z-0.125000 I-17.008162 J-11.387258
G02 X143.388414 Y207.288014 Z-0.125000 I-2.632772 J-1.534982
G03 X143.606283 Y206.849174 Z-0.125000 I2.433363 J0.934576
G03 X144.525757 Y205.453327 Z-0.125000 I25.787902 J15.986287
G02 X145.405740 Y204.053903 Z-0.125000 I-13.918773 J-9.728756
G01 X145.486198 Y203.746913 Z-0.125000
G03 X145.696598 Y202.475496 Z-0.125000 I3.946706 J0.000000
G03 X147.304716 Y198.402850 Z-0.125000 I43.132771 J14.677519
G02 X147.764298 Y197.279028 Z-0.125000 I-15.399404 J-6.953407
G01 X147.809013 Y197.030945 Z-0.125000
G01 X147.862838 Y196.786120 Z-0.125000
G03 X148.944653 Y194.543710 Z-0.125000 I53.452747 J24.405271
G02 X149.948206 Y192.273879 Z-0.125000 I-20.342369 J-10.350676
G02 X150.223067 Y191.166714 Z-0.125000 I-4.510013 J-1.707338
G03 X150.506525 Y189.750255 Z-0.125000 I9.861616 J1.236892
G03 X151.594465 Y186.216190 Z-0.125000 I62.762119 J17.386425
G02 X152.200093 Y184.305951 Z-0.125000 I-47.419948 J-16.085301
G01 X152.240190 Y184.028455 Z-0.125000
G01 X152.292988 Y183.756241 Z-0.125000
G03 X153.004227 Y182.132967 Z-0.125000 I27.584751 J11.118827
G02 X153.928663 Y179.577271 Z-0.125000 I-12.853169 J-6.094234
G02 X154.502229 Y176.300327 Z-0.125000 I-20.643404 J-5.301900
G03 X154.726519 Y175.293084 Z-0.125000 I4.153854 J0.396372
G03 X155.127165 Y174.550729 Z-0.125000 I2.626219 J0.938068
G02 X155.527028 Y173.804095 Z-0.125000 I-2.188544 J-1.652476
G02 X155.865800 Y172.440106 Z-0.125000 I-7.127124 J-2.494217
G02 X155.857517 Y168.241182 Z-0.125000 I-13.689561 J-2.072468
G02 X154.976114 Y166.716041 Z-0.125000 I-2.407784 J0.374237
G02 X153.612081 Y166.026011 Z-0.125000 I-2.311812 J2.876723
G01 X153.295502 Y166.269453 Z-0.125000
G01 X153.220192 Y166.429253 Z-0.125000
G03 X152.628271 Y166.820134 Z-0.125000 I-2.126484 J-2.576567
G02 X151.990883 Y167.207419 Z-0.125000 I2.493869 J4.822520
G02 X151.414663 Y167.676948 Z-0.125000 I3.109461 J4.404363
G03 X149.661078 Y168.987281 Z-0.125000 I-6.755548 J-7.212218
G03 X148.768956 Y169.229741 Z-0.125000 I-0.892122 J-1.520034
G02 X148.140582 Y169.371736 Z-0.125000 I-0.000000 J1.461378
G02 X145.486198 Y170.793198 Z-0.125000 I13.727307 J28.822924
G03 X144.447708 Y171.269193 Z-0.125000 I-2.692949 J-4.504429
G03 X141.581547 Y172.090292 Z-0.125000 I-11.269026 J-33.923197
G02 X138.859786 Y172.826135 Z-0.125000 I12.389494 J51.228300
G02 X138.415613 Y173.037780 Z-0.125000 I0.460211 J1.537740
G03 X137.811994 Y173.279088 Z-0.125000 I-0.845906 J-1.240369
G03 X134.585972 Y173.664003 Z-0.125000 I-6.051557 J-37.007605
G02 X132.255133 Y173.915589 Z-0.125000 I2.752242 J36.421316
G02 X131.842162 Y174.049599 Z-0.125000 I0.174344 J1.240584
G03 X131.432958 Y174.205338 Z-0.125000 I-0.827934 J-1.559931
G03 X130.029885 Y174.491906 Z-0.125000 I-4.479339 J-18.353302
G03 X125.411403 Y174.690105 Z-0.125000 I-3.126491 J-18.944667
G03 X123.181287 Y173.958044 Z-0.125000 I0.384593 J-4.934495
G02 X120.637100 Y173.210726 Z-0.125000 I-2.617815 J4.207748
G02 X116.907452 Y173.864803 Z-0.125000 I-0.150143 J10.104413
G03 X116.453536 Y173.984126 Z-0.125000 I-0.792871 J-2.093129
G03 X114.143451 Y174.288257 Z-0.125000 I-8.353977 J-54.528757
G02 X111.537668 Y174.605315 Z-0.125000 I12.730233 J115.491823
G02 X111.041934 Y174.798072 Z-0.125000 I0.148604 J1.116027
G01 X110.930409 Y175.167610 Z-0.125000
G02 X111.411582 Y176.194796 Z-0.125000 I8.408853 J-3.312732
G01 X111.411582 Y176.194796 Z-0.125000
G00 Z5.000000

(End cutting path id: path836)


(Start cutting path id: path848)
(DuduZanette)
(Change tool to Default tool)

G00 Z5.000000
G00 X88.173910 Y165.430621

G01 Z-0.125000 F100.0(Penetrate)
G03 X88.448913 Y165.976247 Z-0.125000 I-3.567326 J2.140099 F400.000000
G03 X88.700785 Y166.700244 Z-0.125000 I-6.049214 J2.510276
G02 X89.704688 Y168.919003 Z-0.125000 I7.908464 J-2.241781
G02 X90.556645 Y169.572983 Z-0.125000 I1.342966 J-0.867594
G03 X90.924871 Y169.697224 Z-0.125000 I-4.475203 J13.871486
G03 X91.243188 Y169.814842 Z-0.125000 I-3.709811 J10.529665
G02 X92.934115 Y170.175733 Z-0.125000 I1.971855 J-5.097177
G02 X102.957152 Y170.417765 Z-0.125000 I9.446176 J-183.526777
G01 X111.610704 Y170.390593 Z-0.125000
G01 X112.728211 Y169.322785 Z-0.125000
G02 X114.095248 Y167.524378 Z-0.125000 I-4.953639 J-5.184222
G02 X114.615284 Y165.799989 Z-0.125000 I-4.018042 J-2.152357
G03 X114.914135 Y164.788997 Z-0.125000 I2.730604 J0.257506
G01 X115.248353 Y164.586381 Z-0.125000
G02 X116.608793 Y164.407626 Z-0.125000 I0.000000 J-5.266284
G02 X118.786821 Y163.640177 Z-0.125000 I-3.853505 J-14.410649
G03 X120.488149 Y163.055242 Z-0.125000 I4.278420 J9.677416
G03 X121.741692 Y162.898144 Z-0.125000 I1.270830 J5.060628
G02 X122.609854 Y162.766745 Z-0.125000 I-0.009296 J-2.995117
G02 X125.540813 Y161.734252 Z-0.125000 I-11.004835 J-35.915986
G02 X129.517423 Y160.129042 Z-0.125000 I-221.742548 J-555.054226
G02 X130.184185 Y159.840492 Z-0.125000 I-6.477395 J-15.882160
G03 X130.822598 Y159.562690 Z-0.125000 I7.560830 J16.503015
G03 X132.294808 Y158.969818 Z-0.125000 I35.971231 J87.198823
G02 X133.732925 Y158.324937 Z-0.125000 I-6.119819 J-15.573464
G02 X134.217310 Y157.996506 Z-0.125000 I-1.042045 J-2.058268
G03 X134.698645 Y157.670727 Z-0.125000 I1.506341 J1.707128
G03 X135.400322 Y157.400014 Z-0.125000 I1.716449 J3.404255
G02 X136.101417 Y157.127489 Z-0.125000 I-0.989613 J-3.583945
G02 X136.623278 Y156.775610 Z-0.125000 I-1.183777 J-2.318546
G03 X137.130389 Y156.414161 Z-0.125000 I2.145922 J2.474249
G01 X137.351153 Y156.354956 Z-0.125000
G01 X137.583873 Y156.310808 Z-0.125000
G02 X138.638002 Y155.848482 Z-0.125000 I-5.496079 J-13.964278
G03 X139.682134 Y155.342317 Z-0.125000 I852.916534 J1758.099865
G03 X141.252281 Y154.582108 Z-0.125000 I1946.110001 J4017.493442
G03 X142.832898 Y153.867217 Z-0.125000 I14.563797 J30.095580
G01 X143.055609 Y153.822209 Z-0.125000
G01 X143.259160 Y153.748639 Z-0.125000
G02 X144.862310 Y152.319953 Z-0.125000 I-20.036657 J-24.097240
G03 X147.387745 Y150.190489 Z-0.125000 I18.510811 J19.390618
G03 X148.764502 Y149.421345 Z-0.125000 I3.643390 J4.904861
G02 X149.371532 Y149.111595 Z-0.125000 I-1.378883 J-3.451933
G02 X150.030876 Y148.620996 Z-0.125000 I-2.888891 J-4.570906
G03 X150.665817 Y148.086832 Z-0.125000 I16.620665 J19.111944
G03 X151.384582 Y147.519492 Z-0.125000 I19.484997 J23.946639
G02 X152.091701 Y146.939127 Z-0.125000 I-8.198344 J-10.709858
G02 X153.098258 Y146.012906 Z-0.125000 I-19.917350 J-22.654932
G03 X154.108680 Y145.092501 Z-0.125000 I17.097838 J17.755207
G03 X154.690864 Y144.641001 Z-0.125000 I4.675546 J5.427763
G02 X155.429157 Y144.020266 Z-0.125000 I-3.034772 J-4.358932
G02 X158.855945 Y140.437065 Z-0.125000 I-99.685582 J-98.764348
G03 X160.751410 Y138.480007 Z-0.125000 I41.745025 J38.534780
G01 X160.910960 Y138.414665 Z-0.125000
G01 X161.073015 Y138.354747 Z-0.125000
G02 X161.834973 Y137.623182 Z-0.125000 I-6.057270 J-7.071507
G02 X162.391553 Y136.760633 Z-0.125000 I-2.147633 J-1.996657
G02 X162.576525 Y135.854995 Z-0.125000 I-2.192555 J-0.919527
G02 X162.479461 Y134.927820 Z-0.125000 I-4.227011 J-0.026154
G01 X162.318414 Y134.670487 Z-0.125000
G02 X161.347121 Y134.282924 Z-0.125000 I-1.140980 J1.448585
G02 X160.558511 Y134.507836 Z-0.125000 I-0.104348 J1.129131
G03 X160.134228 Y134.753252 Z-0.125000 I-1.201347 J-1.587465
G01 X159.822453 Y134.819893 Z-0.125000
G01 X159.527040 Y134.909928 Z-0.125000
G02 X158.994183 Y135.354262 Z-0.125000 I1.552239 J2.403161
G03 X158.452370 Y135.775338 Z-0.125000 I-1.610082 J-1.512624
G01 X158.039043 Y135.881918 Z-0.125000
G02 X156.591429 Y136.215320 Z-0.125000 I0.000000 J3.309427
G02 X155.298183 Y137.215150 Z-0.125000 I1.752874 J3.603583
G03 X154.252570 Y138.028212 Z-0.125000 I-2.501744 J-2.138421
G03 X152.431983 Y138.629209 Z-0.125000 I-3.050882 J-6.183940
G02 X151.107284 Y138.920908 Z-0.125000 I3.240208 J17.868634
G02 X150.708801 Y139.076727 Z-0.125000 I0.454281 J1.749185
G03 X150.316671 Y139.257233 Z-0.125000 I-1.699593 J-3.176002
G03 X148.596666 Y139.899463 Z-0.125000 I-23.645746 J-60.703143
G02 X146.897796 Y140.578167 Z-0.125000 I8.365408 J23.405119
G02 X146.334469 Y140.901269 Z-0.125000 I1.268141 J2.863623
G03 X145.769811 Y141.217496 Z-0.125000 I-1.661609 J-2.304745
G03 X144.473565 Y141.680114 Z-0.125000 I-4.961365 J-11.854307
G02 X143.183586 Y142.126951 Z-0.125000 I4.402748 J14.795790
G01 X143.036439 Y142.250248 Z-0.125000
G01 X142.890559 Y142.356709 Z-0.125000
G03 X142.333651 Y142.424848 Z-0.125000 I-0.556908 J-2.241775
G02 X141.784525 Y142.522292 Z-0.125000 I0.000000 J1.595969
G01 X141.478758 Y142.738134 Z-0.125000
G03 X140.256605 Y143.566374 Z-0.125000 I-2.037942 J-1.691368
G03 X135.284878 Y144.743533 Z-0.125000 I-9.769321 J-30.173070
G02 X134.205329 Y144.958149 Z-0.125000 I1.876211 J12.260068
G02 X132.611401 Y145.399554 Z-0.125000 I6.674766 J27.201325
G03 X130.996554 Y145.682161 Z-0.125000 I-1.919055 J-6.210688
G03 X120.720607 Y145.956626 Z-0.125000 I-11.960355 J-255.292433
G01 X110.412791 Y146.024598 Z-0.125000
G01 X109.852780 Y146.690125 Z-0.125000
G02 X109.358067 Y147.392660 Z-0.125000 I3.829462 J3.222093
G02 X109.044902 Y148.076671 Z-0.125000 I3.314028 J1.930977
G03 X108.729065 Y148.753520 Z-0.125000 I-3.354705 J-1.153290
G03 X108.372519 Y149.193166 Z-0.125000 I-1.745708 J-1.051341
G02 X107.970615 Y149.609146 Z-0.125000 I3.750231 J4.025471
G02 X107.370362 Y150.345989 Z-0.125000 I11.208650 J9.743785
G03 X106.740168 Y151.041313 Z-0.125000 I-4.410037 J-3.363714
G03 X106.246839 Y151.392235 Z-0.125000 I-1.573228 J-1.689434
G02 X105.734102 Y151.727815 Z-0.125000 I1.548179 J2.924976
G02 X104.605082 Y152.698934 Z-0.125000 I12.169010 J15.289509
G03 X102.206790 Y154.591199 Z-0.125000 I-12.931433 J-13.923588
G03 X100.476471 Y155.448535 Z-0.125000 I-4.208826 J-6.319689
G02 X98.959027 Y156.007020 Z-0.125000 I13.117620 J37.982269
G02 X97.832635 Y156.482466 Z-0.125000 I8.361515 J21.381494
G03 X96.711375 Y156.956170 Z-0.125000 I-9.563476 J-21.072932
G01 X96.541954 Y156.988176 Z-0.125000
G01 X96.381152 Y157.033068 Z-0.125000
G02 X95.775858 Y157.452081 Z-0.125000 I3.126804 J5.163598
G03 X95.135242 Y157.796209 Z-0.125000 I-1.301693 J-1.654850
G03 X93.795063 Y158.107147 Z-0.125000 I-2.366205 J-7.154974
G03 X92.168081 Y158.225473 Z-0.125000 I-1.737181 J-12.641603
G03 X90.985501 Y158.131411 Z-0.125000 I-0.058280 J-6.748233
G02 X90.262677 Y158.194562 Z-0.125000 I-0.240053 J1.420645
G02 X89.560831 Y158.638052 Z-0.125000 I0.632135 J1.777487
G02 X88.962983 Y159.843497 Z-0.125000 I1.489894 J1.489897
G02 X89.214139 Y161.182607 Z-0.125000 I2.140520 J0.291643
G01 X89.248946 Y161.644887 Z-0.125000
G03 X88.782624 Y162.343449 Z-0.125000 I-1.706871 J-0.634487
G02 X87.908923 Y163.912790 Z-0.125000 I1.985020 J2.133002
G02 X88.173910 Y165.430647 Z-0.125000 I2.103712 J0.414794
G01 X88.173910 Y165.430621 Z-0.125000
G00 Z5.000000

(End cutting path id: path848)


(Start cutting path id: path840)
(DuduZanette)
(Change tool to Default tool)

G00 Z5.000000
G00 X93.054425 Y135.474053

G01 Z-0.125000 F100.0(Penetrate)
G01 X93.310799 Y136.024801 Z-0.125000 F400.000000
G03 X93.033734 Y138.545033 Z-0.125000 I-12.357319 J-0.083169
G02 X93.253494 Y139.751823 Z-0.125000 I1.567940 J0.337879
G02 X94.833871 Y141.338093 Z-0.125000 I4.492563 J-2.895485
G02 X97.446211 Y142.308090 Z-0.125000 I3.468025 J-5.337189
G02 X105.709894 Y142.813626 Z-0.125000 I7.553195 J-55.673927
G01 X111.417547 Y142.741416 Z-0.125000
G01 X112.293341 Y142.047429 Z-0.125000
G02 X113.595232 Y140.353103 Z-0.125000 I-2.729714 J-3.444805
G02 X114.114623 Y137.852749 Z-0.125000 I-5.758674 J-2.500354
G03 X114.266287 Y136.033075 Z-0.125000 I10.992139 J-0.000000
G01 X114.445611 Y135.880863 Z-0.125000
G01 X114.761078 Y135.816341 Z-0.125000
G02 X116.254032 Y135.116443 Z-0.125000 I-8.329318 J-19.709555
G03 X117.747012 Y134.385964 Z-0.125000 I17.432179 J33.737587
G03 X120.158683 Y133.310806 Z-0.125000 I40.221432 J86.977710
G02 X122.568804 Y132.236556 Z-0.125000 I-38.022086 J-88.544773
G02 X123.011115 Y131.992278 Z-0.125000 I-1.481649 J-3.205381
G03 X123.457467 Y131.766557 Z-0.125000 I1.263929 J1.945178
G03 X124.171957 Y131.555064 Z-0.125000 I1.815478 J4.820612
G02 X124.891965 Y131.347276 Z-0.125000 I-1.222368 J-5.587001
G02 X126.002133 Y130.894190 Z-0.125000 I-4.971137 J-13.767067
G03 X127.104720 Y130.431169 Z-0.125000 I8.051835 J17.629476
G01 X127.303692 Y130.394271 Z-0.125000
G01 X127.478055 Y130.345341 Z-0.125000
G01 X127.581040 Y130.225305 Z-0.125000
G01 X127.700256 Y130.109644 Z-0.125000
G03 X129.867549 Y129.352720 Z-0.125000 I14.324732 J37.534623
G02 X132.053225 Y128.592434 Z-0.125000 I-12.817551 J-40.369795
G02 X132.400296 Y128.393351 Z-0.125000 I-0.448388 J-1.183774
G03 X132.737046 Y128.170355 Z-0.125000 I1.343985 J1.663804
G03 X133.772201 Y127.660973 Z-0.125000 I8.220272 J15.398584
G02 X136.654632 Y126.270143 Z-0.125000 I-25.999559 J-57.565136
G02 X137.887915 Y125.544867 Z-0.125000 I-5.771102 J-11.224560
G03 X138.427562 Y125.213268 Z-0.125000 I4.708143 J7.057162
G03 X139.470882 Y124.651791 Z-0.125000 I14.595869 J25.871537
G02 X140.508536 Y124.080516 Z-0.125000 I-9.151414 J-17.850497
G02 X141.682225 Y123.347858 Z-0.125000 I-13.913339 J-23.595061
G03 X142.849444 Y122.622265 Z-0.125000 I13.947546 J21.134973
G01 X142.987138 Y122.584968 Z-0.125000
G01 X143.096183 Y122.529811 Z-0.125000
G02 X143.258777 Y122.215609 Z-0.125000 I-0.913236 J-0.671756
G01 X143.452419 Y121.898709 Z-0.125000
G03 X144.170017 Y121.287085 Z-0.125000 I3.786414 J3.715695
G02 X145.084213 Y120.588904 Z-0.125000 I-9.407224 J-13.265402
G02 X148.018904 Y118.126003 Z-0.125000 I-114.489200 J-139.400502
G02 X149.987551 Y116.380878 Z-0.125000 I-52.062210 J-60.713474
G01 X150.094352 Y116.224333 Z-0.125000
G01 X150.203141 Y116.098042 Z-0.125000
G01 X150.414892 Y116.042030 Z-0.125000
G02 X151.603249 Y115.589096 Z-0.125000 I-0.000000 J-1.785405
G02 X154.305941 Y112.571826 Z-0.125000 I-12.056386 J-13.518488
G03 X154.876526 Y111.925034 Z-0.125000 I3.369788 J2.397676
G03 X155.847635 Y111.154326 Z-0.125000 I5.783909 J6.290691
G02 X156.802038 Y110.406133 Z-0.125000 I-5.127790 J-7.523878
G01 X156.883111 Y110.224855 Z-0.125000
G01 X156.938412 Y110.022083 Z-0.125000
G03 X157.254772 Y109.591668 Z-0.125000 I2.239666 J1.314707
G02 X157.614563 Y109.172893 Z-0.125000 I-7.555401 J-6.855182
G02 X158.359816 Y108.232726 Z-0.125000 I-37.357677 J-30.378188
G03 X159.105281 Y107.293001 Z-0.125000 I36.976004 J28.566779
G03 X159.360467 Y107.004045 Z-0.125000 I3.742108 J3.047609
G02 X159.754930 Y105.982687 Z-0.125000 I-1.028444 J-0.984053
G02 X159.309613 Y105.065887 Z-0.125000 I-1.232942 J0.032325
G01 X158.957417 Y104.914416 Z-0.125000
G02 X157.949366 Y104.902413 Z-0.125000 I-0.559536 J4.656160
G02 X156.903003 Y105.270836 Z-0.125000 I0.220713 J2.296960
G02 X154.350738 Y107.266776 Z-0.125000 I10.808490 J16.450917
G03 X153.371140 Y108.106746 Z-0.125000 I-11.754232 J-12.716927
G03 X152.451178 Y108.776502 Z-0.125000 I-8.380275 J-10.544259
G03 X148.749955 Y110.933004 Z-0.125000 I-19.960281 J-30.003542
G03 X147.682093 Y111.187598 Z-0.125000 I-1.067861 J-2.112205
G01 X147.569893 Y111.212101 Z-0.125000
G02 X145.628167 Y112.129650 Z-0.125000 I39.232821 J85.538233
G03 X143.666948 Y112.999253 Z-0.125000 I-13.222954 J-27.175414
G03 X142.790817 Y113.269012 Z-0.125000 I-2.056210 J-5.120565
G02 X141.915505 Y113.528150 Z-0.125000 I1.351499 J6.172958
G02 X141.379766 Y113.800349 Z-0.125000 I0.964755 J2.562134
G03 X140.511736 Y114.224747 Z-0.125000 I-2.118748 J-3.233625
G03 X135.460675 Y115.824154 Z-0.125000 I-37.607189 J-109.991116
G02 X133.149731 Y116.533067 Z-0.125000 I24.575410 J84.233022
G02 X132.126017 Y116.897588 Z-0.125000 I5.432121 J16.875217
G03 X131.103012 Y117.188756 Z-0.125000 I-2.032095 J-5.196937
G03 X130.543050 Y117.188654 Z-0.125000 I-0.279704 J-1.521216
G02 X129.982783 Y117.206641 Z-0.125000 I-0.238807 J1.296281
G02 X127.545841 Y117.942421 Z-0.125000 I6.627121 J26.352908
G03 X116.580483 Y120.696881 Z-0.125000 I-20.095491 J-56.795598
G03 X112.441548 Y120.258214 Z-0.125000 I-1.237358 J-8.070503
G02 X111.889292 Y120.109168 Z-0.125000 I-1.020863 J2.684926
G02 X111.195817 Y120.052221 Z-0.125000 I-0.693475 J4.193896
G01 X110.673483 Y120.282513 Z-0.125000
G02 X110.241233 Y121.097079 Z-0.125000 I1.362944 J1.245217
G03 X109.910357 Y122.091995 Z-0.125000 I-5.961201 J-1.430018
G01 X109.680340 Y122.399416 Z-0.125000
G02 X109.419084 Y122.693426 Z-0.125000 I0.831357 J1.001819
G02 X109.092465 Y123.306875 Z-0.125000 I3.411906 J2.210278
G03 X108.771240 Y123.929410 Z-0.125000 I-4.434913 J-1.894252
G03 X108.418702 Y124.408155 Z-0.125000 I-2.963541 J-1.813117
G02 X108.039764 Y124.872919 Z-0.125000 I6.193595 J5.436715
G02 X107.340971 Y125.832825 Z-0.125000 I25.770135 J19.494442
G03 X106.573344 Y126.640945 Z-0.125000 I-3.078944 J-2.156025
G01 X106.092630 Y126.806213 Z-0.125000
G01 X105.582665 Y126.945450 Z-0.125000
G02 X104.663614 Y127.649398 Z-0.125000 I2.445816 J4.145088
G03 X103.758093 Y128.437446 Z-0.125000 I-7.232123 J-7.395931
G03 X102.640490 Y129.213361 Z-0.125000 I-8.126373 J-10.512131
G03 X98.172401 Y131.809176 Z-0.125000 I-46.463559 J-74.832875
G03 X97.157227 Y132.187348 Z-0.125000 I-1.845717 J-3.403021
G02 X96.563863 Y132.381814 Z-0.125000 I0.668006 J3.040736
G01 X96.404117 Y132.521134 Z-0.125000
G01 X96.236926 Y132.632051 Z-0.125000
G03 X95.151511 Y132.715959 Z-0.125000 I-1.085416 J-6.978378
G02 X94.078022 Y132.876880 Z-0.125000 I0.000000 J3.661026
G02 X93.369939 Y133.262378 Z-0.125000 I0.592160 J1.930735
G02 X92.680547 Y134.505002 Z-0.125000 I1.282335 J1.523968
G02 X93.054359 Y135.474044 Z-0.125000 I1.053323 J0.150298
G01 X93.054425 Y135.474053 Z-0.125000
G00 Z5.000000

(End cutting path id: path840)


(Start cutting path id: path844)
(DuduZanette)
(Change tool to Default tool)

G00 Z5.000000
G00 X91.682870 Y105.328850

G01 Z-0.125000 F100.0(Penetrate)
G03 X92.578418 Y106.282594 Z-0.125000 I-1.252672 J2.073559 F400.000000
G03 X92.931686 Y107.724540 Z-0.125000 I-2.766185 J1.441946
G03 X92.839320 Y108.262213 Z-0.125000 I-1.611108 J-0.000000
G03 X92.464342 Y109.044643 Z-0.125000 I-3.841708 J-1.360062
G02 X92.002343 Y111.249459 Z-0.125000 I2.817177 J1.741125
G02 X93.122614 Y113.699887 Z-0.125000 I4.691065 J-0.663339
G03 X93.499252 Y114.231661 Z-0.125000 I-2.438961 J2.126701
G01 X93.564873 Y114.480643 Z-0.125000
G01 X93.652154 Y114.710982 Z-0.125000
G02 X94.309606 Y115.322233 Z-0.125000 I3.457010 J-3.059114
G02 X95.119856 Y115.723604 Z-0.125000 I1.439376 J-1.887159
G02 X97.106181 Y116.091014 Z-0.125000 I3.139700 J-11.421088
G02 X105.041023 Y116.343086 Z-0.125000 I5.880871 J-60.106615
G02 X107.239994 Y115.746052 Z-0.125000 I-0.169166 J-4.971164
G03 X107.827191 Y115.478938 Z-0.125000 I2.219430 J4.099996
G03 X108.410759 Y115.308480 Z-0.125000 I1.449429 J3.878010
G02 X110.559696 Y113.895556 Z-0.125000 I-0.741858 J-3.468939
G02 X111.503102 Y110.960590 Z-0.125000 I-4.153773 J-2.954280
G02 X111.436554 Y110.428431 Z-0.125000 I-2.109463 J-0.006449
G02 X110.964794 Y108.870284 Z-0.125000 I-18.718113 J4.816794
G03 X110.597536 Y107.608190 Z-0.125000 I11.722737 J-4.095693
G01 X110.657480 Y107.242706 Z-0.125000
G01 X110.957887 Y107.048858 Z-0.125000
G03 X112.144160 Y106.969594 Z-0.125000 I1.212110 J9.223935
G02 X113.278832 Y106.864514 Z-0.125000 I-0.016464 J-6.356545
G02 X113.727127 Y106.678294 Z-0.125000 I-0.209274 J-1.136505
G03 X114.174526 Y106.471817 Z-0.125000 I0.814693 J1.177340
G03 X115.390504 Y106.236792 Z-0.125000 I2.320514 J8.742774
G02 X116.936601 Y105.891318 Z-0.125000 I-0.994216 J-8.081761
G02 X118.713855 Y105.145525 Z-0.125000 I-3.760056 J-11.450896
G03 X119.284020 Y104.896677 Z-0.125000 I2.172329 J4.199663
G01 X119.518408 Y104.855755 Z-0.125000
G02 X120.239697 Y104.706263 Z-0.125000 I-0.000000 J-1.814825
G02 X122.691473 Y103.481449 Z-0.125000 I-9.985588 J-23.055023
G03 X124.034087 Y102.820685 Z-0.125000 I6.123006 J10.746985
G03 X125.962938 Y102.110550 Z-0.125000 I9.019128 J21.522916
G02 X127.407976 Y101.574404 Z-0.125000 I-5.029625 J-15.771454
G02 X127.993227 Y101.247737 Z-0.125000 I-1.224608 J-2.881582
G03 X128.565018 Y100.891598 Z-0.125000 I3.284246 J4.635862
G03 X129.105301 Y100.643460 Z-0.125000 I2.113891 J3.890404
G02 X131.048388 Y99.622784 Z-0.125000 I-3.247946 J-8.543095
G02 X132.189277 Y98.515312 Z-0.125000 I-2.724449 J-3.948048
G01 X132.316518 Y98.397219 Z-0.125000
G03 X132.973133 Y98.024202 Z-0.125000 I4.645348 J7.412693
G02 X133.605778 Y97.613390 Z-0.125000 I-1.681746 J-3.282406
G02 X134.777306 Y96.570074 Z-0.125000 I-10.006336 J-12.415418
G03 X135.922494 Y95.484795 Z-0.125000 I30.345527 J30.873810
G03 X136.912493 Y94.619219 Z-0.125000 I20.275225 J22.190760
G02 X140.863366 Y91.069438 Z-0.125000 I-48.131715 J-57.543667
G01 X141.056392 Y90.622016 Z-0.125000
G01 X141.139505 Y90.440602 Z-0.125000
G03 X142.217235 Y89.593844 Z-0.125000 I7.690390 J8.678882
G02 X143.296710 Y88.748449 Z-0.125000 I-6.798311 J-9.792577
G01 X143.375576 Y88.573931 Z-0.125000
G03 X143.622985 Y87.795114 Z-0.125000 I1.349522 J0.000000
G03 X145.829366 Y85.101508 Z-0.125000 I20.011119 J14.141022
G02 X146.804219 Y82.629151 Z-0.125000 I-2.591261 J-2.450108
G01 X145.807761 Y81.638891 Z-0.125000
G02 X145.280334 Y81.704573 Z-0.125000 I-0.000000 J2.150438
G01 X145.002400 Y81.842624 Z-0.125000
G02 X144.747698 Y82.046615 Z-0.125000 I95.209416 J119.138843
G02 X144.008763 Y82.640182 Z-0.125000 I795.440930 J991.008189
G03 X141.791615 Y84.242170 Z-0.125000 I-16.678195 J-20.747322
G01 X141.315741 Y84.382700 Z-0.125000
G01 X141.087939 Y84.434861 Z-0.125000
G02 X140.333065 Y84.857590 Z-0.125000 I3.123586 J6.463199
G03 X137.763788 Y86.418765 Z-0.125000 I-32.746537 J-50.997305
G01 X137.484197 Y86.493323 Z-0.125000
G01 X137.251692 Y86.539209 Z-0.125000
G02 X136.199459 Y87.020978 Z-0.125000 I5.544659 J13.500074
G03 X135.147660 Y87.504627 Z-0.125000 I-6.882292 J-13.581536
G01 X134.926580 Y87.548634 Z-0.125000
G01 X134.703934 Y87.589772 Z-0.125000
G02 X133.510484 Y88.090441 Z-0.125000 I7.273853 J19.011532
G03 X126.782939 Y90.825802 Z-0.125000 I-35.284103 J-77.139498
G03 X124.989866 Y91.136692 Z-0.125000 I-1.793073 J-5.015361
G02 X124.568641 Y91.196510 Z-0.125000 I0.000000 J1.513011
G02 X123.255125 Y91.639536 Z-0.125000 I4.471148 J15.425102
G03 X118.981526 Y92.660832 Z-0.125000 I-5.928418 J-15.355317
G03 X107.343931 Y93.247315 Z-0.125000 I-11.637595 J-115.169355
G01 X105.249611 Y93.247315 Z-0.125000
G01 X104.955769 Y94.326383 Z-0.125000
G03 X104.579284 Y95.330693 Z-0.125000 I-5.583726 J-1.520446
G01 X104.380167 Y95.513558 Z-0.125000
G01 X104.157286 Y95.686964 Z-0.125000
G02 X103.576984 Y96.650652 Z-0.125000 I6.300459 J4.450492
G03 X102.987969 Y97.569584 Z-0.125000 I-4.828484 J-2.446712
G01 X102.760115 Y97.679622 Z-0.125000
G01 X102.505825 Y97.739571 Z-0.125000
G01 X102.394313 Y97.862257 Z-0.125000
G01 X102.283517 Y98.004440 Z-0.125000
G03 X100.821879 Y99.001104 Z-0.125000 I-31.561633 J-44.715986
G03 X99.330089 Y99.949297 Z-0.125000 I-30.172835 J-45.823272
G01 X99.145723 Y100.001323 Z-0.125000
G01 X99.040580 Y100.029779 Z-0.125000
G02 X97.839739 Y100.764139 Z-0.125000 I17.536476 J30.025042
G03 X95.956219 Y101.720820 Z-0.125000 I-5.751258 J-8.990635
G03 X94.146298 Y102.200226 Z-0.125000 I-3.038087 J-7.813562
G02 X93.192557 Y102.456157 Z-0.125000 I0.629966 J4.252658
G02 X92.563332 Y102.827522 Z-0.125000 I0.866705 J2.187262
G03 X91.960131 Y103.268387 Z-0.125000 I-4.104131 J-4.982271
G03 X91.612547 Y103.441297 Z-0.125000 I-0.945079 J-1.463980
G01 X91.057491 Y104.267119 Z-0.125000
G02 X91.682845 Y105.328850 Z-0.125000 I1.295953 J-0.048279
G01 X91.682870 Y105.328850 Z-0.125000
G00 Z5.000000

(End cutting path id: path844)


(Start cutting path id: path852)
(DuduZanette)
(Change tool to Default tool)

G00 Z5.000000
G00 X87.389239 Y82.419996

G01 Z-0.125000 F100.0(Penetrate)
G01 X88.387182 Y83.306640 Z-0.125000 F400.000000
G01 X87.757328 Y83.964348 Z-0.125000
G02 X87.123233 Y85.555277 Z-0.125000 I1.648887 J1.579025
G02 X87.776190 Y87.579446 Z-0.125000 I3.520848 J-0.018357
G02 X89.057118 Y88.682881 Z-0.125000 I2.886780 J-2.055926
G02 X91.454282 Y89.448967 Z-0.125000 I3.558168 J-7.000357
G03 X93.029915 Y89.719235 Z-0.125000 I-5.498548 J36.783960
G03 X93.775967 Y89.898771 Z-0.125000 I-1.629935 J8.412981
G02 X98.057672 Y90.564136 Z-0.125000 I4.750618 J-16.461465
G02 X101.205624 Y90.102205 Z-0.125000 I0.252824 J-9.234299
G02 X103.486189 Y88.340685 Z-0.125000 I-1.358246 J-4.115499
G02 X104.304933 Y85.311258 Z-0.125000 I-4.315336 J-2.791630
G03 X104.687740 Y84.255263 Z-0.125000 I1.461185 J-0.067691
G03 X106.123109 Y83.327389 Z-0.125000 I2.496790 J2.288240
G02 X106.891361 Y83.043459 Z-0.125000 I-3.642897 J-11.038204
G02 X107.462649 Y82.777937 Z-0.125000 I-2.609368 J-6.361577
G03 X108.032623 Y82.525865 Z-0.125000 I2.235938 J4.285371
G01 X108.261959 Y82.484444 Z-0.125000
G01 X108.482847 Y82.424290 Z-0.125000
G02 X109.844926 Y81.563906 Z-0.125000 I-11.066839 J-19.028323
G03 X111.209961 Y80.680687 Z-0.125000 I17.852057 J26.094311
G03 X112.138383 Y80.162278 Z-0.125000 I7.053293 J11.541224
G02 X113.068549 Y79.646660 Z-0.125000 I-6.645774 J-13.085682
G02 X114.290187 Y78.865375 Z-0.125000 I-14.079270 J-23.360449
G03 X115.514949 Y78.124894 Z-0.125000 I7.758162 J11.448948
G01 X115.809901 Y78.050833 Z-0.125000
G01 X116.086939 Y77.978101 Z-0.125000
G01 X116.296375 Y77.776485 Z-0.125000
G01 X116.509378 Y77.547788 Z-0.125000
G03 X117.520471 Y76.897743 Z-0.125000 I6.841558 J9.530133
G02 X118.560016 Y76.274352 Z-0.125000 I-15.010140 J-26.208836
G01 X118.681313 Y76.169545 Z-0.125000
G01 X118.799292 Y76.060510 Z-0.125000
G03 X119.142924 Y75.834679 Z-0.125000 I2.606776 J3.592191
G02 X122.331887 Y73.679471 Z-0.125000 I-16.566749 J-27.949952
G02 X123.810075 Y72.260190 Z-0.125000 I-5.600003 J-7.311842
G03 X124.654126 Y71.386583 Z-0.125000 I6.318582 J5.260260
G01 X124.889452 Y71.296840 Z-0.125000
G01 X125.117882 Y71.203345 Z-0.125000
G02 X125.760201 Y70.440626 Z-0.125000 I-3.728635 J-3.791866
G03 X126.406609 Y69.636758 Z-0.125000 I5.955372 J4.127021
G03 X126.949756 Y69.159868 Z-0.125000 I2.606465 J2.420848
G02 X127.447478 Y68.684594 Z-0.125000 I-1.395113 J-1.959256
G01 X127.545930 Y68.399446 Z-0.125000
G01 X127.644477 Y68.103020 Z-0.125000
G03 X128.706774 Y66.846518 Z-0.125000 I11.001090 J8.223464
G02 X129.666759 Y65.549069 Z-0.125000 I-4.692149 J-4.475600
G02 X129.867617 Y64.782047 Z-0.125000 I-1.364099 J-0.767022
G03 X129.952954 Y63.982154 Z-0.125000 I3.791499 J-0.000000
G01 X130.078679 Y63.804130 Z-0.125000
G01 X130.219880 Y63.634767 Z-0.125000
G01 X130.289741 Y63.264019 Z-0.125000
G01 X130.209798 Y62.934296 Z-0.125000
G01 X130.078679 Y62.854350 Z-0.125000
G01 X129.941740 Y62.780222 Z-0.125000
G01 X129.867617 Y62.531143 Z-0.125000
G01 X129.520048 Y62.209013 Z-0.125000
G02 X128.186380 Y62.659043 Z-0.125000 I0.216221 J2.841950
G02 X127.194145 Y63.385813 Z-0.125000 I5.847767 J9.024485
G01 X127.123806 Y63.534951 Z-0.125000
G01 X127.048245 Y63.673141 Z-0.125000
G03 X126.180613 Y64.139553 Z-0.125000 I-3.464489 J-5.404529
G02 X125.289712 Y64.615121 Z-0.125000 I2.768456 J6.258524
G01 X125.072536 Y64.840729 Z-0.125000
G03 X123.868548 Y65.966601 Z-0.125000 I-2.469043 J-1.433654
G03 X121.832024 Y66.442409 Z-0.125000 I-2.036524 J-4.120401
G01 X121.599555 Y66.487889 Z-0.125000
G02 X120.820677 Y66.853880 Z-0.125000 I3.068300 J7.541517
G03 X118.393444 Y67.967943 Z-0.125000 I-10.209018 J-19.041454
G03 X115.525334 Y68.898334 Z-0.125000 I-9.918614 J-25.690097
G02 X114.413272 Y69.289642 Z-0.125000 I1.902033 J7.181259
G02 X113.431289 Y69.827872 Z-0.125000 I2.720055 J6.127557
G03 X112.196683 Y70.392366 Z-0.125000 I-2.409698 J-3.637904
G03 X111.138588 Y70.468978 Z-0.125000 I-0.717647 J-2.566469
G02 X109.476499 Y70.479550 Z-0.125000 I-0.791997 J6.144034
G02 X105.384400 Y71.285132 Z-0.125000 I5.481527 J38.640454
G03 X104.637743 Y71.421997 Z-0.125000 I-1.400861 J-5.537196
G03 X102.535060 Y71.613650 Z-0.125000 I-5.060886 J-43.894220
G02 X100.458816 Y71.859838 Z-0.125000 I1.370619 J20.437356
G02 X99.956967 Y72.053706 Z-0.125000 I0.228335 J1.337550
G03 X99.478937 Y72.315948 Z-0.125000 I-2.209442 J-3.460695
G01 X99.315237 Y72.352152 Z-0.125000
G01 X99.163521 Y72.408631 Z-0.125000
G02 X97.387407 Y74.018438 Z-0.125000 I33.261436 J38.482341
G03 X95.568211 Y75.558230 Z-0.125000 I-14.290322 J-15.038846
G03 X95.005139 Y75.810473 Z-0.125000 I-0.835738 J-1.110998
G02 X94.412937 Y76.021438 Z-0.125000 I0.426831 J2.134831
G02 X93.170018 Y76.782456 Z-0.125000 I5.478916 J10.343833
G03 X91.944114 Y77.567013 Z-0.125000 I-9.855126 J-14.049018
G01 X91.715369 Y77.628708 Z-0.125000
G01 X91.479252 Y77.675320 Z-0.125000
G02 X90.774752 Y78.015126 Z-0.125000 I2.494619 J6.072140
G03 X90.057485 Y78.339342 Z-0.125000 I-2.271833 J-4.070487
G03 X88.604942 Y78.782678 Z-0.125000 I-5.787836 J-16.362006
G02 X86.857226 Y79.717794 Z-0.125000 I1.046567 J4.056804
G02 X86.390059 Y80.765268 Z-0.125000 I0.935543 J1.045160
G02 X86.580767 Y81.448058 Z-0.125000 I1.324321 J-0.001864
G02 X87.389272 Y82.419996 Z-0.125000 I3.608079 J-2.179128
G01 X87.389239 Y82.419996 Z-0.125000
G00 Z5.000000

(End cutting path id: path852)


(Start cutting path id: path856)
(DuduZanette)
(Change tool to Default tool)

G00 Z5.000000
G00 X79.924075 Y56.648696

G01 Z-0.125000 F100.0(Penetrate)
G02 X80.197937 Y57.282888 Z-0.125000 I5.667289 J-2.071070 F400.000000
G02 X80.400472 Y57.598476 Z-0.125000 I1.589241 J-0.797139
G01 X80.526956 Y57.910783 Z-0.125000
G01 X80.467779 Y58.316512 Z-0.125000
G02 X80.451262 Y59.176427 Z-0.125000 I1.120482 J0.451638
G02 X81.376035 Y60.845894 Z-0.125000 I5.598471 J-2.010314
G02 X82.602490 Y62.104414 Z-0.125000 I6.555149 J-5.161272
G02 X83.841651 Y62.892450 Z-0.125000 I3.721120 J-4.483053
G02 X85.247610 Y63.299340 Z-0.125000 I1.976872 J-4.198335
G02 X88.273958 Y63.441918 Z-0.125000 I2.446126 J-19.731479
G02 X93.909899 Y62.911633 Z-0.125000 I-1.278520 J-43.803219
G02 X97.017553 Y62.044835 Z-0.125000 I-2.246144 J-14.057101
G02 X97.977317 Y61.165425 Z-0.125000 I-0.702053 J-1.729637
G02 X98.570338 Y59.009835 Z-0.125000 I-4.901846 J-2.507905
G03 X99.236986 Y56.630916 Z-0.125000 I5.936133 J0.380625
G03 X100.360795 Y55.590892 Z-0.125000 I2.024117 J1.059998
G02 X101.217845 Y55.124634 Z-0.125000 I-2.065138 J-4.816847
G02 X102.053181 Y54.454139 Z-0.125000 I-3.521545 J-5.242918
G03 X102.881411 Y53.766828 Z-0.125000 I5.415929 J5.683671
G03 X103.847211 Y53.162222 Z-0.125000 I5.144794 J7.144625
G02 X104.769219 Y52.537147 Z-0.125000 I-2.616224 J-4.851560
G02 X105.065214 Y52.142584 Z-0.125000 I-0.693858 J-0.828827
G03 X105.362310 Y51.753680 Z-0.125000 I0.946890 J0.415428
G03 X106.181876 Y51.240459 Z-0.125000 I2.537022 J3.140390
G02 X107.018416 Y50.746990 Z-0.125000 I-2.211359 J-4.704549
G01 X107.212467 Y50.494545 Z-0.125000
G01 X107.382430 Y50.205755 Z-0.125000
G03 X108.470248 Y48.993892 Z-0.125000 I18.401453 J15.423743
G02 X109.522252 Y47.778698 Z-0.125000 I-11.172749 J-10.735302
G01 X109.605620 Y47.535959 Z-0.125000
G01 X109.684131 Y47.300550 Z-0.125000
G03 X110.042720 Y46.953543 Z-0.125000 I1.268293 J0.951842
G02 X111.527436 Y45.425379 Z-0.125000 I-3.257332 J-4.650054
G02 X111.927305 Y44.090791 Z-0.125000 I-2.027195 J-1.334587
G01 X111.976653 Y43.791813 Z-0.125000
G03 X112.323654 Y42.922836 Z-0.125000 I8.400483 J2.850720
G02 X113.935755 Y39.188955 Z-0.125000 I-73.483060 J-33.941226
G02 X114.037928 Y38.661173 Z-0.125000 I-1.312060 J-0.527781
G03 X114.089768 Y38.166695 Z-0.125000 I2.384218 J-0.000000
G03 X114.223073 Y37.787833 Z-0.125000 I1.522211 J0.322718
G02 X114.625752 Y36.720036 Z-0.125000 I-4.759948 J-2.404858
G02 X114.994198 Y34.810451 Z-0.125000 I-14.995299 J-3.883610
G03 X115.229025 Y33.702626 Z-0.125000 I6.933908 J0.890989
G03 X115.686931 Y32.488766 Z-0.125000 I8.791520 J2.623137
G02 X116.087220 Y31.264882 Z-0.125000 I-5.079225 J-2.338637
G02 X116.320940 Y29.372340 Z-0.125000 I-12.017068 J-2.444756
G02 X116.223246 Y27.515782 Z-0.125000 I-9.528848 J-0.429434
G01 X115.961604 Y26.997890 Z-0.125000
G02 X115.478150 Y26.641479 Z-0.125000 I-1.419574 J1.419488
G01 X115.115101 Y26.551651 Z-0.125000
G02 X114.372667 Y26.868849 Z-0.125000 I0.000000 J1.027473
G02 X113.078966 Y28.680015 Z-0.125000 I5.642169 J5.397775
G03 X112.247091 Y29.983305 Z-0.125000 I-7.569548 J-3.914424
G03 X110.314806 Y32.330568 Z-0.125000 I-40.348840 J-31.246505
G03 X108.175229 Y34.605108 Z-0.125000 I-32.378840 J-28.314023
G01 X107.742075 Y34.783071 Z-0.125000
G01 X107.535404 Y34.856987 Z-0.125000
G02 X105.747818 Y36.418803 Z-0.125000 I24.170903 J29.468846
G03 X103.943406 Y37.993992 Z-0.125000 I-25.850399 J-27.791083
G03 X103.051100 Y38.626946 Z-0.125000 I-5.015767 J-6.125528
G02 X102.126567 Y39.220174 Z-0.125000 I12.632702 J20.704855
G02 X100.145352 Y40.585737 Z-0.125000 I64.989863 J96.409917
G03 X98.104600 Y41.810256 Z-0.125000 I-9.349142 J-13.268252
G03 X96.686185 Y42.330108 Z-0.125000 I-2.944471 J-5.838980
G02 X95.342320 Y42.894512 Z-0.125000 I1.054163 J4.392102
G02 X94.590894 Y43.642799 Z-0.125000 I1.269330 J2.026086
G02 X94.047114 Y44.625002 Z-0.125000 I8.149729 J5.153585
G02 X93.727706 Y45.441715 Z-0.125000 I5.305699 J2.545818
G03 X93.379128 Y46.231041 Z-0.125000 I-3.513304 J-1.079895
G03 X92.917409 Y46.813619 Z-0.125000 I-2.348940 J-1.387384
G03 X90.803424 Y48.697901 Z-0.125000 I-27.254093 J-28.448521
G03 X90.003255 Y49.228911 Z-0.125000 I-2.891431 J-3.488657
G02 X89.488434 Y49.566856 Z-0.125000 I1.407611 J2.705444
G02 X88.980542 Y50.059374 Z-0.125000 I2.536872 J3.124190
G03 X88.458771 Y50.515058 Z-0.125000 I-1.876360 J-1.621926
G03 X87.925231 Y50.747396 Z-0.125000 I-0.955602 J-1.465660
G02 X85.719350 Y51.603983 Z-0.125000 I2.257831 J9.082941
G02 X84.498369 Y52.606804 Z-0.125000 I1.990281 J3.667968
G01 X84.212864 Y52.825832 Z-0.125000
G03 X82.337358 Y53.599852 Z-0.125000 I-10.768263 J-23.433018
G02 X80.529882 Y54.447678 Z-0.125000 I3.982116 J10.840043
G02 X80.025263 Y54.939516 Z-0.125000 I0.721218 J1.244745
G02 X79.785249 Y55.701993 Z-0.125000 I1.399432 J0.859531
G02 X79.924085 Y56.648696 Z-0.125000 I2.348927 J0.139055
G01 X79.924075 Y56.648696 Z-0.125000
G00 Z5.000000

(End cutting path id: path856)


(Start cutting path id: path868)
(DuduZanette)
(Change tool to Default tool)

G00 Z5.000000
G00 X64.850633 Y66.437190

G01 Z-0.125000 F100.0(Penetrate)
G03 X65.239825 Y66.691336 Z-0.125000 I-1.259937 J2.354500 F400.000000
G03 X66.409195 Y67.660878 Z-0.125000 I-17.627129 J22.450162
G02 X68.546652 Y69.145411 Z-0.125000 I7.678249 J-8.774240
G02 X73.590032 Y71.539280 Z-0.125000 I25.498797 J-47.211008
G03 X75.039121 Y72.175989 Z-0.125000 I-13.189232 J31.984759
G03 X75.288451 Y72.332350 Z-0.125000 I-0.506412 J1.084485
G01 X75.540932 Y72.478630 Z-0.125000
G02 X76.630367 Y72.847865 Z-0.125000 I5.157523 J-13.425542
G03 X77.732914 Y73.201938 Z-0.125000 I-6.831792 J23.167179
G03 X80.347414 Y74.140663 Z-0.125000 I-45.630368 J131.198132
G02 X84.890433 Y75.528917 Z-0.125000 I14.197582 J-38.333598
G02 X87.233005 Y75.814237 Z-0.125000 I2.382635 J-9.802897
G02 X88.560651 Y75.634390 Z-0.125000 I0.020188 J-4.841289
G02 X90.293408 Y74.956120 Z-0.125000 I-2.525672 J-9.004701
G02 X93.629388 Y72.648972 Z-0.125000 I-6.999874 J-13.686720
G02 X95.581779 Y70.152792 Z-0.125000 I-6.309419 J-6.946546
G02 X95.965715 Y69.075255 Z-0.125000 I-3.329413 J-1.793466
G02 X96.059787 Y67.673492 Z-0.125000 I-5.601442 J-1.079952
G02 X95.866380 Y66.244915 Z-0.125000 I-9.221778 J0.521103
G01 X95.543261 Y65.792254 Z-0.125000
G01 X94.963434 Y65.653208 Z-0.125000
G02 X93.092100 Y65.880027 Z-0.125000 I1.437729 J19.694671
G03 X90.918489 Y66.176538 Z-0.125000 I-5.607474 J-32.991129
G03 X87.760661 Y66.429994 Z-0.125000 I-7.160064 J-69.409181
G02 X84.606061 Y66.662186 Z-0.125000 I5.638464 J98.150870
G02 X84.270687 Y66.743388 Z-0.125000 I0.104650 J1.165374
G01 X83.845956 Y66.816031 Z-0.125000
G03 X79.398148 Y66.555388 Z-0.125000 I8.885378 J-189.707296
G03 X75.029352 Y66.198692 Z-0.125000 I13.736197 J-195.172880
G03 X74.164827 Y66.032142 Z-0.125000 I0.417815 J-4.495837
G02 X73.432570 Y65.878751 Z-0.125000 I-1.305105 J4.405801
G02 X70.682300 Y65.594545 Z-0.125000 I-7.827584 J62.298337
G03 X67.924142 Y65.340699 Z-0.125000 I10.341618 J-127.477809
G03 X66.394313 Y65.153001 Z-0.125000 I4.052888 J-39.361316
G02 X64.883145 Y65.008871 Z-0.125000 I-2.305942 J16.183079
G01 X64.653049 Y65.068227 Z-0.125000
G01 X64.348349 Y65.720624 Z-0.125000
G01 X64.850633 Y66.437190 Z-0.125000
G01 X64.850633 Y66.437190 Z-0.125000
G00 Z5.000000

(End cutting path id: path868)


(Start cutting path id: path872)
(DuduZanette)
(Change tool to Default tool)

G00 Z5.000000
G00 X57.782400 Y88.896266

G01 Z-0.125000 F100.0(Penetrate)
G02 X58.314647 Y89.196852 Z-0.125000 I2.540753 J-3.877399 F400.000000
G01 X58.491403 Y89.237132 Z-0.125000
G01 X58.659549 Y89.291900 Z-0.125000
G03 X59.606900 Y90.050062 Z-0.125000 I-7.915391 J10.861527
G02 X60.581297 Y90.788215 Z-0.125000 I5.621286 J-6.408164
G02 X61.536175 Y91.304578 Z-0.125000 I3.664739 J-5.635896
G03 X62.456959 Y91.799485 Z-0.125000 I-2.692788 J6.114010
G01 X62.538721 Y91.949274 Z-0.125000
G02 X63.115804 Y93.092425 Z-0.125000 I1.420782 J-0.000000
G02 X64.869305 Y93.669439 Z-0.125000 I1.753501 J-2.375868
G03 X65.662490 Y93.873050 Z-0.125000 I0.000000 J1.646773
G03 X67.605461 Y95.173258 Z-0.125000 I-6.465286 J11.763271
G02 X68.401554 Y95.683893 Z-0.125000 I2.783177 J-3.463155
G02 X69.472722 Y96.107000 Z-0.125000 I2.947147 J-5.893733
G03 X70.555719 Y96.517543 Z-0.125000 I-2.239457 J7.541340
G03 X71.683375 Y97.136993 Z-0.125000 I-4.100700 J8.801103
G02 X72.800748 Y97.786059 Z-0.125000 I8.211564 J-12.849961
G02 X73.936082 Y98.320861 Z-0.125000 I6.690831 J-12.731502
G03 X75.080628 Y98.835210 Z-0.125000 I-9.401612 J22.451370
G03 X75.354811 Y99.002932 Z-0.125000 I-0.691520 J1.438428
G02 X76.325554 Y99.452280 Z-0.125000 I1.508014 J-1.984582
G02 X83.644947 Y100.832917 Z-0.125000 I26.049809 J-118.009959
G02 X87.931342 Y101.133269 Z-0.125000 I3.892093 J-24.808770
G02 X89.477802 Y100.741338 Z-0.125000 I-0.054356 J-3.461409
G03 X90.098366 Y100.491020 Z-0.125000 I1.592217 J3.052901
G03 X90.554085 Y100.424744 Z-0.125000 I0.460212 J1.564528
G02 X92.517746 Y100.104915 Z-0.125000 I-0.017929 J-6.298162
G02 X96.346357 Y98.504668 Z-0.125000 I-8.616114 J-25.994269
G03 X97.148039 Y98.151322 Z-0.125000 I3.517602 J6.894733
G01 X97.421629 Y98.101747 Z-0.125000
G01 X97.672994 Y98.021745 Z-0.125000
G02 X98.309959 Y97.472548 Z-0.125000 I-2.554840 J-3.607113
G03 X98.942914 Y96.878670 Z-0.125000 I5.887550 J5.640702
G03 X99.721350 Y96.283013 Z-0.125000 I6.700963 J7.950697
G02 X100.301494 Y95.603039 Z-0.125000 I-0.996042 J-1.437281
G02 X100.529936 Y94.600091 Z-0.125000 I-2.087441 J-1.002948
G02 X100.291888 Y93.678515 Z-0.125000 I-1.902911 J-0.000000
G01 X99.843984 Y93.360906 Z-0.125000
G02 X99.154597 Y93.291246 Z-0.125000 I-0.858242 J5.047507
G02 X97.469531 Y93.282547 Z-0.125000 I-0.998825 J30.269438
G03 X87.203907 Y93.136745 Z-0.125000 I-3.155011 J-139.325472
G03 X83.011760 Y92.544004 Z-0.125000 I1.209564 J-23.675418
G02 X81.631206 Y92.276945 Z-0.125000 I-4.130226 J17.649184
G02 X79.951357 Y92.074315 Z-0.125000 I-3.981160 J25.940342
G03 X78.273786 Y91.877521 Z-0.125000 I2.558421 J-29.057866
G03 X77.827738 Y91.762600 Z-0.125000 I0.314836 J-2.145074
G02 X77.380723 Y91.649808 Z-0.125000 I-0.727820 J1.942291
G02 X73.923086 Y91.229069 Z-0.125000 I-16.029358 J117.311619
G03 X70.485881 Y90.706781 Z-0.125000 I4.155710 J-38.920263
G03 X67.949759 Y90.047893 Z-0.125000 I4.313265 J-21.812522
G02 X65.437754 Y89.289131 Z-0.125000 I-20.410976 J63.036256
G02 X65.060109 Y89.237157 Z-0.125000 I-0.377645 J1.345992
G01 X64.709742 Y89.173524 Z-0.125000
G01 X64.557589 Y89.048397 Z-0.125000
G01 X64.399044 Y88.924972 Z-0.125000
G02 X63.648127 Y88.761411 Z-0.125000 I-1.269818 J4.024278
G03 X60.363407 Y88.167754 Z-0.125000 I3.696314 J-29.835845
G03 X58.908383 Y87.629876 Z-0.125000 I1.507697 J-6.315449
G02 X57.828276 Y87.436819 Z-0.125000 I-0.855491 J1.668265
G01 X57.395200 Y87.812487 Z-0.125000
G02 X57.420586 Y88.436729 Z-0.125000 I1.012895 J0.271446
G01 X57.782400 Y88.896291 Z-0.125000
G01 X57.782400 Y88.896266 Z-0.125000
G00 Z5.000000

(End cutting path id: path872)


(Start cutting path id: path876)
(DuduZanette)
(Change tool to Default tool)

G00 Z5.000000
G00 X51.131986 Y111.609747

G01 Z-0.125000 F100.0(Penetrate)
G01 X51.623809 Y111.760469 Z-0.125000 F400.000000
G03 X53.251982 Y113.043816 Z-0.125000 I-7.987441 J11.808108
G02 X56.583086 Y115.914948 Z-0.125000 I51.310847 J-56.163195
G01 X56.941009 Y116.042055 Z-0.125000
G01 X57.178674 Y116.109785 Z-0.125000
G03 X57.496452 Y116.386626 Z-0.125000 I-0.691199 J1.114212
G02 X57.809607 Y116.701241 Z-0.125000 I1.893283 J-1.571343
G02 X58.441130 Y117.178110 Z-0.125000 I5.021314 J-5.993180
G03 X59.091219 Y117.637035 Z-0.125000 I-12.014325 J17.708742
G03 X60.660990 Y118.807884 Z-0.125000 I-76.679172 J104.442384
G02 X62.274286 Y119.903838 Z-0.125000 I11.398729 J-15.044074
G02 X63.860419 Y120.747654 Z-0.125000 I8.304298 J-13.697054
G03 X65.474226 Y121.546751 Z-0.125000 I-14.004180 J30.311129
G03 X66.100745 Y121.933259 Z-0.125000 I-2.609507 J4.930972
G02 X69.171785 Y123.725575 Z-0.125000 I11.412410 J-16.027384
G02 X72.455522 Y124.907899 Z-0.125000 I8.035552 J-17.166379
G03 X73.189473 Y125.125653 Z-0.125000 I-2.743286 J10.592184
G03 X75.624580 Y125.970099 Z-0.125000 I-39.390132 J117.521540
G02 X78.064447 Y126.799237 Z-0.125000 I26.177446 J-73.026753
G02 X79.534708 Y127.226825 Z-0.125000 I8.380055 J-26.073273
G03 X81.008764 Y127.642402 Z-0.125000 I-9.794152 J37.562006
G03 X82.278516 Y128.059158 Z-0.125000 I-8.576976 J28.274596
G02 X83.934916 Y128.617148 Z-0.125000 I19.661894 J-55.629096
G02 X86.988912 Y129.568627 Z-0.125000 I60.293135 J-188.147874
G03 X88.520247 Y130.083961 Z-0.125000 I-7.626759 J25.196083
G03 X89.302453 Y130.427094 Z-0.125000 I-2.559522 J6.897825
G02 X90.077758 Y130.767778 Z-0.125000 I3.349258 J-6.569461
G01 X90.347651 Y130.816412 Z-0.125000
G02 X90.624508 Y130.781993 Z-0.125000 I0.000000 J-1.130691
G02 X93.205134 Y130.094770 Z-0.125000 I-25.368171 J-100.450297
G03 X95.788220 Y129.405426 Z-0.125000 I29.189487 J104.193463
G03 X96.566301 Y129.242129 Z-0.125000 I2.352161 J9.272254
G02 X97.309515 Y129.018420 Z-0.125000 I-0.503769 J-3.020064
G02 X97.938205 Y128.630389 Z-0.125000 I-1.130213 J-2.534498
G03 X98.552359 Y128.190612 Z-0.125000 I3.681932 J4.493142
G03 X99.992939 Y127.352540 Z-0.125000 I14.937085 J24.018499
G02 X101.839373 Y126.141854 Z-0.125000 I-6.359324 J-11.712051
G02 X104.792072 Y123.602504 Z-0.125000 I-25.529064 J-32.670960
G02 X105.561034 Y122.518955 Z-0.125000 I-2.339207 J-2.474693
G02 X105.689509 Y121.597412 Z-0.125000 I-1.524278 J-0.682231
G02 X105.480421 Y120.606608 Z-0.125000 I-7.809353 J1.130530
G01 X105.331892 Y120.316065 Z-0.125000
G01 X105.061786 Y120.176344 Z-0.125000
G02 X100.662388 Y120.050143 Z-0.125000 I-4.435799 J77.888179
G03 X96.210703 Y119.927925 Z-0.125000 I0.042982 J-82.700811
G03 X92.826155 Y119.623382 Z-0.125000 I2.611840 J-47.986212
G02 X89.444964 Y119.241547 Z-0.125000 I-16.791396 J133.528278
G02 X86.555702 Y118.995430 Z-0.125000 I-9.740557 J97.266156
G03 X83.679696 Y118.690658 Z-0.125000 I2.861920 J-40.728867
G03 X82.127640 Y118.366872 Z-0.125000 I1.723997 J-12.145682
G02 X80.583710 Y118.010121 Z-0.125000 I-4.894247 J17.661822
G02 X79.840524 Y117.941615 Z-0.125000 I-0.743186 J3.996981
G03 X77.990049 Y117.747519 Z-0.125000 I0.000000 J-8.918085
G03 X72.671080 Y116.420886 Z-0.125000 I16.063648 J-75.731410
G02 X70.444698 Y115.838829 Z-0.125000 I-13.174286 J45.842938
G02 X69.247301 Y115.613498 Z-0.125000 I-3.068825 J13.013465
G03 X66.968673 Y115.068824 Z-0.125000 I1.742438 J-12.328046
G03 X64.635699 Y114.039805 Z-0.125000 I4.763310 J-13.958448
G02 X60.880455 Y112.409219 Z-0.125000 I-10.685488 J19.469241
G02 X58.522331 Y112.031872 Z-0.125000 I-2.358124 J7.179547
G03 X58.121975 Y111.963778 Z-0.125000 I-0.000000 J-1.210984
G03 X57.317290 Y111.609747 Z-0.125000 I1.876222 J-5.356023
G02 X56.517278 Y111.237101 Z-0.125000 I-3.718353 J6.937644
G01 X56.259885 Y111.187623 Z-0.125000
G01 X55.999717 Y111.148805 Z-0.125000
G03 X55.623573 Y110.993421 Z-0.125000 I0.622780 J-2.040547
G02 X54.028792 Y110.295116 Z-0.125000 I-5.472920 J10.328780
G02 X52.292064 Y109.821767 Z-0.125000 I-4.145601 J11.787585
G01 X51.761492 Y109.919637 Z-0.125000
G02 X51.289518 Y110.448656 Z-0.125000 I0.671955 J1.074547
G02 X50.991217 Y111.448590 Z-0.125000 I3.049225 J1.454108
G01 X51.131986 Y111.609747 Z-0.125000
G01 X51.131986 Y111.609747 Z-0.125000
G00 Z5.000000

(End cutting path id: path876)


(Start cutting path id: path880)
(DuduZanette)
(Change tool to Default tool)

G00 Z5.000000
G00 X40.811732 Y136.208433

G01 Z-0.125000 F100.0(Penetrate)
G03 X41.612666 Y137.082862 Z-0.125000 I-7.254427 J7.448717 F400.000000
G03 X41.921729 Y137.568488 Z-0.125000 I-1.898318 J1.549290
G02 X42.244696 Y138.025083 Z-0.125000 I1.519121 J-0.732013
G02 X42.700789 Y138.352485 Z-0.125000 I1.205336 J-1.197732
G03 X43.200761 Y138.649635 Z-0.125000 I-1.611840 J3.281198
G03 X43.946530 Y139.234085 Z-0.125000 I-5.605718 J7.921036
G02 X44.710293 Y139.792878 Z-0.125000 I3.783689 J-4.370224
G02 X46.584808 Y140.850523 Z-0.125000 I15.622188 J-25.497987
G03 X48.472569 Y141.877324 Z-0.125000 I-24.142391 J46.634178
G01 X48.608613 Y142.005598 Z-0.125000
G01 X48.742513 Y142.136063 Z-0.125000
G02 X49.663923 Y142.654166 Z-0.125000 I7.131442 J-11.604399
G03 X50.591119 Y143.167355 Z-0.125000 I-7.537132 J14.711765
G01 X50.719235 Y143.283306 Z-0.125000
G02 X51.744583 Y144.192505 Z-0.125000 I2.665106 J-1.972805
G02 X55.338914 Y145.911746 Z-0.125000 I13.861572 J-24.362823
G03 X56.868692 Y146.577479 Z-0.125000 I-8.621645 J21.902039
G03 X57.344005 Y146.870226 Z-0.125000 I-1.136484 J2.377473
G02 X57.815158 Y147.162235 Z-0.125000 I1.643998 J-2.126467
G02 X58.322137 Y147.344568 Z-0.125000 I1.107927 J-2.284610
G03 X58.829093 Y147.535502 Z-0.125000 I-0.529477 J2.174313
G03 X60.605216 Y148.537593 Z-0.125000 I-14.691778 J28.115024
G02 X62.375857 Y149.529958 Z-0.125000 I15.063497 J-24.801414
G01 X62.668607 Y149.600956 Z-0.125000
G01 X62.969381 Y149.652767 Z-0.125000
G03 X63.847739 Y150.019599 Z-0.125000 I-2.926235 J8.241704
G02 X64.732816 Y150.379484 Z-0.125000 I3.254934 J-6.736683
G02 X65.473275 Y150.562444 Z-0.125000 I1.510418 J-4.522968
G03 X66.223091 Y150.718842 Z-0.125000 I-1.423461 J8.700081
G03 X66.654435 Y150.862892 Z-0.125000 I-0.766226 J3.012222
G02 X68.468573 Y151.513359 Z-0.125000 I7.249707 J-17.364249
G02 X69.768733 Y151.802576 Z-0.125000 I2.596480 J-8.605330
G03 X70.751813 Y152.012509 Z-0.125000 I-1.104043 J7.576835
G03 X71.351700 Y152.251034 Z-0.125000 I-0.860949 J3.038887
G02 X71.942699 Y152.505938 Z-0.125000 I2.023539 J-3.879039
G01 X72.227525 Y152.554531 Z-0.125000
G03 X74.129202 Y152.851110 Z-0.125000 I-0.030537 J6.440926
G03 X77.629672 Y154.254039 Z-0.125000 I-7.401024 J23.534896
G02 X78.063455 Y154.431624 Z-0.125000 I1.500286 J-3.046144
G02 X79.496592 Y154.871654 Z-0.125000 I10.904697 J-32.961739
G03 X80.914636 Y155.332197 Z-0.125000 I-5.394597 J19.023743
G01 X81.201785 Y155.497454 Z-0.125000
G02 X82.880752 Y156.173582 Z-0.125000 I1.895199 J-2.283497
G02 X87.162081 Y155.932923 Z-0.125000 I1.213662 J-16.611759
G02 X93.970016 Y154.535466 Z-0.125000 I-37.142907 J-198.229262
G02 X94.454524 Y154.304603 Z-0.125000 I-0.262145 J-1.174004
G03 X94.746459 Y154.134096 Z-0.125000 I0.746570 J0.943074
G03 X95.253371 Y153.978470 Z-0.125000 I1.118252 J2.739037
G02 X95.766865 Y153.822821 Z-0.125000 I-0.645244 J-3.053544
G02 X98.419314 Y152.712512 Z-0.125000 I-33.251335 J-83.158455
G02 X100.977559 Y151.432892 Z-0.125000 I-11.181673 J-25.551720
G02 X102.112903 Y150.621650 Z-0.125000 I-3.269749 J-5.776140
G03 X103.200138 Y149.728118 Z-0.125000 I12.355141 J13.925301
G03 X104.133665 Y149.085108 Z-0.125000 I7.310554 J9.614375
G02 X104.961927 Y148.364191 Z-0.125000 I-1.819498 J-2.926673
G02 X105.663867 Y147.248277 Z-0.125000 I-3.816579 J-3.179457
G02 X106.190564 Y146.003386 Z-0.125000 I-21.841674 J-9.974800
G01 X106.228617 Y145.801221 Z-0.125000
G01 X106.125717 Y145.693671 Z-0.125000
G02 X101.468132 Y145.590773 Z-0.125000 I-4.657585 J105.359141
G02 X96.748597 Y145.777634 Z-0.125000 I0.000000 J59.693860
G02 X95.716686 Y146.046942 Z-0.125000 I0.240591 J3.033532
G01 X94.725715 Y146.503102 Z-0.125000
G01 X89.554690 Y145.736215 Z-0.125000
G03 X83.649089 Y144.788209 Z-0.125000 I36.754912 J-247.833031
G03 X80.690075 Y144.204468 Z-0.125000 I10.849551 J-62.788545
G02 X79.310607 Y143.942303 Z-0.125000 I-4.966286 J22.371445
G02 X75.519049 Y143.384998 Z-0.125000 I-26.718439 J168.599250
G03 X71.730725 Y142.820409 Z-0.125000 I19.449097 J-143.492938
G03 X70.982607 Y142.647452 Z-0.125000 I0.933781 J-5.743485
G02 X70.236968 Y142.481141 Z-0.125000 I-1.498267 J4.962665
G02 X69.465501 Y142.424839 Z-0.125000 I-0.771467 J5.257359
G03 X67.550867 Y142.223769 Z-0.125000 I-0.000000 J-9.216313
G03 X65.339442 Y141.548557 Z-0.125000 I2.761878 J-13.004570
G02 X63.845823 Y141.031514 Z-0.125000 I-5.897569 J14.620845
G02 X60.428098 Y140.119757 Z-0.125000 I-22.051442 J75.798367
G03 X58.861662 Y139.682056 Z-0.125000 I5.618877 J-23.130513
G03 X57.051102 Y139.050486 Z-0.125000 I9.987686 J-31.543330
G02 X55.230628 Y138.466799 Z-0.125000 I-6.274744 J16.439654
G02 X53.357513 Y138.084045 Z-0.125000 I-4.454099 J17.022688
G03 X50.643823 Y137.378074 Z-0.125000 I1.920571 J-12.951076
G03 X48.561440 Y136.268926 Z-0.125000 I3.280925 J-8.669187
G02 X47.939863 Y135.977452 Z-0.125000 I-1.118314 J1.576333
G02 X45.817630 Y135.539216 Z-0.125000 I-4.949352 J18.610320
G03 X43.674878 Y135.120121 Z-0.125000 I3.498553 J-23.574716
G03 X42.320237 Y134.687164 Z-0.125000 I2.393510 J-9.824536
G02 X41.012768 Y134.365474 Z-0.125000 I-1.807916 J4.530176
G01 X40.473443 Y134.496677 Z-0.125000
G01 X40.215885 Y135.109571 Z-0.125000
G02 X40.811732 Y136.208433 Z-0.125000 I2.063125 J-0.407732
G01 X40.811732 Y136.208433 Z-0.125000
G00 Z5.000000

(End cutting path id: path880)


(Start cutting path id: path884)
(DuduZanette)
(Change tool to Default tool)

G00 Z5.000000
G00 X40.060583 Y173.316256

G01 Z-0.125000 F100.0(Penetrate)
G01 X40.254544 Y173.522059 Z-0.125000 F400.000000
G03 X40.377177 Y174.313965 Z-0.125000 I-2.495568 J0.791906
G02 X40.558359 Y177.113205 Z-0.125000 I21.714478 J0.000000
G02 X41.444803 Y182.526663 Z-0.125000 I82.344454 J-10.704441
G03 X41.651546 Y183.691333 Z-0.125000 I-29.512507 J5.839509
G03 X41.976006 Y185.903659 Z-0.125000 I-106.203965 J16.705886
G02 X42.277783 Y188.119777 Z-0.125000 I9411.743984 J-1280.335918
G02 X42.479423 Y189.597249 Z-0.125000 I4101.908119 J-559.109332
G02 X42.828832 Y191.403074 Z-0.125000 I16.481320 J-2.252249
G02 X43.571380 Y193.938085 Z-0.125000 I33.274006 J-8.370266
G03 X43.915030 Y195.121165 Z-0.125000 I-14.332102 J4.804515
G03 X43.965235 Y195.534173 Z-0.125000 I-1.673704 J0.413008
G02 X44.029806 Y195.940583 Z-0.125000 I1.311265 J-0.000000
G02 X44.387359 Y196.829066 Z-0.125000 I6.752674 J-2.201305
G03 X44.745054 Y197.717504 Z-0.125000 I-6.409704 J3.096839
G03 X44.809484 Y198.122627 Z-0.125000 I-1.241455 J0.405123
G02 X44.876193 Y198.505294 Z-0.125000 I1.130907 J-0.000000
G01 X45.003595 Y198.662447 Z-0.125000
G03 X45.484433 Y199.306686 Z-0.125000 I-0.575458 J0.931062
G03 X46.268871 Y203.322197 Z-0.125000 I-27.359762 J7.429166
G02 X46.560475 Y204.989908 Z-0.125000 I16.044417 J-1.946057
G02 X46.801480 Y205.643881 Z-0.125000 I2.669621 J-0.612423
G03 X47.077197 Y206.283875 Z-0.125000 I-4.186490 J2.182985
G01 X47.129872 Y206.593569 Z-0.125000
G01 X47.190705 Y206.897046 Z-0.125000
G02 X47.452897 Y207.375297 Z-0.125000 I2.305631 J-0.953022
G03 X48.680399 Y209.726202 Z-0.125000 I-8.390615 J5.876991
G03 X49.029690 Y211.676315 Z-0.125000 I-5.367274 J1.967690
G01 X49.093846 Y212.000201 Z-0.125000
G02 X49.632979 Y213.153750 Z-0.125000 I11.884545 J-4.851697
G03 X50.139089 Y214.298815 Z-0.125000 I-7.836373 J4.148000
G01 X50.140384 Y214.563363 Z-0.125000
G01 X50.166383 Y215.218333 Z-0.125000
G02 X51.172520 Y216.905514 Z-0.125000 I7.346715 J-3.237563
G03 X51.467378 Y217.441809 Z-0.125000 I-1.539149 J1.195439
G03 X51.563475 Y217.993316 Z-0.125000 I-1.534516 J0.551507
G02 X51.668363 Y218.550173 Z-0.125000 I1.530640 J0.000000
G02 X52.302193 Y219.884691 Z-0.125000 I9.691647 J-3.785274
G03 X53.000684 Y221.202202 Z-0.125000 I-24.061543 J13.600370
G01 X53.040911 Y221.373812 Z-0.125000
G01 X53.081158 Y221.545955 Z-0.125000
G02 X54.309786 Y223.939050 Z-0.125000 I80.562916 J-39.849489
G03 X55.560583 Y226.330728 Z-0.125000 I-160.665511 J85.547610
G03 X55.794700 Y226.830410 Z-0.125000 I-6.764504 J3.474070
G02 X56.057390 Y227.309410 Z-0.125000 I2.525439 J-1.073452
G02 X56.617834 Y228.030149 Z-0.125000 I6.319508 J-4.335760
G03 X57.164628 Y228.755365 Z-0.125000 I-4.585470 J4.026064
G03 X57.376878 Y229.210328 Z-0.125000 I-1.568149 J1.008565
G02 X58.591263 Y231.708359 Z-0.125000 I8.813452 J-2.740353
G01 X59.386996 Y232.126303 Z-0.125000
G01 X59.502353 Y232.193729 Z-0.125000
G03 X59.783419 Y232.830204 Z-0.125000 I-3.128137 J1.761678
G02 X60.098737 Y233.481742 Z-0.125000 I2.611900 J-0.861983
G02 X60.644038 Y234.136073 Z-0.125000 I3.179901 J-2.095656
G03 X61.167051 Y234.784275 Z-0.125000 I-2.258926 J2.357752
G01 X61.281496 Y235.173427 Z-0.125000
G02 X61.367091 Y235.586530 Z-0.125000 I1.155801 J-0.024063
G02 X61.804133 Y236.453079 Z-0.125000 I5.669570 J-2.315948
G03 X62.308292 Y237.302697 Z-0.125000 I-38.808463 J23.603157
G03 X62.735499 Y238.062262 Z-0.125000 I-30.578318 J17.698258
G02 X63.961080 Y239.594821 Z-0.125000 I4.958175 J-2.708707
G02 X64.864136 Y239.935607 Z-0.125000 I0.903056 J-1.026123
G03 X65.223708 Y239.996422 Z-0.125000 I0.000000 J1.093401
G01 X65.365517 Y240.110199 Z-0.125000
G01 X65.512928 Y240.232554 Z-0.125000
G02 X66.802643 Y240.664668 Z-0.125000 I5.451125 J-14.129021
G03 X68.118060 Y241.082638 Z-0.125000 I-6.474842 J22.656216
G03 X69.058932 Y241.455063 Z-0.125000 I-4.187566 J11.953919
G02 X70.005752 Y241.806299 Z-0.125000 I3.318882 J-7.494872
G02 X71.802741 Y242.284584 Z-0.125000 I8.043312 J-26.604988
G02 X74.701596 Y242.872364 Z-0.125000 I12.487472 J-54.144322
G01 X74.780323 Y242.806230 Z-0.125000
G01 X74.763014 Y242.676581 Z-0.125000
G02 X74.329132 Y241.146542 Z-0.125000 I-70.492932 J19.163587
G03 X73.961018 Y239.603515 Z-0.125000 I14.351507 J-4.239205
G03 X73.739637 Y237.928298 Z-0.125000 I16.704604 J-3.059765
G02 X73.543941 Y236.256461 Z-0.125000 I-24.012222 J1.963352
G01 X73.442355 Y235.980336 Z-0.125000
G01 X73.335550 Y235.704933 Z-0.125000
G03 X73.104530 Y234.188523 Z-0.125000 I21.435108 J-4.041363
G02 X72.396685 Y231.935383 Z-0.125000 I-6.263444 J0.729962
G01 X71.657217 Y231.493116 Z-0.125000
G03 X70.855969 Y231.425025 Z-0.125000 I0.000000 J-4.748331
G03 X69.910726 Y231.194114 Z-0.125000 I1.173080 J-6.852179
G02 X68.971698 Y230.911609 Z-0.125000 I-8.592383 J26.858688
G02 X68.430116 Y230.776610 Z-0.125000 I-2.479084 J8.791609
G03 X66.806327 Y229.944771 Z-0.125000 I0.753491 J-3.471627
G03 X66.337833 Y228.892397 Z-0.125000 I0.947723 J-1.052374
G01 X66.403508 Y228.608263 Z-0.125000
G03 X66.716091 Y228.117890 Z-0.125000 I2.313255 J1.129745
G01 X67.159523 Y227.861822 Z-0.125000
G03 X67.983055 Y227.917023 Z-0.125000 I0.290709 J1.833610
G02 X68.872273 Y228.048637 Z-0.125000 I0.897923 J-2.996902
G02 X69.768193 Y227.922009 Z-0.125000 I0.008821 J-3.170310
G02 X71.344867 Y227.076074 Z-0.125000 I-1.208087 J-4.143949
G01 X71.675514 Y226.311513 Z-0.125000
G03 X71.631269 Y225.477877 Z-0.125000 I2002.847420 J-106.757738
G03 X71.489306 Y222.789513 Z-0.125000 I22873.362925 J-1207.603177
G02 X71.246601 Y220.154743 Z-0.125000 I-33.742697 J1.779686
G01 X71.111587 Y219.922989 Z-0.125000
G02 X68.968430 Y218.813615 Z-0.125000 I-4.319061 J5.719004
G02 X66.355108 Y218.407305 Z-0.125000 I-2.613322 J8.201074
G01 X65.571062 Y218.407305 Z-0.125000
G01 X65.730938 Y217.193697 Z-0.125000
G03 X65.949299 Y215.993315 Z-0.125000 I12.360686 J1.628485
G03 X66.325394 Y214.642146 Z-0.125000 I16.043797 J3.737816
G02 X66.710063 Y213.296294 Z-0.125000 I-18.676400 J-6.065967
G02 X66.759957 Y212.887238 Z-0.125000 I-1.651876 J-0.409056
G03 X66.816921 Y212.481434 Z-0.125000 I1.473933 J-0.000000
G03 X67.162579 Y211.481372 Z-0.125000 I9.447881 J2.705769
G02 X67.559361 Y210.490156 Z-0.125000 I-84.111351 J-34.244647
G02 X68.050021 Y209.226088 Z-0.125000 I-136.334222 J-53.646679
G03 X68.569708 Y207.978899 Z-0.125000 I21.625676 J8.279264
G03 X68.755177 Y207.663812 Z-0.125000 I1.545416 J0.697543
G02 X68.941061 Y207.350064 Z-0.125000 I-1.392607 J-1.037007
G02 X69.186874 Y206.721661 Z-0.125000 I-5.405097 J-2.476595
G03 X70.203310 Y205.319821 Z-0.125000 I2.686894 J0.878780
G03 X75.571806 Y202.044961 Z-0.125000 I22.032349 J30.080014
G02 X76.581286 Y201.431709 Z-0.125000 I-3.199199 J-6.403706
G01 X76.675155 Y201.243017 Z-0.125000
G01 X76.625585 Y201.005583 Z-0.125000
G02 X76.046697 Y199.728287 Z-0.125000 I-20.158471 J8.366268
G03 X75.507914 Y198.441741 Z-0.125000 I10.253772 J-5.050184
G03 X75.418246 Y197.926123 Z-0.125000 I1.519299 J-0.529818
G02 X75.339239 Y197.408530 Z-0.125000 I-1.836723 J0.015537
G02 X75.024515 Y196.627334 Z-0.125000 I-4.559784 J1.383021
G03 X74.681318 Y195.846685 Z-0.125000 I6.635707 J-3.383026
G03 X74.358581 Y194.841439 Z-0.125000 I10.695346 J-3.988208
G02 X74.046806 Y193.835312 Z-0.125000 I-14.092723 J3.815634
G01 X73.926825 Y193.607481 Z-0.125000
G01 X73.825178 Y193.375074 Z-0.125000
G03 X73.534300 Y191.585032 Z-0.125000 I29.091473 J-5.645967
G02 X72.782149 Y188.223970 Z-0.125000 I-19.066328 J2.502041
G01 X72.337726 Y187.847360 Z-0.125000
G01 X71.949638 Y187.909341 Z-0.125000
G02 X70.955493 Y188.535025 Z-0.125000 I2.616892 J5.260602
G03 X69.927602 Y189.037585 Z-0.125000 I-1.709818 J-2.194648
G03 X68.695124 Y189.106504 Z-0.125000 I-0.793717 J-3.139365
G03 X67.460237 Y188.799473 Z-0.125000 I0.801423 J-5.860229
G03 X66.919825 Y188.455518 Z-0.125000 I0.516058 J-1.407335
G02 X65.311559 Y187.214292 Z-0.125000 I-5.749398 J5.787002
G02 X64.376134 Y186.956743 Z-0.125000 I-0.944528 J1.603030
G01 X63.957797 Y186.836958 Z-0.125000
G03 X63.066368 Y186.151184 Z-0.125000 I2.813933 J-4.580059
G02 X62.178280 Y185.406924 Z-0.125000 I-6.341210 J6.664663
G02 X61.133835 Y184.728792 Z-0.125000 I-6.298866 J8.558000
G03 X58.475532 Y182.925626 Z-0.125000 I10.088718 J-17.734291
G03 X57.722239 Y181.999058 Z-0.125000 I1.761666 J-2.201716
G02 X56.339808 Y180.004128 Z-0.125000 I-7.940441 J4.026045
G02 X54.427997 Y178.410999 Z-0.125000 I-6.894316 J6.329739
G03 X53.768951 Y177.972421 Z-0.125000 I8.168083 J-12.988538
G03 X53.451602 Y177.724249 Z-0.125000 I2.286653 J-3.251046
G02 X53.140294 Y177.467170 Z-0.125000 I-5.489463 J6.330391
G02 X51.840557 Y176.457876 Z-0.125000 I-85.980767 J109.381753
G03 X49.800099 Y174.472502 Z-0.125000 I7.399793 J-9.646322
G03 X48.949985 Y172.895934 Z-0.125000 I3.736601 J-3.032325
G02 X48.730943 Y172.505119 Z-0.125000 I-1.056744 J0.335486
G02 X47.215776 Y170.895770 Z-0.125000 I-20.385179 J17.674277
G03 X45.621800 Y169.334635 Z-0.125000 I1823.445605 J-1863.399984
G03 X45.193243 Y168.913198 Z-0.125000 I131.123680 J-133.767559
G03 X44.787552 Y168.472678 Z-0.125000 I4.389624 J-4.449640
G03 X44.458389 Y168.034256 Z-0.125000 I4.020344 J-3.361205
G02 X43.290285 Y167.232195 Z-0.125000 I-1.595579 J1.072137
G02 X41.345263 Y167.324189 Z-0.125000 I-0.807283 J3.539414
G02 X40.710962 Y167.906242 Z-0.125000 I0.328117 J0.994217
G02 X40.269884 Y169.835232 Z-0.125000 I5.084730 J2.177584
G03 X40.136822 Y171.220077 Z-0.125000 I-13.682966 J-0.615905
G03 X39.975452 Y171.829047 Z-0.125000 I-2.777335 J-0.410095
G02 X39.796983 Y172.955362 Z-0.125000 I2.497975 J0.973112
G01 X40.060583 Y173.316297 Z-0.125000
G01 X40.060583 Y173.316256 Z-0.125000
G00 Z5.000000

(End cutting path id: path884)


(Start cutting path id: path860)
(DuduZanette)
(Change tool to Default tool)

G00 Z5.000000
G00 X72.696150 Y219.884691

G01 Z-0.125000 F100.0(Penetrate)
G02 X72.913489 Y220.617284 Z-0.125000 I14.922992 J-4.028680 F400.000000
G02 X73.071990 Y221.045536 Z-0.125000 I5.253595 J-1.700965
G03 X73.525776 Y222.565048 Z-0.125000 I-6.938765 J2.899701
G03 X74.786015 Y230.226202 Z-0.125000 I-177.196535 J33.082584
G02 X75.080654 Y231.774051 Z-0.125000 I16.740421 J-2.384639
G01 X75.212477 Y232.009678 Z-0.125000
G01 X75.348912 Y232.237495 Z-0.125000
G03 X75.413518 Y232.674068 Z-0.125000 I-1.442766 J0.436573
G02 X75.521083 Y233.268072 Z-0.125000 I1.693909 J-0.000000
G02 X76.986622 Y236.875203 Z-0.125000 I65.992916 J-24.710925
G03 X77.243874 Y237.516077 Z-0.125000 I-9.938645 J4.361526
G03 X77.525761 Y238.352639 Z-0.125000 I-16.660019 J6.079518
G02 X77.808824 Y239.188078 Z-0.125000 I15.864370 J-4.909494
G02 X77.972183 Y239.563384 Z-0.125000 I3.353435 J-1.236434
G03 X78.121948 Y239.938308 Z-0.125000 I-2.055768 J1.038562
G01 X78.157327 Y240.178674 Z-0.125000
G01 X78.233769 Y240.395702 Z-0.125000
G02 X79.159873 Y241.425307 Z-0.125000 I9.775854 J-7.861831
G03 X81.546355 Y244.081393 Z-0.125000 I-22.595528 J22.702157
G01 X81.745386 Y244.647451 Z-0.125000
G02 X81.802829 Y245.203519 Z-0.125000 I2.720196 J-0.000000
G02 X81.941041 Y245.584386 Z-0.125000 I1.398919 J-0.292139
G03 X82.119291 Y245.958096 Z-0.125000 I-4.032861 J2.152938
G03 X82.241847 Y246.296342 Z-0.125000 I-3.179260 J1.343263
G01 X83.100171 Y246.985587 Z-0.125000
G02 X87.682069 Y246.720406 Z-0.125000 I1.319163 J-16.923433
G03 X91.683099 Y246.035250 Z-0.125000 I16.382104 J83.640046
G03 X94.251656 Y245.755824 Z-0.125000 I5.015929 J34.162561
G02 X95.849583 Y245.498485 Z-0.125000 I-0.647288 J-9.109088
G02 X97.100996 Y245.033098 Z-0.125000 I-1.527854 J-6.023557
G03 X98.331310 Y244.469295 Z-0.125000 I8.909723 J17.818248
G03 X99.419372 Y244.064559 Z-0.125000 I5.650608 J13.525749
G02 X100.483643 Y243.649957 Z-0.125000 I-3.235477 J-9.878644
G01 X100.645438 Y243.507527 Z-0.125000
G01 X100.804886 Y243.382565 Z-0.125000
G03 X101.249673 Y243.312603 Z-0.125000 I0.444787 J1.378898
G02 X101.713387 Y243.232216 Z-0.125000 I0.000000 J-1.377662
G02 X102.725821 Y242.784947 Z-0.125000 I-2.564679 J-7.174894
G03 X103.728989 Y242.300586 Z-0.125000 I6.728233 J12.653914
G01 X103.936720 Y242.257292 Z-0.125000
G01 X104.146373 Y242.217000 Z-0.125000
G02 X105.523253 Y241.624105 Z-0.125000 I-10.337498 J-25.901961
G03 X106.895368 Y241.009624 Z-0.125000 I25.375518 J54.823470
G01 X106.985649 Y240.990918 Z-0.125000
G01 X107.073527 Y240.967514 Z-0.125000
G02 X108.683744 Y240.017410 Z-0.125000 I-37.166761 J-64.828986
G03 X110.317983 Y239.114653 Z-0.125000 I11.848068 J19.517692
G03 X111.052310 Y238.832709 Z-0.125000 I1.812988 J3.624697
G02 X111.799204 Y238.573219 Z-0.125000 I-1.620589 J-5.869209
G02 X113.930094 Y237.618185 Z-0.125000 I-20.646334 J-48.921220
G03 X116.053242 Y236.641034 Z-0.125000 I41.791208 J88.008580
G03 X116.499370 Y236.472858 Z-0.125000 I1.650435 J3.702352
G02 X116.927454 Y236.277384 Z-0.125000 I-0.553280 J-1.778161
G02 X117.763026 Y235.689315 Z-0.125000 I-4.626395 J-7.461177
G03 X118.605115 Y235.104521 Z-0.125000 I4.947685 J6.225850
G03 X119.635623 Y234.560482 Z-0.125000 I5.303622 J8.798013
G02 X120.657045 Y234.015882 Z-0.125000 I-3.959706 J-8.656769
G02 X120.983330 Y233.732935 Z-0.125000 I-0.693300 J-1.129095
G03 X121.296592 Y233.458429 Z-0.125000 I1.015276 J0.842618
G01 X121.524804 Y233.392676 Z-0.125000
G01 X121.763715 Y233.330455 Z-0.125000
G02 X122.657975 Y232.759489 Z-0.125000 I-4.412300 J-7.896436
G03 X123.539971 Y232.150691 Z-0.125000 I13.813236 J19.068627
G01 X123.621492 Y232.126303 Z-0.125000
G01 X123.743822 Y232.082838 Z-0.125000
G02 X125.399957 Y230.679929 Z-0.125000 I-34.193170 J-42.044034
G03 X125.991754 Y230.225671 Z-0.125000 I3.622883 J4.107187
G03 X126.762701 Y229.774396 Z-0.125000 I4.345065 J6.538834
G02 X127.489227 Y229.286370 Z-0.125000 I-1.680515 J-3.286593
G02 X127.923543 Y228.775964 Z-0.125000 I-1.411411 J-1.640989
G03 X128.341364 Y228.233078 Z-0.125000 I2.750632 J1.684738
G03 X129.973123 Y226.629585 Z-0.125000 I26.021104 J24.847804
G02 X131.584721 Y225.011140 Z-0.125000 I-18.154082 J-19.688885
G02 X132.118429 Y224.283022 Z-0.125000 I-3.088038 J-2.823186
G03 X132.614411 Y223.522373 Z-0.125000 I7.366651 J4.261402
G03 X133.127439 Y222.902617 Z-0.125000 I5.392003 J3.941234
G02 X133.632907 Y222.277554 Z-0.125000 I-4.098762 J-3.831444
G02 X134.298338 Y221.221247 Z-0.125000 I-11.104053 J-7.732853
G03 X134.955538 Y220.167667 Z-0.125000 I12.948584 J7.345286
G01 X135.136121 Y219.995185 Z-0.125000
G01 X135.244026 Y219.488165 Z-0.125000
G02 X132.630970 Y216.316402 Z-0.125000 I-18.633043 J12.688561
G03 X129.945912 Y213.540303 Z-0.125000 I117.709065 J-116.535401
G01 X129.834395 Y213.356718 Z-0.125000
G01 X129.732638 Y213.165157 Z-0.125000
G02 X128.812281 Y211.989103 Z-0.125000 I-26.914168 J20.114359
G02 X127.494298 Y210.924842 Z-0.125000 I-3.215115 J2.633376
G01 X127.060912 Y211.090534 Z-0.125000
G01 X126.882198 Y211.307892 Z-0.125000
G03 X125.297060 Y212.198611 Z-0.125000 I-9.882837 J-15.731829
G01 X123.641253 Y213.025168 Z-0.125000
G01 X117.309385 Y213.006812 Z-0.125000
G03 X111.022745 Y212.767896 Z-0.125000 I0.259308 J-89.653420
G03 X109.711144 Y212.450595 Z-0.125000 I0.301229 J-4.114641
G02 X108.430204 Y211.959691 Z-0.125000 I-7.518631 J17.702076
G02 X107.706053 Y211.763130 Z-0.125000 I-1.866097 J5.442699
G03 X106.038874 Y211.129482 Z-0.125000 I1.087972 J-5.372602
G03 X105.130502 Y210.265753 Z-0.125000 I1.360860 J-2.340726
G01 X104.942100 Y210.085054 Z-0.125000
G02 X104.075190 Y209.639828 Z-0.125000 I-4.083845 J6.885148
G03 X103.217616 Y209.167943 Z-0.125000 I2.200559 J-5.014349
G03 X102.429496 Y208.531893 Z-0.125000 I3.273810 J-4.862824
G02 X101.650559 Y207.878086 Z-0.125000 I-5.243874 J5.456580
G02 X100.889780 Y207.406790 Z-0.125000 I-3.458231 J4.732683
G03 X98.725749 Y205.939924 Z-0.125000 I5.131781 J-9.900496
G01 X98.419314 Y205.269644 Z-0.125000
G01 X98.360705 Y205.077530 Z-0.125000
G02 X97.733359 Y204.250046 Z-0.125000 I-7.631965 J5.134520
G03 X96.341232 Y202.365767 Z-0.125000 I12.965069 J-11.035140
G03 X95.994756 Y201.522267 Z-0.125000 I2.175128 J-1.386364
G02 X95.793185 Y200.798706 Z-0.125000 I-6.158489 J1.325785
G02 X95.544544 Y200.213613 Z-0.125000 I-4.267541 J1.468153
G03 X95.079984 Y198.148234 Z-0.125000 I3.794096 J-1.938332
G03 X95.675495 Y195.823586 Z-0.125000 I5.472296 J0.163252
G02 X96.046597 Y194.983884 Z-0.125000 I-7.355419 J-3.752543
G01 X96.097626 Y194.703868 Z-0.125000
G01 X96.173279 Y194.445149 Z-0.125000
G03 X96.541356 Y194.010003 Z-0.125000 I1.808694 J1.156676
G02 X96.936920 Y193.571862 Z-0.125000 I-1.966968 J-2.173457
G02 X97.301772 Y192.974743 Z-0.125000 I-3.320174 J-2.438718
G03 X97.691289 Y192.394854 Z-0.125000 I2.446841 J1.222802
G03 X99.074187 Y190.951985 Z-0.125000 I16.837650 J14.753665
G02 X100.476448 Y189.539998 Z-0.125000 I-25.554755 J-26.781033
G01 X100.529936 Y189.405115 Z-0.125000
G03 X101.132798 Y187.983933 Z-0.125000 I1.976570 J0.000000
G03 X102.623889 Y187.381087 Z-0.125000 I1.491090 J1.542620
G01 X102.789838 Y187.319310 Z-0.125000
G01 X102.851621 Y187.184250 Z-0.125000
G01 X102.924551 Y187.041000 Z-0.125000
G03 X103.326511 Y186.838741 Z-0.125000 I0.816742 J1.122607
G02 X103.779615 Y186.645209 Z-0.125000 I-0.735195 J-2.348439
G02 X104.650401 Y186.108696 Z-0.125000 I-5.120623 J-9.285939
G03 X106.189515 Y185.255162 Z-0.125000 I5.291412 J7.727163
G03 X108.444771 Y184.449432 Z-0.125000 I6.948190 J15.889008
G02 X109.473360 Y183.923017 Z-0.125000 I-0.790896 J-2.813486
G01 X109.677978 Y183.468349 Z-0.125000
G02 X109.355302 Y182.105044 Z-0.125000 I-3.919564 J0.207868
G02 X107.514940 Y178.516472 Z-0.125000 I-29.808449 J13.020769
G03 X107.346373 Y178.190341 Z-0.125000 I2.682839 J-1.593303
G03 X106.952160 Y177.250099 Z-0.125000 I21.992037 J-9.773312
G02 X106.511849 Y176.343011 Z-0.125000 I-6.170543 J2.434844
G02 X106.139172 Y175.856131 Z-0.125000 I-2.118606 J1.235593
G02 X104.806140 Y175.044817 Z-0.125000 I-2.286017 J2.255266
G02 X101.479716 Y174.408136 Z-0.125000 I-4.488821 J14.444443
G03 X99.791496 Y174.274493 Z-0.125000 I32.231620 J-417.889282
G03 X97.563779 Y174.090097 Z-0.125000 I57.699419 J-710.624251
G02 X93.384366 Y174.124357 Z-0.125000 I-1.904745 J22.581126
G02 X91.489333 Y174.702910 Z-0.125000 I0.511225 J5.067338
G03 X89.069441 Y175.861763 Z-0.125000 I-13.942582 J-26.008583
G03 X88.469537 Y175.983725 Z-0.125000 I-0.599904 J-1.414413
G01 X88.222543 Y176.040670 Z-0.125000
G02 X87.455419 Y176.477584 Z-0.125000 I2.996333 J6.152797
G02 X85.521864 Y177.753661 Z-0.125000 I589.645545 J895.553880
G02 X85.011393 Y178.094348 Z-0.125000 I41.501936 J62.737612
G02 X83.464583 Y179.270427 Z-0.125000 I9.443873 J14.026069
G02 X81.803411 Y180.838157 Z-0.125000 I15.186520 J17.755641
G02 X79.668990 Y183.718243 Z-0.125000 I10.153172 J9.755429
G02 X79.212639 Y185.468414 Z-0.125000 I3.127901 J1.750171
G03 X79.161101 Y185.970190 Z-0.125000 I-2.468461 J-0.000000
G03 X78.963602 Y186.667930 Z-0.125000 I-4.994529 J-1.036911
G02 X78.607822 Y189.729566 Z-0.125000 I6.322203 J2.286167
G02 X79.598002 Y192.131192 Z-0.125000 I4.743647 J-0.550848
G03 X79.970547 Y192.744466 Z-0.125000 I-2.343491 J1.843393
G01 X80.056888 Y193.144381 Z-0.125000
G02 X80.134125 Y193.544427 Z-0.125000 I1.074631 J-0.000000
G02 X80.366493 Y193.916289 Z-0.125000 I1.155270 J-0.463368
G03 X81.732037 Y196.074187 Z-0.125000 I-5.552125 J5.024467
G03 X82.167511 Y198.262635 Z-0.125000 I-5.281212 J2.188448
G01 X82.232241 Y198.502705 Z-0.125000
G01 X82.344696 Y198.567395 Z-0.125000
G01 X82.549429 Y198.697609 Z-0.125000
G03 X83.629165 Y201.311205 Z-0.125000 I-27.808697 J13.018237
G02 X84.274906 Y202.858170 Z-0.125000 I15.861998 J-5.712923
G02 X85.082962 Y204.358277 Z-0.125000 I15.721568 J-7.500979
G03 X85.879562 Y205.846635 Z-0.125000 I-14.008791 J8.455153
G01 X85.966632 Y206.236166 Z-0.125000
G03 X85.696310 Y207.895744 Z-0.125000 I-5.229463 J0.000000
G03 X84.895432 Y209.437101 Z-0.125000 I-5.292145 J-1.771017
G01 X84.788563 Y209.667941 Z-0.125000
G02 X84.596656 Y210.703475 Z-0.125000 I10.582361 J2.496700
G03 X84.314728 Y211.879360 Z-0.125000 I-5.969590 J-0.809513
G03 X83.413009 Y214.094339 Z-0.125000 I-22.247950 J-7.766116
G02 X83.056119 Y215.451765 Z-0.125000 I3.545374 J1.657768
G02 X83.240912 Y216.330409 Z-0.125000 I1.596877 J0.122905
G01 X83.285906 Y216.734235 Z-0.125000
G03 X82.978006 Y217.282333 Z-0.125000 I-1.262478 J-0.348679
G03 X81.956633 Y217.610885 Z-0.125000 I-0.807580 J-0.758682
G03 X80.632455 Y216.821105 Z-0.125000 I0.441497 J-2.245208
G02 X79.970826 Y216.202892 Z-0.125000 I-2.696296 J2.222498
G01 X79.605521 Y216.085562 Z-0.125000
G03 X78.864300 Y215.907448 Z-0.125000 I-0.000000 J-1.631347
G03 X77.942060 Y215.237107 Z-0.125000 I1.657906 J-3.250478
G02 X76.097014 Y214.544795 Z-0.125000 I-1.684471 J1.684474
G02 X73.862618 Y215.512726 Z-0.125000 I0.245168 J3.628886
G02 X72.779611 Y217.062413 Z-0.125000 I3.080997 J3.306445
G02 X72.477684 Y218.795385 Z-0.125000 I3.604805 J1.520836
G02 X72.521617 Y219.141968 Z-0.125000 I2.429958 J-0.131949
G02 X72.696150 Y219.884683 Z-0.125000 I11.379217 J-2.282172
G01 X72.696150 Y219.884691 Z-0.125000
G00 Z5.000000

(End cutting path id: path860)


(Start cutting path id: path858)
(DuduZanette)
(Change tool to Default tool)

G00 Z5.000000
G00 X94.513679 Y230.596101

G01 Z-0.125000 F100.0(Penetrate)
G02 X94.899430 Y230.984670 Z-0.125000 I1.409935 J-1.013949 F400.000000
G01 X95.164010 Y231.070991 Z-0.125000
G01 X95.454396 Y231.134699 Z-0.125000
G03 X96.308689 Y231.598647 Z-0.125000 I-3.104955 J6.735815
G02 X97.155422 Y232.088921 Z-0.125000 I6.828360 J-10.816689
G01 X97.307040 Y232.126802 Z-0.125000
G01 X97.428950 Y232.193030 Z-0.125000
G03 X98.029787 Y233.234879 Z-0.125000 I-9.196293 J5.997706
G03 X98.856264 Y235.856925 Z-0.125000 I-7.559971 J3.824203
G03 X98.729234 Y238.114295 Z-0.125000 I-5.672116 J0.813070
G01 X98.571419 Y238.720200 Z-0.125000
G01 X100.025563 Y238.632622 Z-0.125000
G02 X101.450807 Y238.443794 Z-0.125000 I-0.604414 J-10.035204
G02 X102.112903 Y238.202349 Z-0.125000 I-0.487676 J-2.365837
G03 X102.747289 Y237.861910 Z-0.125000 I48.180508 J89.020195
G03 X103.411267 Y237.511531 Z-0.125000 I51.641000 J97.056758
G02 X104.617939 Y236.630203 Z-0.125000 I-2.338678 J-4.468728
G02 X106.068924 Y234.885036 Z-0.125000 I-8.179219 J-8.276230
G02 X106.318966 Y234.306155 Z-0.125000 I-1.394689 J-0.945865
G02 X106.438283 Y233.229668 Z-0.125000 I-4.852283 J-1.082678
G02 X106.232246 Y232.197796 Z-0.125000 I-2.663815 J-0.004613
G02 X105.587045 Y231.191879 Z-0.125000 I-3.176982 J1.327859
G02 X103.961622 Y229.940719 Z-0.125000 I-4.455619 J4.107039
G02 X102.561052 Y229.593556 Z-0.125000 I-1.400570 J2.651595
G03 X101.838620 Y229.463509 Z-0.125000 I0.000000 J-2.071651
G03 X99.954675 Y228.623774 Z-0.125000 I5.704151 J-15.330439
G02 X98.054125 Y227.878361 Z-0.125000 I-4.368087 J8.341546
G02 X96.676944 Y227.733715 Z-0.125000 I-1.135307 J4.180884
G02 X95.314819 Y227.955720 Z-0.125000 I0.365381 J6.531503
G02 X94.823393 Y228.241228 Z-0.125000 I0.292928 J1.069882
G02 X94.226141 Y229.452542 Z-0.125000 I1.485236 J1.485210
G02 X94.513679 Y230.596101 Z-0.125000 I1.587426 J0.208784
G01 X94.513679 Y230.596101 Z-0.125000
G00 Z5.000000

(End cutting path id: path858)


(Start cutting path id: path864)
(DuduZanette)
(Change tool to Default tool)

G00 Z5.000000
G00 X67.717374 Y32.777979

G01 Z-0.125000 F100.0(Penetrate)
G03 X67.906968 Y33.433354 Z-0.125000 I-2.106177 J0.964409 F400.000000
G03 X68.016825 Y35.002559 Z-0.125000 I-12.204643 J1.642869
G02 X68.112942 Y36.582579 Z-0.125000 I14.381272 J-0.081920
G02 X68.342933 Y37.809429 Z-0.125000 I8.927821 J-1.038666
G03 X68.610984 Y39.031140 Z-0.125000 I-15.594891 J4.061886
G03 X68.659526 Y39.577682 Z-0.125000 I-3.052548 J0.546543
G02 X68.763361 Y40.104207 Z-0.125000 I1.386859 J0.000000
G02 X69.600772 Y41.871281 Z-0.125000 I17.033664 J-6.990241
G03 X70.471456 Y43.642259 Z-0.125000 I-22.413879 J12.119080
G03 X70.988133 Y44.992975 Z-0.125000 I-12.507244 J5.558457
G02 X71.499792 Y46.339368 Z-0.125000 I13.526737 J-4.370042
G02 X71.807104 Y46.857560 Z-0.125000 I2.276675 J-0.999953
G03 X72.155292 Y47.357838 Z-0.125000 I-4.962608 J3.825224
G03 X73.058695 Y48.856685 Z-0.125000 I-43.771892 J27.404398
G02 X74.013880 Y50.304578 Z-0.125000 I13.013799 J-7.546275
G02 X74.517177 Y50.812069 Z-0.125000 I2.047118 J-1.526886
G03 X75.087139 Y51.263918 Z-0.125000 I-10.412673 J13.719929
G03 X75.669036 Y51.765530 Z-0.125000 I-12.246354 J14.794774
G02 X77.063010 Y52.452550 Z-0.125000 I1.921395 J-2.140834
G02 X78.187998 Y52.235335 Z-0.125000 I0.286681 J-1.537085
G03 X78.710800 Y51.987701 Z-0.125000 I1.258872 J1.982032
G03 X79.580892 Y51.775502 Z-0.125000 I1.764311 J5.344361
G02 X80.433750 Y51.566787 Z-0.125000 I-0.867189 J-5.390390
G01 X80.595893 Y51.438625 Z-0.125000
G01 X80.755221 Y51.318119 Z-0.125000
G03 X81.271809 Y51.245926 Z-0.125000 I0.516589 J1.812181
G02 X81.749759 Y51.145200 Z-0.125000 I-0.000000 J-1.184300
G02 X83.298313 Y50.397513 Z-0.125000 I-10.089040 J-22.873171
G02 X84.799297 Y49.534037 Z-0.125000 I-10.658446 J-20.263920
G01 X84.911320 Y49.331617 Z-0.125000
G01 X84.972336 Y49.228711 Z-0.125000
G03 X85.420495 Y49.053272 Z-0.125000 I0.909632 J1.663525
G02 X87.937085 Y47.189060 Z-0.125000 I-0.998643 J-3.978855
G02 X89.132565 Y42.882626 Z-0.125000 I-7.158709 J-4.306434
G02 X89.005028 Y42.086730 Z-0.125000 I-2.547161 J0.000000
G01 X88.828809 Y41.959187 Z-0.125000
G01 X88.555617 Y41.877186 Z-0.125000
G03 X87.550902 Y41.116052 Z-0.125000 I5.334080 J-8.084806
G02 X86.532151 Y40.361270 Z-0.125000 I-5.481524 J6.333659
G02 X86.007863 Y40.144575 Z-0.125000 I-0.893478 J1.419155
G03 X83.316372 Y39.391227 Z-0.125000 I6.031483 J-26.733339
G03 X82.723236 Y39.041734 Z-0.125000 I0.529234 J-1.576239
G02 X82.243257 Y38.671426 Z-0.125000 I-2.443193 J2.670556
G02 X81.006669 Y37.933499 Z-0.125000 I-11.077670 J17.158444
G03 X79.601552 Y37.074247 Z-0.125000 I8.613140 J-15.663387
G03 X78.222042 Y36.049104 Z-0.125000 I10.911521 J-16.124125
G02 X77.956622 Y35.864664 Z-0.125000 I-1.344505 J1.651628
G02 X77.112918 Y35.397245 Z-0.125000 I-9.612895 J16.356383
G03 X76.287932 Y34.915714 Z-0.125000 I4.618174 J-8.859580
G01 X76.141891 Y34.766319 Z-0.125000
G01 X75.999366 Y34.610062 Z-0.125000
G02 X74.924718 Y33.849835 Z-0.125000 I-13.332874 J17.707525
G03 X73.878351 Y33.057432 Z-0.125000 I5.840901 J-8.799969
G03 X73.381479 Y32.522536 Z-0.125000 I2.131441 J-2.478146
G02 X72.914664 Y31.950231 Z-0.125000 I-6.241164 J4.614226
G02 X71.191060 Y30.083869 Z-0.125000 I-68.320155 J61.365300
G02 X69.008498 Y28.431987 Z-0.125000 I-6.099682 J5.791445
G01 X68.188973 Y28.503969 Z-0.125000
G02 X67.287952 Y30.112827 Z-0.125000 I1.448865 J1.868152
G02 X67.717374 Y32.777979 Z-0.125000 I5.036219 J0.555711
G01 X67.717374 Y32.777979 Z-0.125000
G00 Z5.000000

(End cutting path id: path864)


(Footer)
M5
G00 X0.0000 Y0.0000
M2
(Using default footer. To add your own footer create file "footer" in the output dir.)
(end)
%