%
(Header)
(Generated by gcodetools from Inkscape.)
(Using default header. To add your own header create file "header" in the output dir.)
M3
(Header end.)
G21 (All units in mm)

(Start cutting path id: path4919)
(ZZZanette)
(Change tool to Default tool)

G00 Z5.000000
G00 X72.638747 Y198.514167

G01 Z-0.125000 F100.0(Penetrate)
G03 X69.206956 Y198.558147 Z-0.125000 I-1.879457 J-12.740770 F400.000000
G03 X67.201336 Y197.722068 Z-0.125000 I0.483747 J-3.984051
G03 X66.392063 Y196.174006 Z-0.125000 I1.328603 J-1.680108
G03 X67.174371 Y192.718613 Z-0.125000 I6.302781 J-0.389292
G02 X66.817347 Y191.477624 Z-0.125000 I-2.903506 J0.163467
G01 X66.555458 Y191.437483 Z-0.125000
G02 X66.187089 Y191.977585 Z-0.125000 I1.085151 J1.135784
G02 X65.612742 Y193.692465 Z-0.125000 I12.731720 J5.217720
G02 X64.906302 Y197.786807 Z-0.125000 I23.239983 J6.117957
G02 X65.673048 Y199.805743 Z-0.125000 I2.487844 J0.210238
G02 X67.251982 Y200.616867 Z-0.125000 I3.614328 J-5.093313
G03 X68.712086 Y201.242865 Z-0.125000 I-3.546222 J10.287169
G01 X68.765258 Y201.603836 Z-0.125000
G03 X67.494506 Y202.212277 Z-0.125000 I-1.541093 J-1.587404
G02 X66.493551 Y201.893656 Z-0.125000 I-1.033130 J1.514027
G01 X66.324747 Y202.092243 Z-0.125000
G02 X66.575953 Y202.727971 Z-0.125000 I1.718361 J-0.311509
G02 X67.499128 Y203.867309 Z-0.125000 I5.731593 J-3.700478
G02 X69.282306 Y204.666812 Z-0.125000 I1.951511 J-1.964254
G02 X71.518274 Y203.078849 Z-0.125000 I0.132847 J-2.181128
G02 X72.590989 Y200.848958 Z-0.125000 I-1.764525 J-2.221811
G03 X72.638747 Y198.514167 Z-0.125000 I50.117794 J-0.142716
G01 X72.638747 Y198.514167 Z-0.125000
G00 Z5.000000

(End cutting path id: path4919)


(Start cutting path id: path4917)
(ZZZanette)
(Change tool to Default tool)

G00 Z5.000000
G00 X80.807713 Y198.514167

G01 Z-0.125000 F100.0(Penetrate)
G01 X71.888085 Y198.514167 Z-0.125000 F400.000000
G02 X71.831464 Y200.537240 Z-0.125000 I3.974259 J1.123560
G02 X72.394923 Y201.320630 Z-0.125000 I1.198001 J-0.267341
G02 X73.525021 Y201.647974 Z-0.125000 I1.177000 J-1.948981
G02 X75.512040 Y201.516813 Z-0.125000 I0.237378 J-11.520626
G03 X77.687766 Y201.434686 Z-0.125000 I1.645138 J14.722381
G01 X78.143390 Y201.578587 Z-0.125000
G01 X78.238767 Y201.906121 Z-0.125000
G03 X77.787243 Y202.539179 Z-0.125000 I-1.858457 J-0.847979
G03 X75.984037 Y203.970645 Z-0.125000 I-8.943404 J-9.414459
G02 X74.134551 Y205.604056 Z-0.125000 I4.819558 J7.320885
G02 X74.350683 Y208.219001 Z-0.125000 I2.116969 J1.141431
G02 X76.883508 Y210.351223 Z-0.125000 I6.228573 J-4.828342
G02 X78.393453 Y210.907898 Z-0.125000 I2.805846 J-5.284526
G02 X79.351484 Y210.843809 Z-0.125000 I0.369686 J-1.666338
G01 X79.853169 Y210.307255 Z-0.125000
G02 X79.847308 Y208.659139 Z-0.125000 I-2.781354 J-0.814176
G03 X77.488803 Y207.890794 Z-0.125000 I1.049644 J-7.225973
G01 X77.050283 Y207.295351 Z-0.125000
G03 X77.209125 Y206.423009 Z-0.125000 I1.222608 J-0.228012
G03 X78.195874 Y205.023962 Z-0.125000 I10.517744 J6.370670
G02 X80.393258 Y202.176461 Z-0.125000 I-52.200792 J-42.554359
G02 X80.807713 Y198.694924 Z-0.125000 I-2.889962 J-2.109470
G01 X80.807713 Y198.514167 Z-0.125000
G00 Z5.000000

(End cutting path id: path4917)


(Start cutting path id: path4915)
(ZZZanette)
(Change tool to Default tool)

G00 Z5.000000
G00 X85.841561 Y196.184907

G01 Z-0.125000 F100.0(Penetrate)
G02 X83.655962 Y194.108294 Z-0.125000 I-2.082342 J0.003170 F400.000000
G02 X82.293353 Y195.744452 Z-0.125000 I0.071753 J1.445233
G02 X83.126756 Y197.200227 Z-0.125000 I3.734969 J-1.171757
G01 X83.660102 Y197.373482 Z-0.125000
G02 X84.409779 Y197.046864 Z-0.125000 I-0.413988 J-1.973882
G03 X85.841561 Y196.184907 Z-0.125000 I6.599257 J9.341789
G01 X85.841561 Y196.184907 Z-0.125000
G00 Z5.000000

(End cutting path id: path4915)


(Start cutting path id: path4915)
(ZZZanette)
(Change tool to Default tool)

G00 Z5.000000
G00 X86.967555 Y198.514167

G01 Z-0.125000 F100.0(Penetrate)
G01 X80.057051 Y198.514167 Z-0.125000 F400.000000
G02 X80.000429 Y200.537240 Z-0.125000 I3.974259 J1.123560
G02 X80.563889 Y201.320630 Z-0.125000 I1.198001 J-0.267341
G02 X81.693986 Y201.647974 Z-0.125000 I1.177000 J-1.948981
G02 X83.681005 Y201.516813 Z-0.125000 I0.237378 J-11.520626
G03 X85.214162 Y202.149208 Z-0.125000 I0.455460 J1.070462
G03 X85.330259 Y203.579431 Z-0.125000 I-2.212721 J0.899438
G02 X85.275177 Y205.007877 Z-0.125000 I3.777381 J0.860942
G01 X86.227932 Y205.446748 Z-0.125000
G02 X86.974764 Y202.014950 Z-0.125000 I-6.059025 J-3.115733
G03 X86.967555 Y198.514167 Z-0.125000 I39.440422 J-1.831616
G01 X86.967555 Y198.514167 Z-0.125000
G00 Z5.000000

(End cutting path id: path4915)


(Start cutting path id: path4913)
(ZZZanette)
(Change tool to Default tool)

G00 Z5.000000
G00 X103.603547 Y196.184907

G01 Z-0.125000 F100.0(Penetrate)
G02 X101.417839 Y194.108442 Z-0.125000 I-2.082468 J0.003445 F400.000000
G02 X100.055340 Y195.744453 Z-0.125000 I0.071730 J1.445100
G02 X100.888741 Y197.200228 Z-0.125000 I3.734946 J-1.171739
G01 X101.422087 Y197.373482 Z-0.125000
G02 X102.171766 Y197.046862 Z-0.125000 I-0.413995 J-1.973895
G03 X103.603547 Y196.184907 Z-0.125000 I6.599175 J9.341664
G01 X103.603547 Y196.184907 Z-0.125000
G00 Z5.000000

(End cutting path id: path4913)


(Start cutting path id: path4913)
(ZZZanette)
(Change tool to Default tool)

G00 Z5.000000
G00 X107.919851 Y198.514167

G01 Z-0.125000 F100.0(Penetrate)
G03 X101.910493 Y198.489012 Z-0.125000 I-2.645828 J-85.738749 F400.000000
G02 X95.942380 Y198.790144 Z-0.125000 I-1.308797 J33.352366
G02 X93.880310 Y201.419306 Z-0.125000 I0.718252 J2.686559
G02 X94.424769 Y204.367714 Z-0.125000 I7.425381 J0.153288
G02 X95.198753 Y205.739684 Z-0.125000 I5.726075 J-2.326006
G01 X95.515433 Y205.829059 Z-0.125000
G01 X95.665373 Y205.593207 Z-0.125000
G02 X95.224890 Y202.916024 Z-0.125000 I-13.034255 J0.769726
G03 X99.376773 Y201.395228 Z-0.125000 I3.316643 J2.626806
G02 X103.974460 Y201.516808 Z-0.125000 I2.648194 J-13.150289
G03 X106.010915 Y201.864778 Z-0.125000 I0.594373 J2.654543
G01 X106.317107 Y202.577198 Z-0.125000
G02 X106.023704 Y204.145270 Z-0.125000 I51.315978 J10.413247
G02 X106.617279 Y206.340913 Z-0.125000 I2.666918 J0.457075
G02 X107.903968 Y202.491686 Z-0.125000 I-4.484580 J-3.638736
G03 X107.919851 Y198.514167 Z-0.125000 I49.147865 J-1.792532
G01 X107.919851 Y198.514167 Z-0.125000
G00 Z5.000000

(End cutting path id: path4913)


(Start cutting path id: path4911)
(ZZZanette)
(Change tool to Default tool)

G00 Z5.000000
G00 X119.775884 Y198.514167

G01 Z-0.125000 F100.0(Penetrate)
G01 X107.169185 Y198.514167 Z-0.125000 F400.000000
G02 X107.112562 Y200.537240 Z-0.125000 I3.974259 J1.123562
G02 X107.676021 Y201.320630 Z-0.125000 I1.198000 J-0.267339
G02 X108.806117 Y201.647974 Z-0.125000 I1.177000 J-1.948978
G02 X110.793134 Y201.516813 Z-0.125000 I0.237377 J-11.520603
G03 X113.058952 Y201.430715 Z-0.125000 I6.081069 J130.175710
G03 X114.296473 Y201.614934 Z-0.125000 I0.103983 J3.550211
G01 X114.407560 Y201.998049 Z-0.125000
G03 X112.545252 Y203.503859 Z-0.125000 I-4.475377 J-3.630406
G02 X110.258183 Y204.046824 Z-0.125000 I0.348371 J6.555662
G01 X109.897074 Y204.497882 Z-0.125000
G01 X110.087771 Y205.125138 Z-0.125000
G02 X111.219040 Y205.892325 Z-0.125000 I2.537753 J-2.524431
G02 X113.822443 Y206.212167 Z-0.125000 I1.854579 J-4.340304
G02 X116.631112 Y203.797084 Z-0.125000 I-0.561375 J-3.493603
G03 X118.821675 Y201.561037 Z-0.125000 I18.531727 J15.963747
G02 X119.775884 Y198.514167 Z-0.125000 I-2.089597 J-2.327266
G01 X119.775884 Y198.514167 Z-0.125000
G00 Z5.000000

(End cutting path id: path4911)


(Start cutting path id: path4909)
(ZZZanette)
(Change tool to Default tool)

G00 Z5.000000
G00 X129.556566 Y198.260266

G01 Z-0.125000 F100.0(Penetrate)
G02 X127.927034 Y195.125489 Z-0.125000 I-4.176884 J0.180320 F400.000000
G02 X124.992105 Y193.959223 Z-0.125000 I-3.518997 J4.579586
G02 X121.858093 Y194.537995 Z-0.125000 I-0.575288 J5.659470
G02 X120.349920 Y196.781021 Z-0.125000 I1.240086 J2.462361
G03 X127.293741 Y198.278000 Z-0.125000 I2.717793 J4.246503
G03 X127.738808 Y204.494298 Z-0.125000 I-5.395464 J3.510379
G02 X128.189794 Y205.442336 Z-0.125000 I2.105644 J-0.420376
G01 X128.443340 Y205.444993 Z-0.125000
G02 X128.738927 Y204.923079 Z-0.125000 I-1.162170 J-1.002859
G02 X129.150936 Y203.413935 Z-0.125000 I-14.246575 J-4.700252
G02 X129.746797 Y199.595443 Z-0.125000 I-31.723530 J-6.906070
G02 X129.556566 Y198.260266 Z-0.125000 I-2.861812 J-0.273398
G01 X129.556566 Y198.260266 Z-0.125000
G00 Z5.000000

(End cutting path id: path4909)


(Start cutting path id: path4907)
(ZZZanette)
(Change tool to Default tool)

G00 Z5.000000
G00 X135.716409 Y198.514167

G01 Z-0.125000 F100.0(Penetrate)
G01 X128.805909 Y198.514167 Z-0.125000 F400.000000
G02 X128.749286 Y200.537240 Z-0.125000 I3.974259 J1.123562
G02 X129.312744 Y201.320630 Z-0.125000 I1.198000 J-0.267339
G02 X130.442841 Y201.647974 Z-0.125000 I1.177000 J-1.948978
G02 X132.429858 Y201.516813 Z-0.125000 I0.237377 J-11.520603
G03 X133.963016 Y202.149208 Z-0.125000 I0.455460 J1.070463
G03 X134.079113 Y203.579429 Z-0.125000 I-2.212715 J0.899437
G02 X134.024031 Y205.007875 Z-0.125000 I3.777377 J0.860942
G01 X134.976788 Y205.446748 Z-0.125000
G02 X135.723616 Y202.014951 Z-0.125000 I-6.059031 J-3.115729
G03 X135.716409 Y198.514167 Z-0.125000 I39.439612 J-1.831601
G01 X135.716409 Y198.514167 Z-0.125000
G00 Z5.000000

(End cutting path id: path4907)


(Start cutting path id: path4907)
(ZZZanette)
(Change tool to Default tool)

G00 Z5.000000
G00 X135.539788 Y196.571277

G01 Z-0.125000 F100.0(Penetrate)
G02 X133.593350 Y194.861067 Z-0.125000 I-1.952841 J0.259831 F400.000000
G03 X131.874784 Y193.458239 Z-0.125000 I0.005724 J-1.761111
G02 X130.509760 Y195.450839 Z-0.125000 I0.038674 J1.490346
G02 X132.590261 Y195.915484 Z-0.125000 I1.186988 J-0.424714
G02 X133.292136 Y197.270955 Z-0.125000 I6.242598 J-2.373015
G01 X133.693031 Y197.499439 Z-0.125000
G01 X134.224400 Y197.367147 Z-0.125000
G03 X135.539788 Y196.571277 Z-0.125000 I274.504612 J452.207362
G01 X135.539788 Y196.571277 Z-0.125000
G00 Z5.000000

(End cutting path id: path4907)


(Start cutting path id: path4891)
(ZZZanette)
(Change tool to Default tool)

G00 Z5.000000
G00 X132.183889 Y227.797783

G01 Z-0.125000 F100.0(Penetrate)
G02 X130.745601 Y224.025941 Z-0.125000 I-4.671164 J-0.378927 F400.000000
G02 X127.783537 Y222.586345 Z-0.125000 I-3.736992 J3.921987
G02 X124.392629 Y223.117113 Z-0.125000 I-0.833898 J5.769591
G02 X122.513600 Y225.722424 Z-0.125000 I1.491634 J3.056073
G03 X125.717204 Y224.485254 Z-0.125000 I2.946166 J2.862593
G03 X128.596611 Y225.374070 Z-0.125000 I-0.402696 J6.413043
G03 X129.635691 Y226.295748 Z-0.125000 I-1.883120 J3.169547
G03 X129.869047 Y227.133282 Z-0.125000 I-0.919815 J0.707557
G03 X129.486274 Y227.826658 Z-0.125000 I-1.029617 J-0.116051
G03 X127.575044 Y228.796823 Z-0.125000 I-3.294537 J-4.122611
G02 X128.306967 Y233.137958 Z-0.125000 I5.606975 J1.286923
G02 X129.878268 Y233.990977 Z-0.125000 I1.541455 J-0.965719
G02 X131.481933 Y233.087641 Z-0.125000 I-0.031694 J-1.931404
G02 X132.183889 Y228.833899 Z-0.125000 I-4.712370 J-2.962430
G01 X132.183889 Y227.797780 Z-0.125000
G01 X132.183889 Y227.797783 Z-0.125000
G00 Z5.000000

(End cutting path id: path4891)


(Start cutting path id: path4891)
(ZZZanette)
(Change tool to Default tool)

G00 Z5.000000
G00 X130.859186 Y230.038730

G01 Z-0.125000 F100.0(Penetrate)
G03 X129.664409 Y231.603100 Z-0.125000 I-2.019825 J-0.304191 F400.000000
G01 X129.082625 Y231.453561 Z-0.125000
G01 X129.078155 Y230.831413 Z-0.125000
G03 X130.859186 Y230.038730 Z-0.125000 I1.591495 J1.178645
G01 X130.859186 Y230.038730 Z-0.125000
G00 Z5.000000

(End cutting path id: path4891)


(Start cutting path id: path4893)
(ZZZanette)
(Change tool to Default tool)

G00 Z5.000000
G00 X121.961637 Y226.782182

G01 Z-0.125000 F100.0(Penetrate)
G02 X120.332105 Y223.647405 Z-0.125000 I-4.176883 J0.180320 F400.000000
G02 X117.397176 Y222.481139 Z-0.125000 I-3.518998 J4.579587
G02 X114.263164 Y223.059911 Z-0.125000 I-0.575288 J5.659472
G02 X112.754991 Y225.302937 Z-0.125000 I1.240085 J2.462360
G03 X119.698812 Y226.799916 Z-0.125000 I2.717793 J4.246504
G03 X120.143879 Y233.016213 Z-0.125000 I-5.395463 J3.510379
G02 X120.594865 Y233.964252 Z-0.125000 I2.105646 J-0.420376
G01 X120.848411 Y233.966909 Z-0.125000
G02 X121.143998 Y233.444995 Z-0.125000 I-1.162169 J-1.002859
G02 X121.556007 Y231.935851 Z-0.125000 I-14.246572 J-4.700251
G02 X122.151868 Y228.117359 Z-0.125000 I-31.723526 J-6.906069
G02 X121.961637 Y226.782182 Z-0.125000 I-2.861815 J-0.273399
G01 X121.961637 Y226.782182 Z-0.125000
G00 Z5.000000

(End cutting path id: path4893)


(Start cutting path id: path4893)
(ZZZanette)
(Change tool to Default tool)

G00 Z5.000000
G00 X121.398646 Y238.097303

G01 Z-0.125000 F100.0(Penetrate)
G02 X119.206129 Y235.980971 Z-0.125000 I-2.112897 J-0.004930 F400.000000
G02 X117.828473 Y237.612630 Z-0.125000 I0.054430 J1.443384
G02 X118.653787 Y239.052583 Z-0.125000 I3.593851 J-1.103336
G01 X119.196777 Y239.230350 Z-0.125000
G02 X119.963855 Y238.911681 Z-0.125000 I-0.407614 J-2.063742
G03 X121.398646 Y238.097303 Z-0.125000 I6.048888 J8.985974
G01 X121.398646 Y238.097303 Z-0.125000
G00 Z5.000000

(End cutting path id: path4893)


(Start cutting path id: path4895)
(ZZZanette)
(Change tool to Default tool)

G00 Z5.000000
G00 X105.093825 Y230.248473

G01 Z-0.125000 F100.0(Penetrate)
G02 X104.567412 Y227.504306 Z-0.125000 I-6.740392 J-0.129568 F400.000000
G02 X103.950113 Y226.794554 Z-0.125000 I-1.388308 J0.584145
G01 X103.576605 Y226.951833 Z-0.125000
G02 X103.542827 Y229.666158 Z-0.125000 I5.943823 J1.431339
G03 X103.231004 Y231.855992 Z-0.125000 I-221.874055 J-30.476871
G02 X102.824378 Y235.954971 Z-0.125000 I42.906653 J6.326073
G02 X103.077955 Y238.986790 Z-0.125000 I11.302758 J0.581169
G01 X103.994963 Y239.365703 Z-0.125000
G02 X104.733235 Y234.832036 Z-0.125000 I-548.589982 J-91.660480
G02 X105.093825 Y230.248473 Z-0.125000 I-28.847688 J-4.575419
G01 X105.093825 Y230.248473 Z-0.125000
G00 Z5.000000

(End cutting path id: path4895)


(Start cutting path id: path4897)
(ZZZanette)
(Change tool to Default tool)

G00 Z5.000000
G00 X101.009352 Y227.036082

G01 Z-0.125000 F100.0(Penetrate)
G03 X97.288987 Y226.751466 Z-0.125000 I-1.416990 J-5.935503 F400.000000
G02 X94.937819 Y227.760873 Z-0.125000 I-0.678076 J1.663528
G02 X96.540273 Y229.937861 Z-0.125000 I1.581409 J0.514212
G03 X99.286568 Y230.038730 Z-0.125000 I0.352387 J27.842244
G03 X99.436660 Y232.534865 Z-0.125000 I-2.235157 J1.386979
G02 X98.603824 Y236.103901 Z-0.125000 I8.122765 J3.777138
G02 X97.920058 Y238.453412 Z-0.125000 I5.140662 J2.770313
G02 X98.206058 Y240.107018 Z-0.125000 I3.472774 J0.250900
G01 X98.969654 Y240.518276 Z-0.125000
G02 X100.932029 Y239.300571 Z-0.125000 I-0.511493 J-3.014361
G03 X100.065908 Y235.701445 Z-0.125000 I3.700806 J-2.794368
G02 X100.748745 Y231.518395 Z-0.125000 I-165.486784 J-29.161132
G02 X101.014167 Y229.282137 Z-0.125000 I-7.697080 J-2.047452
G03 X101.009352 Y227.036082 Z-0.125000 I52.070009 J-1.234679
G01 X101.009352 Y227.036082 Z-0.125000
G00 Z5.000000

(End cutting path id: path4897)


(Start cutting path id: path4899)
(ZZZanette)
(Change tool to Default tool)

G00 Z5.000000
G00 X95.688476 Y227.036082

G01 Z-0.125000 F100.0(Penetrate)
G01 X86.768848 Y227.036082 Z-0.125000 F400.000000
G02 X86.712226 Y229.059155 Z-0.125000 I3.974262 J1.123560
G02 X87.275685 Y229.842546 Z-0.125000 I1.198002 J-0.267340
G02 X88.405783 Y230.169890 Z-0.125000 I1.177000 J-1.948979
G02 X90.392802 Y230.038730 Z-0.125000 I0.237379 J-11.520600
G03 X92.568528 Y229.956602 Z-0.125000 I1.645139 J14.722363
G01 X93.024152 Y230.100503 Z-0.125000
G01 X93.119529 Y230.428037 Z-0.125000
G03 X92.668004 Y231.061095 Z-0.125000 I-1.858459 J-0.847981
G03 X90.864797 Y232.492562 Z-0.125000 I-8.943404 J-9.414458
G02 X89.015313 Y234.125971 Z-0.125000 I4.819555 J7.320881
G02 X89.231446 Y236.740917 Z-0.125000 I2.116969 J1.141431
G02 X91.764270 Y238.873139 Z-0.125000 I6.228573 J-4.828340
G02 X93.274214 Y239.429814 Z-0.125000 I2.805847 J-5.284524
G02 X94.232245 Y239.365725 Z-0.125000 I0.369686 J-1.666338
G01 X94.733931 Y238.829171 Z-0.125000
G02 X94.728070 Y237.181055 Z-0.125000 I-2.781354 J-0.814177
G03 X92.369563 Y236.412709 Z-0.125000 I1.049647 J-7.225985
G01 X91.931043 Y235.817266 Z-0.125000
G03 X92.089885 Y234.944924 Z-0.125000 I1.222607 J-0.228012
G03 X93.076633 Y233.545877 Z-0.125000 I10.517723 J6.370656
G02 X95.274019 Y230.698377 Z-0.125000 I-52.201167 J-42.554681
G02 X95.688476 Y227.216840 Z-0.125000 I-2.889961 J-2.109471
G01 X95.688476 Y227.036082 Z-0.125000
G00 Z5.000000

(End cutting path id: path4899)


(Start cutting path id: path4901)
(ZZZanette)
(Change tool to Default tool)

G00 Z5.000000
G00 X87.541592 Y227.797783

G01 Z-0.125000 F100.0(Penetrate)
G02 X86.103303 Y224.025940 Z-0.125000 I-4.671167 J-0.378926 F400.000000
G02 X83.141239 Y222.586345 Z-0.125000 I-3.736988 J3.921984
G02 X79.750331 Y223.117113 Z-0.125000 I-0.833897 J5.769594
G02 X77.871303 Y225.722424 Z-0.125000 I1.491635 J3.056073
G03 X81.074903 Y224.485253 Z-0.125000 I2.946164 J2.862586
G03 X83.954312 Y225.374068 Z-0.125000 I-0.402694 J6.413050
G03 X84.993393 Y226.295746 Z-0.125000 I-1.883120 J3.169552
G03 X85.226750 Y227.133280 Z-0.125000 I-0.919815 J0.707559
G03 X84.843978 Y227.826657 Z-0.125000 I-1.029617 J-0.116049
G03 X82.932750 Y228.796823 Z-0.125000 I-3.294539 J-4.122601
G02 X83.664672 Y233.137959 Z-0.125000 I5.606975 J1.286926
G02 X85.235971 Y233.990977 Z-0.125000 I1.541453 J-0.965717
G02 X86.839635 Y233.087641 Z-0.125000 I-0.031694 J-1.931403
G02 X87.541592 Y228.833899 Z-0.125000 I-4.712372 J-2.962430
G01 X87.541592 Y227.797780 Z-0.125000
G01 X87.541592 Y227.797783 Z-0.125000
G00 Z5.000000

(End cutting path id: path4901)


(Start cutting path id: path4901)
(ZZZanette)
(Change tool to Default tool)

G00 Z5.000000
G00 X86.216895 Y230.038730

G01 Z-0.125000 F100.0(Penetrate)
G03 X85.022117 Y231.603099 Z-0.125000 I-2.019826 J-0.304193 F400.000000
G01 X84.440335 Y231.453560 Z-0.125000
G01 X84.435865 Y230.831412 Z-0.125000
G03 X86.216895 Y230.038730 Z-0.125000 I1.591492 J1.178641
G01 X86.216895 Y230.038730 Z-0.125000
G00 Z5.000000

(End cutting path id: path4901)


(Start cutting path id: path4903)
(ZZZanette)
(Change tool to Default tool)

G00 Z5.000000
G00 X77.341425 Y227.036082

G01 Z-0.125000 F100.0(Penetrate)
G01 X70.430922 Y227.036082 Z-0.125000 F400.000000
G02 X70.374300 Y229.059155 Z-0.125000 I3.974262 J1.123560
G02 X70.937759 Y229.842546 Z-0.125000 I1.198002 J-0.267340
G02 X72.067857 Y230.169890 Z-0.125000 I1.177000 J-1.948979
G02 X74.054876 Y230.038730 Z-0.125000 I0.237379 J-11.520600
G03 X75.588033 Y230.671124 Z-0.125000 I0.455460 J1.070462
G03 X75.704129 Y232.101347 Z-0.125000 I-2.212720 J0.899438
G02 X75.649048 Y233.529793 Z-0.125000 I3.777382 J0.860942
G01 X76.601803 Y233.968664 Z-0.125000
G02 X77.348634 Y230.536866 Z-0.125000 I-6.059029 J-3.115734
G03 X77.341425 Y227.036082 Z-0.125000 I39.440469 J-1.831615
G01 X77.341425 Y227.036082 Z-0.125000
G00 Z5.000000

(End cutting path id: path4903)


(Start cutting path id: path4903)
(ZZZanette)
(Change tool to Default tool)

G00 Z5.000000
G00 X77.164799 Y225.093193

G01 Z-0.125000 F100.0(Penetrate)
G02 X75.218367 Y223.382983 Z-0.125000 I-1.952838 J0.259827 F400.000000
G03 X73.499804 Y221.980155 Z-0.125000 I0.005726 J-1.761109
G02 X72.134779 Y223.972753 Z-0.125000 I0.038674 J1.490347
G02 X74.215275 Y224.437400 Z-0.125000 I1.186987 J-0.424711
G02 X74.917153 Y225.792868 Z-0.125000 I6.242776 J-2.373128
G01 X75.318047 Y226.021354 Z-0.125000
G01 X75.849412 Y225.889065 Z-0.125000
G03 X77.164799 Y225.093193 Z-0.125000 I275.007376 J453.036800
G01 X77.164799 Y225.093193 Z-0.125000
G00 Z5.000000

(End cutting path id: path4903)


(Start cutting path id: path4905)
(ZZZanette)
(Change tool to Default tool)

G00 Z5.000000
G00 X71.181585 Y227.036082

G01 Z-0.125000 F100.0(Penetrate)
G03 X65.172226 Y227.010927 Z-0.125000 I-2.645828 J-85.738779 F400.000000
G02 X59.204114 Y227.312059 Z-0.125000 I-1.308797 J33.352362
G02 X57.142030 Y229.941226 Z-0.125000 I0.718261 J2.686581
G02 X57.686467 Y232.889631 Z-0.125000 I7.425388 J0.153334
G02 X58.460437 Y234.261601 Z-0.125000 I5.726072 J-2.325954
G01 X58.777110 Y234.350974 Z-0.125000
G01 X58.927048 Y234.115124 Z-0.125000
G02 X58.486568 Y231.437939 Z-0.125000 I-13.034422 J0.769735
G03 X62.638457 Y229.917150 Z-0.125000 I3.316637 J2.626807
G02 X67.236138 Y230.038732 Z-0.125000 I2.648191 J-13.150090
G03 X69.272598 Y230.386701 Z-0.125000 I0.594375 J2.654555
G01 X69.578792 Y231.099121 Z-0.125000
G02 X69.285391 Y232.667193 Z-0.125000 I51.319115 J10.413770
G02 X69.878964 Y234.862837 Z-0.125000 I2.666925 J0.457075
G02 X71.165654 Y231.013608 Z-0.125000 I-4.484568 J-3.638733
G03 X71.181585 Y227.036082 Z-0.125000 I49.132401 J-1.792011
G01 X71.181585 Y227.036082 Z-0.125000
G00 Z5.000000

(End cutting path id: path4905)


(Start cutting path id: path4905)
(ZZZanette)
(Change tool to Default tool)

G00 Z5.000000
G00 X67.284768 Y237.512230

G01 Z-0.125000 F100.0(Penetrate)
G02 X65.338334 Y235.802020 Z-0.125000 I-1.952839 J0.259828 F400.000000
G03 X63.619771 Y234.399191 Z-0.125000 I0.005726 J-1.761109
G02 X62.254746 Y236.391790 Z-0.125000 I0.038674 J1.490347
G02 X64.335243 Y236.856436 Z-0.125000 I1.186987 J-0.424711
G02 X65.037121 Y238.211904 Z-0.125000 I6.242776 J-2.373132
G01 X65.438015 Y238.440390 Z-0.125000
G01 X65.969381 Y238.308101 Z-0.125000
G03 X67.284768 Y237.512230 Z-0.125000 I275.031431 J453.076687
G01 X67.284768 Y237.512230 Z-0.125000
G00 Z5.000000

(End cutting path id: path4905)


(Start cutting path id: path4879)
(ZZZanette)
(Change tool to Default tool)

G00 Z5.000000
G00 X53.430636 Y230.425099

G01 Z-0.125000 F100.0(Penetrate)
G02 X52.971517 Y228.163379 Z-0.125000 I-12.066226 J1.271933 F400.000000
G01 X52.689383 Y227.795838 Z-0.125000
G01 X52.294432 Y227.835519 Z-0.125000
G02 X51.678187 Y228.623365 Z-0.125000 I2.301949 J2.435495
G02 X50.477270 Y231.377750 Z-0.125000 I12.743867 J7.195344
G03 X49.771160 Y232.699163 Z-0.125000 I-3.934203 J-1.252915
G02 X47.125967 Y233.477092 Z-0.125000 I-0.085497 J4.595470
G02 X46.404221 Y234.601016 Z-0.125000 I0.934607 J1.393877
G02 X46.589778 Y236.312058 Z-0.125000 I3.189000 J0.519745
G02 X47.666595 Y238.169564 Z-0.125000 I6.778251 J-2.688552
G02 X49.238694 Y239.582675 Z-0.125000 I5.016692 J-4.000076
G02 X50.502679 Y239.825328 Z-0.125000 I0.938384 J-1.474673
G02 X51.285969 Y239.195941 Z-0.125000 I-0.199044 J-1.049822
G02 X51.856869 Y235.988827 Z-0.125000 I-6.617859 J-2.832420
G03 X51.968182 Y233.073427 Z-0.125000 I64.540783 J1.004408
G03 X53.430636 Y230.425099 Z-0.125000 I3.516551 J0.213943
G01 X53.430636 Y230.425099 Z-0.125000
G00 Z5.000000

(End cutting path id: path4879)


(Start cutting path id: path4879)
(ZZZanette)
(Change tool to Default tool)

G00 Z5.000000
G00 X50.450068 Y235.922593

G01 Z-0.125000 F100.0(Penetrate)
G03 X49.025638 Y236.984284 Z-0.125000 I-1.473628 J-0.490711 F400.000000
G01 X48.295705 Y236.630882 Z-0.125000
G01 X48.386755 Y236.172156 Z-0.125000
G03 X50.450068 Y235.922593 Z-0.125000 I1.310164 J2.177828
G01 X50.450068 Y235.922593 Z-0.125000
G00 Z5.000000

(End cutting path id: path4879)


(Start cutting path id: path4877)
(ZZZanette)
(Change tool to Default tool)

G00 Z5.000000
G00 X39.190144 Y231.352388

G01 Z-0.125000 F100.0(Penetrate)
G02 X39.059789 Y228.715266 Z-0.125000 I-8.444973 J-0.904340 F400.000000
G02 X38.606494 Y227.635442 Z-0.125000 I-3.004275 J0.626097
G01 X38.297287 Y227.668648 Z-0.125000
G02 X37.887526 Y230.016651 Z-0.125000 I5.507541 J2.170904
G03 X36.982121 Y232.070504 Z-0.125000 I-235.376683 J-102.535093
G02 X35.605519 Y235.905434 Z-0.125000 I24.851554 J11.085357
G02 X35.592421 Y238.286133 Z-0.125000 I4.393619 J1.214558
G01 X36.954717 Y238.977675 Z-0.125000
G02 X38.665138 Y235.332513 Z-0.125000 I-8.618963 J-6.268152
G02 X39.190144 Y231.352388 Z-0.125000 I-16.592024 J-4.213291
G01 X39.190144 Y231.352388 Z-0.125000
G00 Z5.000000

(End cutting path id: path4877)


(Start cutting path id: path4875)
(ZZZanette)
(Change tool to Default tool)

G00 Z5.000000
G00 X26.495129 Y231.970579

G01 Z-0.125000 F100.0(Penetrate)
G02 X26.068942 Y229.509770 Z-0.125000 I-6.868772 J-0.077708 F400.000000
G01 X25.574318 Y229.011198 Z-0.125000
G01 X24.784867 Y229.077343 Z-0.125000
G02 X23.812376 Y229.916065 Z-0.125000 I1.789186 J3.057704
G02 X23.054954 Y231.953617 Z-0.125000 I2.685651 J2.157895
G02 X24.543960 Y233.433266 Z-0.125000 I1.430010 J0.049982
G03 X25.500888 Y232.676719 Z-0.125000 I10.575386 J12.392952
G03 X26.495129 Y231.970579 Z-0.125000 I25.756663 J35.212215
G01 X26.495129 Y231.970579 Z-0.125000
G00 Z5.000000

(End cutting path id: path4875)


(Start cutting path id: path4873)
(ZZZanette)
(Change tool to Default tool)

G00 Z5.000000
G00 X15.102734 Y237.832365

G01 Z-0.125000 F100.0(Penetrate)
G02 X13.656215 Y234.411541 Z-0.125000 I-8.250941 J1.472720 F400.000000
G03 X13.204001 Y230.369904 Z-0.125000 I3.369303 J-2.423105
G02 X12.817690 Y227.651935 Z-0.125000 I-22.685162 J1.837854
G01 X12.652345 Y227.531957 Z-0.125000
G01 X12.432377 Y227.711409 Z-0.125000
G02 X11.891724 Y229.522092 Z-0.125000 I34.743908 J11.360257
G02 X10.728555 Y233.885384 Z-0.125000 I574.985872 J155.616791
G03 X9.040175 Y236.093009 Z-0.125000 I-3.483078 J-0.914395
G02 X8.748231 Y237.980346 Z-0.125000 I3.247269 J1.468553
G02 X9.296556 Y239.282094 Z-0.125000 I2.530108 J-0.299379
G01 X10.070873 Y239.496044 Z-0.125000
G02 X11.716476 Y238.033829 Z-0.125000 I-1.037959 J-2.825241
G03 X13.508270 Y238.302902 Z-0.125000 I0.701218 J1.430929
G03 X14.402055 Y239.325029 Z-0.125000 I-4.723570 J5.032300
G02 X14.790614 Y239.799935 Z-0.125000 I3.800905 J-2.713428
G01 X14.954959 Y239.790037 Z-0.125000
G01 X15.042163 Y239.554085 Z-0.125000
G02 X15.102736 Y237.832365 Z-0.125000 I-20.607526 J-1.586934
G01 X15.102734 Y237.832365 Z-0.125000
G00 Z5.000000

(End cutting path id: path4873)


(Start cutting path id: path4889)
(ZZZanette)
(Change tool to Default tool)

G00 Z5.000000
G00 X142.516525 Y240.238897

G01 Z-0.125000 F100.0(Penetrate)
G02 X140.692293 Y238.572054 Z-0.125000 I-1.566331 J-0.117434 F400.000000
G02 X139.985524 Y240.343216 Z-0.125000 I0.183036 J1.099636
G01 X141.253381 Y240.832025 Z-0.125000
G03 X142.516525 Y240.238897 Z-0.125000 I2.111980 J2.856159
G01 X142.516525 Y240.238897 Z-0.125000
G00 Z5.000000

(End cutting path id: path4889)


(Start cutting path id: path4889)
(ZZZanette)
(Change tool to Default tool)

G00 Z5.000000
G00 X144.658123 Y237.622620

G01 Z-0.125000 F100.0(Penetrate)
G02 X142.692270 Y235.910802 Z-0.125000 I-1.962982 J0.269587 F400.000000
G03 X140.915855 Y234.509582 Z-0.125000 I-0.002642 J-1.823298
G02 X139.584821 Y236.539679 Z-0.125000 I0.061020 J1.491403
G02 X141.708597 Y236.966826 Z-0.125000 I1.198092 J-0.463635
G02 X142.410474 Y238.322294 Z-0.125000 I6.242736 J-2.373110
G01 X142.811369 Y238.550780 Z-0.125000
G01 X143.342737 Y238.418491 Z-0.125000
G03 X144.658123 Y237.622620 Z-0.125000 I275.088006 J453.170420
G01 X144.658123 Y237.622620 Z-0.125000
G00 Z5.000000

(End cutting path id: path4889)


(Start cutting path id: path4889)
(ZZZanette)
(Change tool to Default tool)

G00 Z5.000000
G00 X145.938661 Y227.036082

G01 Z-0.125000 F100.0(Penetrate)
G03 X139.300547 Y227.026781 Z-0.125000 I-3.292521 J-18.942633 F400.000000
G02 X135.238974 Y227.908174 Z-0.125000 I-0.954370 J5.400960
G02 X131.718413 Y227.781963 Z-0.125000 I-1.814493 J1.449101
G02 X132.135940 Y230.038730 Z-0.125000 I1.052904 J0.972208
G03 X134.618738 Y230.776783 Z-0.125000 I0.617502 J2.467805
G03 X135.788464 Y232.245711 Z-0.125000 I-9.160334 J8.494686
G02 X136.303167 Y232.889337 Z-0.125000 I4.412753 J-3.001235
G01 X136.549279 Y232.891555 Z-0.125000
G01 X136.705999 Y232.583951 Z-0.125000
G02 X136.974855 Y230.414060 Z-0.125000 I-21.870016 J-3.811360
G03 X141.829663 Y232.240793 Z-0.125000 I1.888436 J2.345752
G01 X142.858730 Y232.699163 Z-0.125000
G03 X143.178176 Y230.625637 Z-0.125000 I3.215426 J-0.566003
G01 X143.731535 Y230.296611 Z-0.125000
G01 X144.271458 Y230.649244 Z-0.125000
G03 X144.448364 Y232.621889 Z-0.125000 I-2.680529 J1.234644
G02 X145.263604 Y233.658078 Z-0.125000 I2.988321 J-1.512316
G01 X145.542751 Y233.640108 Z-0.125000
G01 X145.766413 Y233.178440 Z-0.125000
G02 X145.920192 Y231.767915 Z-0.125000 I-12.169940 J-2.040443
G02 X145.893449 Y228.101609 Z-0.125000 I-31.386752 J-1.604310
G03 X145.938661 Y227.036082 Z-0.125000 I4.933446 J-0.324386
G01 X145.938661 Y227.036082 Z-0.125000
G00 Z5.000000

(End cutting path id: path4889)


(Start cutting path id: path4887)
(ZZZanette)
(Change tool to Default tool)

G00 Z5.000000
G00 X161.106437 Y230.038730

G01 Z-0.125000 F100.0(Penetrate)
G03 X159.911659 Y231.603100 Z-0.125000 I-2.019825 J-0.304191 F400.000000
G01 X159.329875 Y231.453561 Z-0.125000
G01 X159.325405 Y230.831413 Z-0.125000
G03 X161.106437 Y230.038730 Z-0.125000 I1.591495 J1.178645
G01 X161.106437 Y230.038730 Z-0.125000
G00 Z5.000000

(End cutting path id: path4887)


(Start cutting path id: path4887)
(ZZZanette)
(Change tool to Default tool)

G00 Z5.000000
G00 X162.431140 Y227.797783

G01 Z-0.125000 F100.0(Penetrate)
G02 X160.992852 Y224.025941 Z-0.125000 I-4.671164 J-0.378927 F400.000000
G02 X158.030788 Y222.586345 Z-0.125000 I-3.736992 J3.921987
G02 X154.639880 Y223.117113 Z-0.125000 I-0.833898 J5.769591
G02 X152.760851 Y225.722424 Z-0.125000 I1.491634 J3.056073
G03 X155.964448 Y224.485253 Z-0.125000 I2.946161 J2.862578
G03 X158.843858 Y225.374070 Z-0.125000 I-0.402697 J6.413052
G03 X159.882940 Y226.295748 Z-0.125000 I-1.883123 J3.169554
G03 X160.116296 Y227.133282 Z-0.125000 I-0.919815 J0.707558
G03 X159.733524 Y227.826658 Z-0.125000 I-1.029616 J-0.116049
G03 X157.822294 Y228.796823 Z-0.125000 I-3.294535 J-4.122605
G02 X158.554218 Y233.137958 Z-0.125000 I5.606975 J1.286923
G02 X160.125518 Y233.990977 Z-0.125000 I1.541455 J-0.965719
G02 X161.729183 Y233.087641 Z-0.125000 I-0.031694 J-1.931404
G02 X162.431140 Y228.833899 Z-0.125000 I-4.712370 J-2.962430
G01 X162.431140 Y227.797780 Z-0.125000
G01 X162.431140 Y227.797783 Z-0.125000
G00 Z5.000000

(End cutting path id: path4887)


(Start cutting path id: path4885)
(ZZZanette)
(Change tool to Default tool)

G00 Z5.000000
G00 X170.578023 Y227.036082

G01 Z-0.125000 F100.0(Penetrate)
G03 X166.173929 Y227.488333 Z-0.125000 I-5.762716 J-34.448260 F400.000000
G03 X161.658401 Y227.036082 Z-0.125000 I-0.638272 J-16.396049
G02 X161.874339 Y229.369918 Z-0.125000 I1.769457 J1.013188
G02 X163.210523 Y230.343865 Z-0.125000 I2.689685 J-2.286504
G02 X164.230023 Y230.726756 Z-0.125000 I6.103663 J-14.703120
G01 X164.528419 Y230.911764 Z-0.125000
G01 X164.506216 Y231.053869 Z-0.125000
G03 X163.446738 Y231.440701 Z-0.125000 I-2.070326 J-4.026037
G02 X167.271926 Y234.838525 Z-0.125000 I2.839937 J0.654932
G02 X168.944234 Y230.038733 Z-0.125000 I-1.104980 J-3.076212
G02 X170.410633 Y228.895440 Z-0.125000 I0.280202 J-1.152666
G03 X170.578023 Y227.036082 Z-0.125000 I11.412324 J0.090187
G01 X170.578023 Y227.036082 Z-0.125000
G00 Z5.000000

(End cutting path id: path4885)


(Start cutting path id: path4883)
(ZZZanette)
(Change tool to Default tool)

G00 Z5.000000
G00 X176.737856 Y227.036082

G01 Z-0.125000 F100.0(Penetrate)
G01 X169.827356 Y227.036082 Z-0.125000 F400.000000
G02 X169.770734 Y229.059156 Z-0.125000 I3.974261 J1.123563
G02 X170.334192 Y229.842546 Z-0.125000 I1.198001 J-0.267340
G02 X171.464289 Y230.169890 Z-0.125000 I1.177000 J-1.948977
G02 X173.451306 Y230.038730 Z-0.125000 I0.237378 J-11.520570
G03 X174.984464 Y230.671125 Z-0.125000 I0.455460 J1.070463
G03 X175.100560 Y232.101346 Z-0.125000 I-2.212717 J0.899437
G02 X175.045479 Y233.529792 Z-0.125000 I3.777375 J0.860941
G01 X175.998236 Y233.968664 Z-0.125000
G02 X176.745064 Y230.536864 Z-0.125000 I-6.059053 J-3.115733
G03 X176.737856 Y227.036082 Z-0.125000 I39.439717 J-1.831595
G01 X176.737856 Y227.036082 Z-0.125000
G00 Z5.000000

(End cutting path id: path4883)


(Start cutting path id: path4883)
(ZZZanette)
(Change tool to Default tool)

G00 Z5.000000
G00 X176.561236 Y225.093193

G01 Z-0.125000 F100.0(Penetrate)
G02 X174.614803 Y223.382984 Z-0.125000 I-1.952841 J0.259831 F400.000000
G03 X172.896242 Y221.980155 Z-0.125000 I0.005729 J-1.761111
G02 X171.531211 Y223.972752 Z-0.125000 I0.038670 J1.490347
G02 X173.611709 Y224.437403 Z-0.125000 I1.186989 J-0.424710
G02 X174.313588 Y225.792865 Z-0.125000 I6.242914 J-2.373223
G01 X174.714482 Y226.021353 Z-0.125000
G01 X175.245845 Y225.889068 Z-0.125000
G03 X176.561236 Y225.093193 Z-0.125000 I275.490100 J453.834411
G01 X176.561236 Y225.093193 Z-0.125000
G00 Z5.000000

(End cutting path id: path4883)


(Start cutting path id: path4881)
(ZZZanette)
(Change tool to Default tool)

G00 Z5.000000
G00 X182.036649 Y227.036082

G01 Z-0.125000 F100.0(Penetrate)
G03 X178.316285 Y226.751466 Z-0.125000 I-1.416990 J-5.935503 F400.000000
G02 X175.965117 Y227.760873 Z-0.125000 I-0.678076 J1.663528
G02 X177.567570 Y229.937861 Z-0.125000 I1.581409 J0.514212
G03 X180.313866 Y230.038730 Z-0.125000 I0.352387 J27.842244
G03 X180.463972 Y232.534853 Z-0.125000 I-2.235073 J1.386982
G02 X179.631122 Y236.103899 Z-0.125000 I8.122648 J3.777146
G02 X178.947356 Y238.453410 Z-0.125000 I5.140662 J2.770313
G02 X179.233356 Y240.107017 Z-0.125000 I3.472778 J0.250901
G01 X179.996952 Y240.518275 Z-0.125000
G02 X181.959327 Y239.300571 Z-0.125000 I-0.511492 J-3.014359
G03 X181.093206 Y235.701445 Z-0.125000 I3.700806 J-2.794368
G02 X181.776042 Y231.518395 Z-0.125000 I-165.486784 J-29.161132
G02 X182.041465 Y229.282137 Z-0.125000 I-7.697080 J-2.047452
G03 X182.036649 Y227.036082 Z-0.125000 I52.070009 J-1.234679
G01 X182.036649 Y227.036082 Z-0.125000
G00 Z5.000000

(End cutting path id: path4881)


(Start cutting path id: path4885)
(ZZZanette)
(Change tool to Default tool)

G00 Z5.000000
G00 X167.740970 Y239.521353

G01 Z-0.125000 F100.0(Penetrate)
G02 X165.543095 Y237.399957 Z-0.125000 I-2.114704 J-0.008312 F400.000000
G02 X164.177402 Y239.033155 Z-0.125000 I0.056475 J1.434825
G02 X165.013635 Y240.470918 Z-0.125000 I3.717847 J-1.200310
G01 X165.554104 Y240.652808 Z-0.125000
G02 X166.307945 Y240.346735 Z-0.125000 I-0.357411 J-1.961653
G03 X167.740970 Y239.521353 Z-0.125000 I6.724642 J10.018595
G01 X167.740970 Y239.521353 Z-0.125000
G00 Z5.000000

(End cutting path id: path4885)


(Start cutting path id: path4147)
(ZZZanette)
(Change tool to Default tool)

G00 Z5.000000
G00 X140.860197 Y88.778836

G01 Z-0.125000 F100.0(Penetrate)
G01 X141.290108 Y89.701359 Z-0.125000 F400.000000
G01 X141.335641 Y89.837898 Z-0.125000
G01 X143.474790 Y90.839197 Z-0.125000
G01 X145.204309 Y91.430877 Z-0.125000
G01 X147.434488 Y91.612938 Z-0.125000
G01 X151.121095 Y91.886017 Z-0.125000
G01 X154.398083 Y91.567429 Z-0.125000
G01 X157.174421 Y91.157798 Z-0.125000
G01 X158.721879 Y90.611639 Z-0.125000
G01 X159.726878 Y89.901056 Z-0.125000
G01 X160.265528 Y89.081566 Z-0.125000
G00 Z5.000000

(End cutting path id: path4147)


(Start cutting path id: path4123)
(ZZZanette)
(Change tool to Default tool)

G00 Z5.000000
G00 X174.796783 Y114.420491

G01 Z-0.125000 F100.0(Penetrate)
G01 X175.916901 Y115.177328 Z-0.125000 F400.000000
G01 X176.915929 Y116.327721 Z-0.125000
G01 X177.793856 Y117.841395 Z-0.125000
G01 X177.945221 Y119.022063 Z-0.125000
G01 X177.884670 Y120.232995 Z-0.125000
G03 X177.521259 Y121.057083 Z-0.125000 I-64.292879 J-27.860021
G03 X177.400287 Y121.262299 Z-0.125000 I-0.981959 J-0.440589
G02 X177.253100 Y121.465917 Z-0.125000 I5.696042 J4.272455
G02 X176.552624 Y122.473231 Z-0.125000 I791.436639 J551.103989
G01 X175.704973 Y123.320894 Z-0.125000
G01 X173.888569 Y124.531838 Z-0.125000
G01 X171.981339 Y125.500579 Z-0.125000
G01 X170.588755 Y126.045512 Z-0.125000
G01 X165.987182 Y127.347270 Z-0.125000
G01 X162.838745 Y128.043556 Z-0.125000
G01 X160.507683 Y128.376561 Z-0.125000
G01 X154.210796 Y128.921495 Z-0.125000
G01 X148.186364 Y128.921495 Z-0.125000
G01 X141.798662 Y128.406837 Z-0.125000
G01 X137.318183 Y127.619725 Z-0.125000
G01 X131.747860 Y126.136326 Z-0.125000
G01 X129.477347 Y125.318938 Z-0.125000
G01 X127.237111 Y124.319922 Z-0.125000
G02 X125.578557 Y123.095771 Z-0.125000 I-288.213938 J388.754327
G02 X125.329881 Y122.957613 Z-0.125000 I-0.667128 J0.907907
G01 X125.097128 Y122.801931 Z-0.125000
G03 X123.725386 Y121.383388 Z-0.125000 I194.434045 J-189.391756
G01 X122.817178 Y119.506434 Z-0.125000
G03 X122.735093 Y118.362377 Z-0.125000 I405.823507 J-29.692487
G03 X122.726364 Y118.113849 Z-0.125000 I3.533599 J-0.248528
G03 X122.914836 Y117.361858 Z-0.125000 I1.594437 J-0.000000
G02 X123.150192 Y116.751540 Z-0.125000 I-2.348995 J-1.256379
G01 X123.233778 Y116.554802 Z-0.125000
G03 X123.967577 Y115.389243 Z-0.125000 I178.026046 J111.265797
G01 X125.087696 Y114.329664 Z-0.125000
G01 X126.026174 Y113.875557 Z-0.125000
G00 Z5.000000

(End cutting path id: path4123)


(Start cutting path id: path4125)
(ZZZanette)
(Change tool to Default tool)

G00 Z5.000000
G00 X126.298642 Y115.419519

G01 Z-0.125000 F100.0(Penetrate)
G02 X126.950125 Y116.581199 Z-0.125000 I57.886782 J-31.700032 F400.000000
G01 X127.146301 Y116.751540 Z-0.125000
G01 X127.383959 Y116.893085 Z-0.125000
G03 X128.659977 Y117.962484 Z-0.125000 I-142.739345 J171.614067
G02 X129.639525 Y118.612433 Z-0.125000 I15.839966 J-22.809565
G02 X130.203924 Y118.900962 Z-0.125000 I1.844619 J-2.912022
G03 X132.540568 Y120.070355 Z-0.125000 I-5.817001 J14.542541
G02 X133.443186 Y120.323821 Z-0.125000 I0.902619 J-1.480424
G03 X133.768862 Y120.367309 Z-0.125000 I0.000000 J1.241216
G03 X137.045734 Y121.262299 Z-0.125000 I-394.980247 J1452.608596
G01 X140.406090 Y121.988860 Z-0.125000
G01 X143.917820 Y122.352141 Z-0.125000
G03 X144.452027 Y122.378014 Z-0.125000 I-0.000000 J5.527947
G03 X148.519393 Y122.775973 Z-0.125000 I-265.791729 J2737.527100
G01 X152.333853 Y122.775973 Z-0.125000
G01 X156.208852 Y122.654871 Z-0.125000
G02 X159.230623 Y122.393935 Z-0.125000 I-89.216573 J-1050.798764
G02 X159.660032 Y122.321866 Z-0.125000 I-0.242181 J-2.758295
G03 X160.088206 Y122.230526 Z-0.125000 I1.525305 J6.100917
G03 X163.171762 Y121.686118 Z-0.125000 I449.956391 J2539.575369
G03 X165.579598 Y121.031797 Z-0.125000 I171.668429 J626.964761
G03 X165.896368 Y120.989832 Z-0.125000 I0.316770 J1.174585
G01 X166.212185 Y120.937603 Z-0.125000
G02 X168.711812 Y120.081630 Z-0.125000 I-199.377010 J-586.302225
G02 X170.303551 Y119.453866 Z-0.125000 I-42.151406 J-109.209529
G01 X170.558491 Y119.264242 Z-0.125000
G01 X170.812791 Y119.047891 Z-0.125000
G03 X172.859278 Y117.901934 Z-0.125000 I171.482485 J303.838504
G01 X174.433502 Y116.569888 Z-0.125000
G00 Z5.000000

(End cutting path id: path4125)


(Start cutting path id: path4119)
(ZZZanette)
(Change tool to Default tool)

G00 Z5.000000
G00 X172.435446 Y122.503506

G01 Z-0.125000 F100.0(Penetrate)
G01 X173.525288 Y120.232995 Z-0.125000 F400.000000
G01 X174.191311 Y117.841395 Z-0.125000
G01 X174.796783 Y114.420491 Z-0.125000
G01 X175.008699 Y111.968327 Z-0.125000
G01 X174.827058 Y109.455637 Z-0.125000
G01 X174.282137 Y106.488828 Z-0.125000
G01 X173.797755 Y104.339407 Z-0.125000
G01 X172.859278 Y101.887256 Z-0.125000
G01 X170.164935 Y97.225144 Z-0.125000
G01 X168.136615 Y94.924358 Z-0.125000
G01 X165.805554 Y92.684122 Z-0.125000
G01 X164.564334 Y91.654819 Z-0.125000
G01 X162.324099 Y90.504426 Z-0.125000
G01 X161.446172 Y90.050319 Z-0.125000
G01 X160.265504 Y89.081566 Z-0.125000
G01 X159.569217 Y88.082550 Z-0.125000
G01 X158.903195 Y86.720241 Z-0.125000
G01 X158.449088 Y85.176292 Z-0.125000
G01 X158.358262 Y83.844258 Z-0.125000
G01 X158.449088 Y81.815938 Z-0.125000
G01 X161.748902 Y18.150783 Z-0.125000
G01 X165.563362 Y10.552126 Z-0.125000
G01 X136.787950 Y10.399848 Z-0.125000
G00 Z5.000000

(End cutting path id: path4119)


(Start cutting path id: path4115)
(ZZZanette)
(Change tool to Default tool)

G00 Z5.000000
G00 X136.787950 Y10.399848

G01 Z-0.125000 F100.0(Penetrate)
G01 X140.406090 Y18.150783 Z-0.125000 F400.000000
G01 X142.767427 Y83.662618 Z-0.125000
G01 X142.706876 Y84.903837 Z-0.125000
G01 X142.404146 Y86.417499 Z-0.125000
G01 X141.738124 Y87.719269 Z-0.125000
G01 X140.860197 Y88.778836 Z-0.125000
G01 X139.891444 Y89.626499 Z-0.125000
G01 X138.619956 Y90.322785 Z-0.125000
G01 X136.803544 Y91.352089 Z-0.125000
G01 X134.381667 Y93.198768 Z-0.125000
G01 X133.110181 Y94.349161 Z-0.125000
G01 X131.142402 Y96.498583 Z-0.125000
G01 X129.628726 Y98.769094 Z-0.125000
G01 X127.751770 Y102.432177 Z-0.125000
G01 X126.450010 Y106.367739 Z-0.125000
G01 X125.965637 Y109.455637 Z-0.125000
G01 X125.844540 Y112.422434 Z-0.125000
G01 X125.965637 Y113.693917 Z-0.125000
G01 X126.359189 Y116.569900 Z-0.125000
G01 X126.904114 Y119.294518 Z-0.125000
G01 X127.872866 Y121.565029 Z-0.125000
G01 X128.902163 Y122.927338 Z-0.125000
G00 Z5.000000

(End cutting path id: path4115)


(Start cutting path id: path4117)
(ZZZanette)
(Change tool to Default tool)

G00 Z5.000000
G00 X130.234198 Y125.863871

G01 Z-0.125000 F100.0(Penetrate)
G01 X132.232247 Y128.437112 Z-0.125000 F400.000000
G01 X134.533035 Y130.404893 Z-0.125000
G01 X137.348469 Y132.433213 Z-0.125000
G01 X141.011562 Y134.219353 Z-0.125000
G01 X142.494961 Y134.764275 Z-0.125000
G01 X142.979331 Y135.127555 Z-0.125000
G01 X143.342624 Y135.490836 Z-0.125000
G01 X143.736180 Y136.247673 Z-0.125000
G01 X143.948084 Y136.943959 Z-0.125000
G01 X144.099461 Y138.003538 Z-0.125000
G01 X144.826022 Y159.891272 Z-0.125000
G01 X144.795747 Y160.708659 Z-0.125000
G01 X144.614107 Y161.041665 Z-0.125000
G01 X143.705905 Y161.344407 Z-0.125000
G01 X142.676601 Y161.949867 Z-0.125000
G01 X140.739107 Y163.312176 Z-0.125000
G01 X139.164883 Y164.795574 Z-0.125000
G01 X138.135580 Y166.278985 Z-0.125000
G01 X137.227376 Y168.640315 Z-0.125000
G01 X136.258624 Y171.576841 Z-0.125000
G01 X136.107257 Y174.997748 Z-0.125000
G01 X136.621904 Y177.298531 Z-0.125000
G01 X137.772297 Y180.144240 Z-0.125000
G01 X139.467613 Y182.566120 Z-0.125000
G01 X142.010590 Y184.685266 Z-0.125000
G01 X144.008635 Y185.987026 Z-0.125000
G01 X145.794775 Y186.592496 Z-0.125000
G01 X146.400247 Y186.774137 Z-0.125000
G01 X149.367044 Y245.232253 Z-0.125000
G01 X153.272331 Y186.774137 Z-0.125000
G01 X155.330926 Y185.987026 Z-0.125000
G01 X157.086791 Y185.048545 Z-0.125000
G01 X158.903195 Y183.777059 Z-0.125000
G01 X160.598509 Y181.960651 Z-0.125000
G01 X161.748902 Y180.507522 Z-0.125000
G01 X163.020385 Y177.813182 Z-0.125000
G01 X163.595594 Y175.028019 Z-0.125000
G01 X163.535043 Y172.091492 Z-0.125000
G01 X162.959846 Y169.457699 Z-0.125000
G01 X161.870004 Y167.005545 Z-0.125000
G01 X160.870976 Y165.068041 Z-0.125000
G01 X159.962774 Y163.857097 Z-0.125000
G01 X158.055544 Y162.525063 Z-0.125000
G01 X156.753773 Y161.647137 Z-0.125000
G01 X155.330926 Y160.981114 Z-0.125000
G01 X155.179561 Y160.708659 Z-0.125000
G01 X155.119010 Y160.072912 Z-0.125000
G01 X156.329954 Y137.579707 Z-0.125000
G01 X157.419796 Y135.248645 Z-0.125000
G01 X157.873903 Y134.915640 Z-0.125000
G01 X158.630740 Y134.703724 Z-0.125000
G01 X160.659060 Y133.946887 Z-0.125000
G01 X163.292852 Y132.614853 Z-0.125000
G01 X165.593638 Y131.010365 Z-0.125000
G01 X168.045789 Y128.982033 Z-0.125000
G01 X169.498924 Y127.316995 Z-0.125000
G01 X170.588767 Y126.045512 Z-0.125000
G00 Z5.000000

(End cutting path id: path4117)


(Start cutting path id: path4127)
(ZZZanette)
(Change tool to Default tool)

G00 Z5.000000
G00 X170.588755 Y126.045512

G01 Z-0.125000 F100.0(Penetrate)
G01 X167.833873 Y127.559186 Z-0.125000 F400.000000
G01 X164.685436 Y128.800393 Z-0.125000
G01 X160.386593 Y129.920511 Z-0.125000
G01 X157.086791 Y130.435169 Z-0.125000
G01 X152.424667 Y130.737899 Z-0.125000
G01 X147.671730 Y130.737899 Z-0.125000
G01 X142.949068 Y130.283792 Z-0.125000
G02 X138.674230 Y129.470309 Z-0.125000 I-2355.383395 J12365.864584
G02 X138.286947 Y129.405865 Z-0.125000 I-1.595289 J8.391117
G03 X137.917017 Y129.317875 Z-0.125000 I0.293927 J-2.057370
G03 X134.956863 Y128.316023 Z-0.125000 I409.754422 J-1215.567306
G01 X132.353340 Y127.074803 Z-0.125000
G01 X130.234196 Y125.863871 Z-0.125000
G00 Z5.000000

(End cutting path id: path4127)


(Start cutting path id: path4121)
(ZZZanette)
(Change tool to Default tool)

G00 Z5.000000
G00 X126.207823 Y116.721265

G01 Z-0.125000 F100.0(Penetrate)
G01 X125.783995 Y117.811119 Z-0.125000 F400.000000
G01 X125.723445 Y119.143153 Z-0.125000
G01 X126.450007 Y120.656827 Z-0.125000
G01 X127.116024 Y121.716394 Z-0.125000
G01 X128.902161 Y122.927338 Z-0.125000
G01 X131.566228 Y124.350185 Z-0.125000
G01 X134.351391 Y125.440040 Z-0.125000
G01 X137.530107 Y126.227152 Z-0.125000
G01 X141.465669 Y126.923438 Z-0.125000
G01 X144.069185 Y127.286719 Z-0.125000
G01 X147.187359 Y127.498635 Z-0.125000
G01 X150.214707 Y127.650000 Z-0.125000
G01 X153.514510 Y127.559174 Z-0.125000
G01 X156.995965 Y127.316983 Z-0.125000
G01 X160.931526 Y126.862876 Z-0.125000
G01 X162.475464 Y126.499595 Z-0.125000
G01 X166.501840 Y125.591393 Z-0.125000
G01 X169.983295 Y124.350173 Z-0.125000
G01 X171.345604 Y123.653887 Z-0.125000
G01 X173.101469 Y122.382405 Z-0.125000
G01 X174.372951 Y121.050371 Z-0.125000
G01 X175.129788 Y119.294506 Z-0.125000
G01 X175.160064 Y117.932197 Z-0.125000
G01 X174.887597 Y117.205635 Z-0.125000
G01 X174.433502 Y116.569888 Z-0.125000
G00 Z5.000000

(End cutting path id: path4121)


(Start cutting path id: path4129)
(ZZZanette)
(Change tool to Default tool)

G00 Z5.000000
G00 X143.736180 Y136.247673

G01 Z-0.125000 F100.0(Penetrate)
G01 X145.310393 Y137.155875 Z-0.125000 F400.000000
G01 X147.580916 Y137.852173 Z-0.125000
G02 X149.774218 Y138.090520 Z-0.125000 I32.617395 J-289.939276
G02 X150.426623 Y138.124628 Z-0.125000 I0.652405 J-6.222480
G02 X151.070500 Y138.085062 Z-0.125000 I0.000000 J-5.258918
G02 X153.120966 Y137.821898 Z-0.125000 I-25.812841 J-209.242388
G01 X154.997920 Y137.367791 Z-0.125000
G01 X156.299678 Y136.732044 Z-0.125000
G01 X157.026240 Y136.126584 Z-0.125000
G00 Z5.000000

(End cutting path id: path4129)


(Start cutting path id: path4131)
(ZZZanette)
(Change tool to Default tool)

G00 Z5.000000
G00 X144.614107 Y161.041665

G01 Z-0.125000 F100.0(Penetrate)
G01 X143.978359 Y162.192058 Z-0.125000 F400.000000
G02 X144.160496 Y162.988153 Z-0.125000 I14.550697 J-2.910139
G01 X144.311377 Y163.221361 Z-0.125000
G03 X144.558910 Y163.422846 Z-0.125000 I-11.769894 J14.712660
G03 X145.703949 Y164.371755 Z-0.125000 I-1420.575298 J1715.360311
G01 X148.156100 Y165.189130 Z-0.125000
G01 X151.001820 Y165.461597 Z-0.125000
G01 X153.484234 Y164.977227 Z-0.125000
G01 X155.058459 Y164.220378 Z-0.125000
G01 X155.936398 Y163.312176 Z-0.125000
G01 X156.027224 Y162.252609 Z-0.125000
G01 X155.906134 Y161.737951 Z-0.125000
G00 Z5.000000

(End cutting path id: path4131)


(Start cutting path id: path4133)
(ZZZanette)
(Change tool to Default tool)

G00 Z5.000000
G00 X137.257647 Y168.640315

G01 Z-0.125000 F100.0(Penetrate)
G01 X137.893389 Y169.851253 Z-0.125000 F400.000000
G02 X138.912484 Y171.082712 Z-0.125000 I194.631450 J-160.029994
G02 X139.225422 Y171.425474 Z-0.125000 I3.924080 J-3.268401
G02 X139.579859 Y171.713226 Z-0.125000 I1.562771 J-1.562771
G02 X140.829922 Y172.515320 Z-0.125000 I50.870534 J-77.906548
G01 X143.009606 Y173.544620 Z-0.125000
G01 X145.673685 Y174.271182 Z-0.125000
G01 X147.520365 Y174.573917 Z-0.125000
G01 X149.669774 Y174.664743 Z-0.125000
G01 X151.637555 Y174.664743 Z-0.125000
G01 X154.089706 Y174.362010 Z-0.125000
G01 X156.481319 Y173.877633 Z-0.125000
G01 X158.539914 Y172.939155 Z-0.125000
G01 X160.326054 Y171.849306 Z-0.125000
G02 X161.521098 Y170.702171 Z-0.125000 I-145.242615 J-152.504494
G01 X161.627813 Y170.517275 Z-0.125000
G03 X161.852484 Y170.078037 Z-0.125000 I1.059636 J0.264927
G02 X162.263548 Y169.306334 Z-0.125000 I-1.594368 J-1.344606
G02 X162.341618 Y169.007905 Z-0.125000 I-6.607026 J-1.887850
G02 X162.505739 Y168.307310 Z-0.125000 I-105.688394 J-25.128049
G00 Z5.000000

(End cutting path id: path4133)


(Start cutting path id: path4135)
(ZZZanette)
(Change tool to Default tool)

G00 Z5.000000
G00 X146.400247 Y186.774137

G01 Z-0.125000 F100.0(Penetrate)
G01 X147.853370 Y187.076872 Z-0.125000 F400.000000
G01 X149.397320 Y187.137411 Z-0.125000
G01 X151.213735 Y187.076872 Z-0.125000
G01 X152.243027 Y186.955775 Z-0.125000
G01 X153.272331 Y186.774137 Z-0.125000
G00 Z5.000000

(End cutting path id: path4135)


(Start cutting path id: path4137)
(ZZZanette)
(Change tool to Default tool)

G00 Z5.000000
G00 X148.216651 Y220.438261

G01 Z-0.125000 F100.0(Penetrate)
G01 X148.731297 Y220.619903 Z-0.125000 F400.000000
G01 X149.578960 Y220.740996 Z-0.125000
G02 X150.190536 Y220.748316 Z-0.125000 I0.422046 J-9.710244
G01 X150.426623 Y220.680445 Z-0.125000
G02 X150.626480 Y220.549657 Z-0.125000 I-1.572851 J-2.621557
G02 X151.032083 Y220.256617 Z-0.125000 I-20.402169 J-28.666352
G00 Z5.000000

(End cutting path id: path4137)


(Start cutting path id: path4143)
(ZZZanette)
(Change tool to Default tool)

G00 Z5.000000
G00 X97.097875 Y151.751045

G01 Z-0.125000 F100.0(Penetrate)
G03 X97.540782 Y151.907951 Z-0.125000 I-0.598572 J2.393178 F400.000000
G02 X97.905405 Y152.007990 Z-0.125000 I0.477098 J-1.024430
G02 X98.263248 Y152.035484 Z-0.125000 I0.781384 J-7.827370
G02 X98.602822 Y152.044633 Z-0.125000 I0.339574 J-6.297630
G01 X99.557178 Y151.604161 Z-0.125000
G00 Z5.000000

(End cutting path id: path4143)


(Start cutting path id: path4141)
(ZZZanette)
(Change tool to Default tool)

G00 Z5.000000
G00 X95.104108 Y112.700127

G01 Z-0.125000 F100.0(Penetrate)
G01 X96.143516 Y113.099582 Z-0.125000 F400.000000
G02 X96.928169 Y113.282184 Z-0.125000 I5.980597 J-23.921835
G02 X97.281404 Y113.319824 Z-0.125000 I0.353235 J-1.638689
G01 X98.602822 Y113.319824 Z-0.125000
G02 X99.484210 Y113.155366 Z-0.125000 I-59.980002 J-323.898686
G02 X99.960945 Y113.062879 Z-0.125000 I-7.746739 J-41.206494
G02 X100.749600 Y112.802486 Z-0.125000 I-0.671754 J-3.359045
G01 X101.062125 Y112.732529 Z-0.125000
G01 X101.279826 Y112.654160 Z-0.125000
G02 X102.141418 Y111.924825 Z-0.125000 I-31.646362 J-38.258688
G00 Z5.000000

(End cutting path id: path4141)


(Start cutting path id: path4109)
(ZZZanette)
(Change tool to Default tool)

G00 Z5.000000
G00 X81.510077 Y111.971739

G01 Z-0.125000 F100.0(Penetrate)
G01 X84.260274 Y112.035654 Z-0.125000 F400.000000
G00 Z5.000000

(End cutting path id: path4109)


(Start cutting path id: path4113)
(ZZZanette)
(Change tool to Default tool)

G00 Z5.000000
G00 X85.575291 Y82.322330

G01 Z-0.125000 F100.0(Penetrate)
G01 X86.171585 Y81.313210 Z-0.125000 F400.000000
G01 X87.731131 Y79.891276 Z-0.125000
G01 X89.841099 Y78.561068 Z-0.125000
G01 X91.515317 Y77.689569 Z-0.125000
G01 X92.318022 Y77.024472 Z-0.125000
G01 X93.189531 Y75.648395 Z-0.125000
G01 X93.717026 Y74.111786 Z-0.125000
G01 X93.831700 Y72.621047 Z-0.125000
G01 X93.671159 Y68.882731 Z-0.125000
G01 X92.065744 Y14.390446 Z-0.125000
G01 X90.070445 Y9.574206 Z-0.125000
G01 X108.343794 Y9.586220 Z-0.125000
G00 Z5.000000

(End cutting path id: path4113)


(Start cutting path id: path4111)
(ZZZanette)
(Change tool to Default tool)

G00 Z5.000000
G00 X108.343793 Y9.585644

G01 Z-0.125000 F100.0(Penetrate)
G01 X106.614285 Y14.058522 Z-0.125000 F400.000000
G01 X104.228753 Y62.723297 Z-0.125000
G01 X103.692011 Y72.503970 Z-0.125000
G01 X103.870926 Y73.935287 Z-0.125000
G01 X104.228753 Y75.187692 Z-0.125000
G01 X105.123328 Y76.440084 Z-0.125000
G01 X106.316093 Y77.394300 Z-0.125000
G01 X108.641983 Y78.467791 Z-0.125000
G01 X110.729322 Y79.899109 Z-0.125000
G01 X112.160638 Y81.330427 Z-0.125000
G01 X113.890145 Y83.417759 Z-0.125000
G01 X115.321464 Y86.161119 Z-0.125000
G01 X116.454588 Y90.156871 Z-0.125000
G01 X116.454588 Y94.629749 Z-0.125000
G01 X115.679293 Y98.506226 Z-0.125000
G01 X113.711231 Y102.740541 Z-0.125000
G01 X111.206425 Y105.901365 Z-0.125000
G01 X107.210666 Y108.942914 Z-0.125000
G01 X103.990203 Y110.433869 Z-0.125000
G01 X102.916713 Y110.851333 Z-0.125000
G01 X102.141418 Y111.924825 Z-0.125000
G01 X101.664311 Y113.594693 Z-0.125000
G01 X99.517336 Y151.464967 Z-0.125000
G01 X98.145656 Y180.747325 Z-0.125000
G01 X95.402299 Y114.191082 Z-0.125000
G01 X95.104108 Y112.700127 Z-0.125000
G01 X94.388451 Y111.388085 Z-0.125000
G01 X94.030620 Y111.030246 Z-0.125000
G01 X92.658943 Y110.851333 Z-0.125000
G01 X90.571604 Y110.135680 Z-0.125000
G01 X88.901734 Y109.241102 Z-0.125000
G01 X87.410780 Y108.286899 Z-0.125000
G01 X86.456567 Y107.332683 Z-0.125000
G01 X84.554337 Y105.179417 Z-0.125000
G00 Z5.000000

(End cutting path id: path4111)


(Start cutting path id: path4139)
(ZZZanette)
(Change tool to Default tool)

G00 Z5.000000
G00 X91.515317 Y77.689569

G01 Z-0.125000 F100.0(Penetrate)
G01 X92.362794 Y78.375680 Z-0.125000 F400.000000
G01 X93.867742 Y78.852854 Z-0.125000
G01 X95.079043 Y79.073095 Z-0.125000
G01 X97.391521 Y79.256622 Z-0.125000
G01 X99.447061 Y79.256622 Z-0.125000
G01 X101.869659 Y78.779448 Z-0.125000
G01 X103.741666 Y78.412382 Z-0.125000
G01 X104.952964 Y77.788385 Z-0.125000
G01 X105.613673 Y77.090969 Z-0.125000
G01 X105.745745 Y76.862210 Z-0.125000
G00 Z5.000000

(End cutting path id: path4139)


(Start cutting path id: path4107)
(ZZZanette)
(Change tool to Default tool)

G00 Z5.000000
G00 X78.636278 Y9.052196

G01 Z-0.125000 F100.0(Penetrate)
G01 X81.561476 Y112.604267 Z-0.125000 F400.000000
G01 X82.926570 Y159.407454 Z-0.125000
G01 X84.291664 Y112.019219 Z-0.125000
G01 X88.776969 Y8.662172 Z-0.125000
G01 X78.636278 Y9.052196 Z-0.125000
G00 Z5.000000

(End cutting path id: path4107)


(Footer)
M5
G00 X0.0000 Y0.0000
M2
(Using default footer. To add your own footer create file "footer" in the output dir.)
(end)
%