%
(Header)
(Generated by gcodetools from Inkscape.)
(Using default header. To add your own header create file "header" in the output dir.)
M3
(Header end.)
G21 (All units in mm)

(Start cutting path id: XMLID_1184_)
(ZZZanette)
(Change tool to Default tool)

G00 Z5.000000
G00 X174.577964 Y74.469443

G01 Z-0.125000 F100.0(Penetrate)
G02 X174.000189 Y74.325029 Z-0.125000 I-1.226992 J3.680977 F400.000000
G02 X173.340437 Y74.221938 Z-0.125000 I-4.262368 J25.115223
G02 X172.672525 Y74.133120 Z-0.125000 I-4.914675 J34.402728
G02 X172.102910 Y74.098185 Z-0.125000 I-0.569615 J4.626325
G02 X170.389059 Y74.382651 Z-0.125000 I0.000000 J5.305036
G02 X169.256597 Y75.088207 Z-0.125000 I0.952632 J2.790650
G02 X168.601676 Y76.212113 Z-0.125000 I2.306481 J2.096800
G02 X168.266576 Y78.305777 Z-0.125000 I6.372925 J2.093664
G01 X168.266576 Y84.740918 Z-0.125000
G01 X166.905296 Y84.740918 Z-0.125000
G01 X166.905296 Y86.473456 Z-0.125000
G01 X168.266576 Y86.473456 Z-0.125000
G01 X168.266576 Y89.938532 Z-0.125000
G01 X170.308495 Y89.938532 Z-0.125000
G01 X170.308495 Y86.473456 Z-0.125000
G01 X174.516088 Y86.473456 Z-0.125000
G01 X174.516088 Y84.740918 Z-0.125000
G01 X170.308495 Y84.740918 Z-0.125000
G01 X170.308495 Y79.233923 Z-0.125000
G03 X170.318185 Y78.308171 Z-0.125000 I44.227844 J-0.000000
G03 X170.370372 Y77.748890 Z-0.125000 I3.897457 J0.081597
G03 X170.459304 Y77.227980 Z-0.125000 I1.570055 J0.000000
G03 X170.679754 Y76.758868 Z-0.125000 I2.421991 J0.851813
G03 X170.984791 Y76.379879 Z-0.125000 I1.524146 J0.914487
G03 X171.360394 Y76.140105 Z-0.125000 I0.819167 J0.869139
G03 X171.804447 Y76.019216 Z-0.125000 I0.746652 J1.866630
G03 X172.659797 Y75.954476 Z-0.125000 I0.855350 J5.618081
G03 X173.136150 Y75.988705 Z-0.125000 I-0.000000 J3.331682
G03 X173.711695 Y76.078229 Z-0.125000 I-3.841298 J26.590582
G02 X174.247957 Y76.243232 Z-0.125000 I3.815709 J-11.447126
G03 X174.516088 Y76.325734 Z-0.125000 I-1.639723 J5.806065
G01 X174.639840 Y76.325734 Z-0.125000
G01 X174.639840 Y74.469443 Z-0.125000
G01 X174.577964 Y74.469443 Z-0.125000
G00 Z5.000000

(End cutting path id: XMLID_1184_)


(Start cutting path id: XMLID_1182_)
(ZZZanette)
(Change tool to Default tool)

G00 Z5.000000
G00 X164.801500 Y74.407567

G01 Z-0.125000 F100.0(Penetrate)
G01 X162.759580 Y74.407567 Z-0.125000 F400.000000
G01 X162.759580 Y81.337719 Z-0.125000
G03 X162.718319 Y82.155178 Z-0.125000 I-8.118359 J-0.000000
G03 X162.635827 Y82.884628 Z-0.125000 I-31.091545 J-3.146681
G03 X162.479631 Y83.587311 Z-0.125000 I-3.789889 J-0.473736
G03 X162.264569 Y84.060278 Z-0.125000 I-2.179226 J-0.705531
G03 X161.937673 Y84.460290 Z-0.125000 I-1.535693 J-0.921416
G03 X161.460177 Y84.740918 Z-0.125000 I-0.898414 J-0.982124
G03 X160.948878 Y84.900114 Z-0.125000 I-1.265418 J-3.163545
G03 X160.160773 Y84.988424 Z-0.125000 I-0.788104 J-3.472485
G03 X159.364492 Y84.895251 Z-0.125000 I0.000000 J-3.449215
G03 X158.428235 Y84.555289 Z-0.125000 I0.999020 J-4.210516
G03 X157.551235 Y84.106037 Z-0.125000 I1.972435 J-4.931087
G03 X156.695697 Y83.503391 Z-0.125000 I5.928950 J-9.325558
G01 X156.695697 Y74.469443 Z-0.125000
G01 X154.653777 Y74.469443 Z-0.125000
G01 X154.653777 Y86.597209 Z-0.125000
G01 X156.695697 Y86.597209 Z-0.125000
G01 X156.695697 Y85.235929 Z-0.125000
G02 X157.689925 Y85.962630 Z-0.125000 I4.059738 J-4.510820
G02 X158.675741 Y86.473456 Z-0.125000 I5.452273 J-9.315381
G02 X159.706923 Y86.803151 Z-0.125000 I1.916006 J-4.215214
G02 X160.779537 Y86.906591 Z-0.125000 I1.072613 J-5.509493
G02 X162.566178 Y86.573386 Z-0.125000 I0.000000 J-4.956582
G02 X163.749602 Y85.730940 Z-0.125000 I-1.058688 J-2.739617
G02 X164.474040 Y84.423870 Z-0.125000 I-2.926584 J-2.476341
G02 X164.801500 Y82.327741 Z-0.125000 I-6.545120 J-2.096130
G01 X164.801500 Y74.407567 Z-0.125000
G00 Z5.000000

(End cutting path id: XMLID_1182_)


(Start cutting path id: XMLID_1179_)
(ZZZanette)
(Change tool to Default tool)

G00 Z5.000000
G00 X152.054970 Y80.223944

G01 Z-0.125000 F100.0(Penetrate)
G01 X143.144775 Y80.223944 Z-0.125000 F400.000000
G03 X143.241969 Y79.088375 Z-0.125000 I6.682347 J0.000000
G03 X143.454157 Y78.305777 Z-0.125000 I4.256441 J0.733997
G03 X143.890581 Y77.531822 Z-0.125000 I4.270029 J1.897791
G03 X144.382302 Y76.944498 Z-0.125000 I3.560359 J2.481313
G03 X144.976768 Y76.486656 Z-0.125000 I2.060422 J2.060422
G03 X145.743582 Y76.140105 Z-0.125000 I2.064464 J3.546399
G03 X146.527877 Y75.949094 Z-0.125000 I1.185020 J3.160054
G03 X147.476120 Y75.892599 Z-0.125000 I0.948243 J7.929683
G03 X148.692165 Y76.017485 Z-0.125000 I-0.000000 J5.982933
G03 X149.951174 Y76.387610 Z-0.125000 I-1.643241 J7.915977
G03 X151.168013 Y76.965793 Z-0.125000 I-2.257042 J6.319717
G03 X151.745589 Y77.377632 Z-0.125000 I-2.440364 J4.033366
G01 X151.869341 Y77.377632 Z-0.125000
G01 X151.869341 Y75.150083 Z-0.125000
G02 X150.846460 Y74.735317 Z-0.125000 I-5.517959 J12.139510
G02 X149.765545 Y74.407567 Z-0.125000 I-3.853357 J10.762017
G02 X148.643315 Y74.182104 Z-0.125000 I-2.972692 J11.890769
G02 X147.537996 Y74.098185 Z-0.125000 I-1.105319 J7.237273
G02 X144.679095 Y74.584452 Z-0.125000 I-0.000000 J8.647277
G02 X142.835393 Y75.706970 Z-0.125000 I1.712172 J4.887561
G02 X141.648118 Y77.577857 Z-0.125000 I3.591103 J3.591103
G02 X141.164732 Y80.347697 Z-0.125000 I7.694000 J2.769840
G02 X141.637427 Y83.126522 Z-0.125000 I8.404263 J0.000000
G02 X142.773517 Y85.050300 Z-0.125000 I5.401086 J-1.892270
G02 X144.571172 Y86.307682 Z-0.125000 I3.577436 J-3.200864
G02 X147.042986 Y86.782838 Z-0.125000 I2.471813 J-6.191747
G02 X149.317290 Y86.366382 Z-0.125000 I-0.000000 J-6.418312
G02 X150.817443 Y85.359682 Z-0.125000 I-1.411098 J-3.723868
G02 X151.723055 Y83.812246 Z-0.125000 I-2.983957 J-2.785026
G02 X152.116847 Y81.275842 Z-0.125000 I-7.971553 J-2.536403
G01 X152.116847 Y80.223944 Z-0.125000
G01 X152.054970 Y80.223944 Z-0.125000
G00 Z5.000000

(End cutting path id: XMLID_1179_)


(Start cutting path id: XMLID_1179_)
(ZZZanette)
(Change tool to Default tool)

G00 Z5.000000
G00 X150.013051 Y81.770853

G01 Z-0.125000 F100.0(Penetrate)
G03 X149.787089 Y83.283160 Z-0.125000 I-5.173736 J-0.000000 F400.000000
G03 X149.208658 Y84.245908 Z-0.125000 I-2.219612 J-0.678433
G03 X148.270957 Y84.847341 Z-0.125000 I-1.845263 J-1.845263
G03 X146.795480 Y85.112177 Z-0.125000 I-1.475477 J-3.977737
G03 X145.254430 Y84.836128 Z-0.125000 I0.000000 J-4.439500
G03 X144.196673 Y84.122155 Z-0.125000 I0.934712 J-2.525308
G03 X143.478039 Y83.091541 Z-0.125000 I2.529969 J-2.529969
G03 X143.082899 Y81.708977 Z-0.125000 I4.254956 J-1.963826
G01 X150.013051 Y81.708977 Z-0.125000
G01 X150.013051 Y81.770853 Z-0.125000
G00 Z5.000000

(End cutting path id: XMLID_1179_)


(Start cutting path id: XMLID_1177_)
(ZZZanette)
(Change tool to Default tool)

G00 Z5.000000
G00 X138.380296 Y74.407567

G01 Z-0.125000 F100.0(Penetrate)
G01 X136.338376 Y74.407567 Z-0.125000 F400.000000
G01 X136.338376 Y81.337719 Z-0.125000
G03 X136.331747 Y82.127865 Z-0.125000 I-47.092219 J-0.000000
G03 X136.276500 Y82.822751 Z-0.125000 I-5.574247 J-0.093542
G03 X136.155431 Y83.525166 Z-0.125000 I-7.635783 J-0.954473
G03 X135.967118 Y83.998402 Z-0.125000 I-1.544669 J-0.340577
G03 X135.634555 Y84.415011 Z-0.125000 I-1.720160 J-1.032096
G03 X135.224602 Y84.679042 Z-0.125000 I-0.885267 J-0.924253
G03 X134.746541 Y84.854448 Z-0.125000 I-0.698131 J-1.163552
G03 X133.863322 Y84.926547 Z-0.125000 I-0.883219 J-5.373701
G03 X133.067041 Y84.833375 Z-0.125000 I-0.000000 J-3.449215
G03 X132.130784 Y84.493413 Z-0.125000 I0.999020 J-4.210516
G03 X131.324031 Y84.006280 Z-0.125000 I6.336062 J-11.404911
G03 X130.398246 Y83.379639 Z-0.125000 I19.506223 J-29.815225
G03 X130.429184 Y83.101195 Z-0.125000 I1.268465 J-0.000000
G02 X130.460122 Y82.822751 Z-0.125000 I-1.237527 J-0.278444
G01 X130.460122 Y82.142111 Z-0.125000
G01 X130.460122 Y74.407567 Z-0.125000
G01 X128.418202 Y74.407567 Z-0.125000
G01 X128.418202 Y81.337719 Z-0.125000
G03 X128.409522 Y82.155174 Z-0.125000 I-38.493592 J0.000000
G03 X128.356326 Y82.884628 Z-0.125000 I-7.094351 J-0.150691
G03 X128.235257 Y83.587042 Z-0.125000 I-7.635783 J-0.954473
G03 X128.046944 Y84.060278 Z-0.125000 I-1.544669 J-0.340577
G03 X127.714382 Y84.476888 Z-0.125000 I-1.720160 J-1.032096
G03 X127.304428 Y84.740918 Z-0.125000 I-0.885267 J-0.924253
G03 X126.826367 Y84.916325 Z-0.125000 I-0.698131 J-1.163552
G03 X125.943148 Y84.988424 Z-0.125000 I-0.883219 J-5.373701
G03 X125.136439 Y84.892399 Z-0.125000 I0.000000 J-3.436606
G03 X124.272487 Y84.555289 Z-0.125000 I0.808298 J-3.347160
G03 X123.467533 Y84.118974 Z-0.125000 I2.371399 J-5.335649
G03 X122.601825 Y83.503391 Z-0.125000 I6.733403 J-10.385868
G01 X122.601825 Y74.469443 Z-0.125000
G01 X120.559905 Y74.469443 Z-0.125000
G01 X120.559905 Y86.597209 Z-0.125000
G01 X122.601825 Y86.597209 Z-0.125000
G01 X122.601825 Y85.235929 Z-0.125000
G02 X123.606435 Y85.974857 Z-0.125000 I4.235915 J-4.706572
G02 X124.519992 Y86.473456 Z-0.125000 I7.388668 J-12.451623
G02 X125.476964 Y86.800496 Z-0.125000 I1.688309 J-3.376619
G02 X126.561912 Y86.906591 Z-0.125000 I1.084948 J-5.494422
G02 X127.770001 Y86.761861 Z-0.125000 I0.000000 J-5.114450
G02 X128.665708 Y86.411580 Z-0.125000 I-0.848231 J-3.489368
G02 X129.393665 Y85.829869 Z-0.125000 I-1.360459 J-2.448827
G02 X129.965111 Y84.988424 Z-0.125000 I-2.860585 J-2.557461
G02 X131.220134 Y85.932888 Z-0.125000 I8.884851 J-10.500279
G02 X132.192660 Y86.473456 Z-0.125000 I3.828752 J-5.743128
G02 X133.254198 Y86.806333 Z-0.125000 I1.879757 J-4.135466
G02 X134.358333 Y86.906591 Z-0.125000 I1.104134 J-6.029743
G02 X136.179305 Y86.525569 Z-0.125000 I-0.000000 J-4.541889
G02 X137.328398 Y85.669064 Z-0.125000 I-1.271055 J-2.904322
G02 X137.971351 Y84.378034 Z-0.125000 I-2.970398 J-2.284921
G02 X138.256543 Y82.265864 Z-0.125000 I-7.678916 J-2.112170
G01 X138.256543 Y74.407567 Z-0.125000
G01 X138.380296 Y74.407567 Z-0.125000
G00 Z5.000000

(End cutting path id: XMLID_1177_)


(Start cutting path id: XMLID_1175_)
(ZZZanette)
(Change tool to Default tool)

G00 Z5.000000
G00 X117.218582 Y74.407567

G01 Z-0.125000 F100.0(Penetrate)
G01 X115.176662 Y74.407567 Z-0.125000 F400.000000
G01 X115.176662 Y81.337719 Z-0.125000
G03 X115.135401 Y82.155178 Z-0.125000 I-8.118359 J-0.000000
G03 X115.052910 Y82.884628 Z-0.125000 I-31.091545 J-3.146682
G03 X114.896713 Y83.587311 Z-0.125000 I-3.789889 J-0.473736
G03 X114.681651 Y84.060278 Z-0.125000 I-2.179226 J-0.705531
G03 X114.354756 Y84.460290 Z-0.125000 I-1.535693 J-0.921416
G03 X113.877259 Y84.740918 Z-0.125000 I-0.898414 J-0.982124
G03 X113.365960 Y84.900114 Z-0.125000 I-1.265418 J-3.163545
G03 X112.577855 Y84.988424 Z-0.125000 I-0.788104 J-3.472485
G03 X111.781575 Y84.895251 Z-0.125000 I-0.000000 J-3.449215
G03 X110.845317 Y84.555289 Z-0.125000 I0.999020 J-4.210516
G03 X109.968317 Y84.106037 Z-0.125000 I1.972435 J-4.931087
G03 X109.112779 Y83.503391 Z-0.125000 I5.928950 J-9.325558
G01 X109.112779 Y74.469443 Z-0.125000
G01 X107.070860 Y74.469443 Z-0.125000
G01 X107.070860 Y86.597209 Z-0.125000
G01 X109.112779 Y86.597209 Z-0.125000
G01 X109.112779 Y85.235929 Z-0.125000
G02 X110.107007 Y85.962630 Z-0.125000 I4.059738 J-4.510820
G02 X111.092823 Y86.473456 Z-0.125000 I5.452273 J-9.315381
G02 X112.124005 Y86.803151 Z-0.125000 I1.916006 J-4.215214
G02 X113.196619 Y86.906591 Z-0.125000 I1.072613 J-5.509493
G02 X114.983260 Y86.573386 Z-0.125000 I0.000000 J-4.956582
G02 X116.166684 Y85.730940 Z-0.125000 I-1.058688 J-2.739617
G02 X116.891122 Y84.423870 Z-0.125000 I-2.926584 J-2.476341
G02 X117.218582 Y82.327741 Z-0.125000 I-6.545120 J-2.096130
G01 X117.218582 Y74.407567 Z-0.125000
G00 Z5.000000

(End cutting path id: XMLID_1175_)


(Start cutting path id: XMLID_1172_)
(ZZZanette)
(Change tool to Default tool)

G00 Z5.000000
G00 X103.482031 Y74.407567

G01 Z-0.125000 F100.0(Penetrate)
G01 X101.440111 Y74.407567 Z-0.125000 F400.000000
G01 X101.440111 Y86.535333 Z-0.125000
G01 X103.482031 Y86.535333 Z-0.125000
G01 X103.482031 Y74.407567 Z-0.125000
G00 Z5.000000

(End cutting path id: XMLID_1172_)


(Start cutting path id: XMLID_1169_)
(ZZZanette)
(Change tool to Default tool)

G00 Z5.000000
G00 X97.913159 Y74.407567

G01 Z-0.125000 F100.0(Penetrate)
G01 X95.871239 Y74.407567 Z-0.125000 F400.000000
G01 X95.871239 Y75.706970 Z-0.125000
G03 X95.590216 Y75.513596 Z-0.125000 I6.437393 J-9.656089
G02 X95.128723 Y75.211960 Z-0.125000 I-4.147263 J5.841312
G02 X94.644728 Y74.896111 Z-0.125000 I-1.872602 J2.340752
G03 X94.262454 Y74.655072 Z-0.125000 I1.294801 J-2.477138
G02 X93.755777 Y74.425159 Z-0.125000 I-1.253484 J2.089139
G02 X93.086803 Y74.221938 Z-0.125000 I-6.446892 J20.019493
G02 X92.442433 Y74.091308 Z-0.125000 I-1.154787 J4.041753
G02 X91.539894 Y74.036309 Z-0.125000 I-0.902538 J7.377775
G02 X89.992656 Y74.334280 Z-0.125000 I0.000000 J4.166066
G02 X88.755458 Y75.150083 Z-0.125000 I1.368668 J3.421669
G02 X87.939655 Y76.387281 Z-0.125000 I2.605866 J2.605866
G02 X87.641684 Y77.934519 Z-0.125000 I3.868095 J1.547238
G02 X87.814343 Y79.261466 Z-0.125000 I5.185348 J0.000000
G02 X88.260447 Y80.162068 Z-0.125000 I2.431629 J-0.643695
G02 X88.914172 Y80.873893 Z-0.125000 I2.606536 J-1.737691
G02 X89.931109 Y81.523348 Z-0.125000 I3.598661 J-4.513994
G02 X91.055863 Y81.907787 Z-0.125000 I3.495480 J-8.389153
G02 X92.591792 Y82.203988 Z-0.125000 I2.782049 J-10.295816
G02 X94.171928 Y82.348059 Z-0.125000 I3.540618 J-30.095255
G02 X95.933116 Y82.451493 Z-0.125000 I9.387590 J-144.798207
G01 X95.933116 Y82.760875 Z-0.125000
G03 X95.876168 Y83.423885 Z-0.125000 I-3.888042 J-0.000000
G03 X95.685610 Y83.936526 Z-0.125000 I-1.468534 J-0.254145
G03 X95.389171 Y84.351665 Z-0.125000 I-2.747499 J-1.648500
G03 X95.004970 Y84.679042 Z-0.125000 I-1.173369 J-0.987903
G03 X94.547750 Y84.870058 Z-0.125000 I-0.884113 J-1.473521
G03 X93.953072 Y84.988424 Z-0.125000 I-1.380645 J-5.383402
G03 X93.345046 Y85.040397 Z-0.125000 I-0.762441 J-5.337087
G03 X92.653669 Y85.050300 Z-0.125000 I-0.691378 J-24.128937
G03 X91.849796 Y85.007461 Z-0.125000 I0.000000 J-7.563735
G03 X90.859254 Y84.864671 Z-0.125000 I1.449952 J-13.565504
G03 X89.849913 Y84.605884 Z-0.125000 I1.311323 J-7.212278
G03 X88.817335 Y84.245908 Z-0.125000 I12.988632 J-38.918304
G01 X88.693582 Y84.245908 Z-0.125000
G01 X88.693582 Y86.287827 Z-0.125000
G02 X89.278669 Y86.445131 Z-0.125000 I1.621687 J-4.865061
G02 X90.426120 Y86.659085 Z-0.125000 I6.146228 J-29.778711
G02 X91.543715 Y86.798546 Z-0.125000 I2.258434 J-13.550606
G02 X92.653669 Y86.844715 Z-0.125000 I1.109953 J-13.319441
G02 X93.947742 Y86.790888 Z-0.125000 I-0.000000 J-15.582710
G02 X94.881217 Y86.659085 Z-0.125000 I-0.685597 J-8.227163
G02 X95.766520 Y86.377635 Z-0.125000 I-0.826684 J-4.133421
G02 X96.551879 Y85.916569 Z-0.125000 I-1.645321 J-3.701973
G02 X97.128606 Y85.381184 Z-0.125000 I-1.791685 J-2.508359
G02 X97.603777 Y84.617166 Z-0.125000 I-2.509586 J-2.090577
G02 X97.865218 Y83.785202 Z-0.125000 I-3.510489 J-1.560217
G02 X97.975035 Y82.637122 Z-0.125000 I-5.946386 J-1.148079
G01 X97.975035 Y74.407567 Z-0.125000
G01 X97.913159 Y74.407567 Z-0.125000
G00 Z5.000000

(End cutting path id: XMLID_1169_)


(Start cutting path id: XMLID_1169_)
(ZZZanette)
(Change tool to Default tool)

G00 Z5.000000
G00 X95.933116 Y77.377632

G01 Z-0.125000 F100.0(Penetrate)
G01 X95.933116 Y80.780832 Z-0.125000 F400.000000
G02 X95.006362 Y80.715105 Z-0.125000 I-1.601529 J16.015287
G03 X93.705567 Y80.595203 Z-0.125000 I0.548102 J-13.062189
G03 X92.451916 Y80.440409 Z-0.125000 I0.873384 J-12.227375
G03 X91.725523 Y80.285821 Z-0.125000 I1.826110 J-10.364599
G03 X90.924397 Y79.941939 Z-0.125000 I1.648579 J-4.945736
G03 X90.302367 Y79.481428 Z-0.125000 I1.232213 J-2.314754
G03 X89.907286 Y78.885922 Z-0.125000 I1.274087 J-1.274087
G03 X89.745480 Y78.058272 Z-0.125000 I2.035848 J-0.827650
G03 X89.916063 Y77.099309 Z-0.125000 I2.780780 J0.000000
G03 X90.364243 Y76.511363 Z-0.125000 I1.177017 J0.432426
G03 X91.066549 Y76.129885 Z-0.125000 I1.241525 J1.448445
G03 X92.282411 Y75.954476 Z-0.125000 I1.215862 J4.126215
G03 X93.334516 Y76.064002 Z-0.125000 I0.000000 J5.108033
G03 X94.262454 Y76.387610 Z-0.125000 I-0.792265 J3.764013
G03 X95.119492 Y76.836885 Z-0.125000 I-1.759099 J4.397749
G03 X95.933116 Y77.377632 Z-0.125000 I-189.861080 J286.552803
G01 X95.933116 Y77.377632 Z-0.125000
G00 Z5.000000

(End cutting path id: XMLID_1169_)


(Start cutting path id: XMLID_1167_)
(ZZZanette)
(Change tool to Default tool)

G00 Z5.000000
G00 X86.466033 Y74.469443

G01 Z-0.125000 F100.0(Penetrate)
G02 X85.888258 Y74.325029 Z-0.125000 I-1.226992 J3.680977 F400.000000
G02 X85.228506 Y74.221938 Z-0.125000 I-4.262368 J25.115223
G02 X84.560594 Y74.133120 Z-0.125000 I-4.914675 J34.402728
G02 X83.990979 Y74.098185 Z-0.125000 I-0.569615 J4.626325
G02 X82.277128 Y74.382651 Z-0.125000 I-0.000000 J5.305036
G02 X81.144666 Y75.088207 Z-0.125000 I0.952632 J2.790650
G02 X80.489745 Y76.212113 Z-0.125000 I2.306481 J2.096800
G02 X80.154645 Y78.305777 Z-0.125000 I6.372925 J2.093664
G01 X80.154645 Y84.740918 Z-0.125000
G01 X78.855241 Y84.740918 Z-0.125000
G01 X78.855241 Y86.473456 Z-0.125000
G01 X80.216521 Y86.473456 Z-0.125000
G01 X80.216521 Y89.938532 Z-0.125000
G01 X82.258441 Y89.938532 Z-0.125000
G01 X82.258441 Y86.473456 Z-0.125000
G01 X86.466033 Y86.473456 Z-0.125000
G01 X86.466033 Y84.740918 Z-0.125000
G01 X82.258441 Y84.740918 Z-0.125000
G01 X82.258441 Y79.233923 Z-0.125000
G03 X82.268131 Y78.308171 Z-0.125000 I44.227844 J0.000000
G03 X82.320317 Y77.748890 Z-0.125000 I3.897457 J0.081597
G03 X82.409249 Y77.227980 Z-0.125000 I1.570055 J0.000000
G03 X82.629699 Y76.758868 Z-0.125000 I2.421991 J0.851813
G03 X82.934737 Y76.379879 Z-0.125000 I1.524146 J0.914487
G03 X83.310339 Y76.140105 Z-0.125000 I0.819167 J0.869139
G03 X83.696911 Y76.019349 Z-0.125000 I0.565353 J1.130706
G03 X84.609742 Y75.954476 Z-0.125000 I0.912831 J6.389816
G03 X85.086095 Y75.988705 Z-0.125000 I0.000000 J3.331682
G03 X85.661640 Y76.078229 Z-0.125000 I-3.841298 J26.590582
G02 X86.197902 Y76.243232 Z-0.125000 I3.815709 J-11.447126
G03 X86.466033 Y76.325734 Z-0.125000 I-1.639723 J5.806065
G01 X86.589786 Y76.325734 Z-0.125000
G01 X86.589786 Y74.469443 Z-0.125000
G01 X86.466033 Y74.469443 Z-0.125000
G00 Z5.000000

(End cutting path id: XMLID_1167_)


(Start cutting path id: XMLID_1164_)
(ZZZanette)
(Change tool to Default tool)

G00 Z5.000000
G00 X78.731489 Y84.307784

G01 Z-0.125000 F100.0(Penetrate)
G01 X78.607736 Y84.307784 Z-0.125000 F400.000000
G02 X78.127623 Y84.405336 Z-0.125000 I15.688717 J78.443586
G02 X77.741467 Y84.493413 Z-0.125000 I1.931051 J9.356902
G03 X77.289038 Y84.546065 Z-0.125000 I-0.548355 J-2.741777
G03 X76.751445 Y84.555289 Z-0.125000 I-0.537593 J-15.660581
G03 X75.837798 Y84.455755 Z-0.125000 I0.000000 J-4.243035
G03 X74.957031 Y84.122155 Z-0.125000 I0.701607 J-3.181874
G03 X74.113609 Y83.678816 Z-0.125000 I2.946025 J-6.628556
G03 X73.286369 Y83.070257 Z-0.125000 I3.175498 J-5.183116
G01 X73.286369 Y74.469443 Z-0.125000
G01 X71.244449 Y74.469443 Z-0.125000
G01 X71.244449 Y86.597209 Z-0.125000
G01 X73.286369 Y86.597209 Z-0.125000
G01 X73.286369 Y84.802795 Z-0.125000
G02 X74.562577 Y85.720542 Z-0.125000 I6.448317 J-7.620738
G02 X75.452042 Y86.164075 Z-0.125000 I3.141095 J-5.185542
G02 X76.383258 Y86.470520 Z-0.125000 I2.910546 J-7.276365
G02 X77.370209 Y86.597209 Z-0.125000 I0.986951 J-3.781007
G01 X78.112725 Y86.597209 Z-0.125000
G02 X78.359111 Y86.570062 Z-0.125000 I0.000000 J-1.131677
G03 X78.855241 Y86.473456 Z-0.125000 I2.025853 J9.081734
G01 X78.855241 Y84.307784 Z-0.125000
G01 X78.731489 Y84.307784 Z-0.125000
G00 Z5.000000

(End cutting path id: XMLID_1164_)


(Start cutting path id: XMLID_1159_)
(ZZZanette)
(Change tool to Default tool)

G00 Z5.000000
G00 X68.521890 Y80.223944

G01 Z-0.125000 F100.0(Penetrate)
G01 X59.611695 Y80.223944 Z-0.125000 F400.000000
G03 X59.708888 Y79.088375 Z-0.125000 I6.682347 J0.000000
G03 X59.921076 Y78.305777 Z-0.125000 I4.256441 J0.733997
G03 X60.357500 Y77.531822 Z-0.125000 I4.270029 J1.897791
G03 X60.849222 Y76.944498 Z-0.125000 I3.560359 J2.481313
G03 X61.443688 Y76.486656 Z-0.125000 I2.060422 J2.060422
G03 X62.210502 Y76.140105 Z-0.125000 I2.064464 J3.546399
G03 X62.994797 Y75.949094 Z-0.125000 I1.185020 J3.160054
G03 X63.943039 Y75.892599 Z-0.125000 I0.948243 J7.929683
G03 X65.159085 Y76.017485 Z-0.125000 I0.000000 J5.982933
G03 X66.418094 Y76.387610 Z-0.125000 I-1.643241 J7.915977
G03 X67.634932 Y76.965793 Z-0.125000 I-2.257042 J6.319717
G03 X68.212508 Y77.377632 Z-0.125000 I-2.440364 J4.033366
G01 X68.336261 Y77.377632 Z-0.125000
G01 X68.336261 Y75.150083 Z-0.125000
G02 X67.313380 Y74.735317 Z-0.125000 I-5.517959 J12.139510
G02 X66.232465 Y74.407567 Z-0.125000 I-3.853357 J10.762017
G02 X65.110235 Y74.182104 Z-0.125000 I-2.972692 J11.890769
G02 X64.004916 Y74.098185 Z-0.125000 I-1.105319 J7.237273
G02 X61.146014 Y74.584452 Z-0.125000 I0.000000 J8.647277
G02 X59.302313 Y75.706970 Z-0.125000 I1.712172 J4.887561
G02 X58.115038 Y77.577857 Z-0.125000 I3.591103 J3.591103
G02 X57.631651 Y80.347697 Z-0.125000 I7.694000 J2.769840
G02 X58.104346 Y83.126522 Z-0.125000 I8.404263 J0.000000
G02 X59.240436 Y85.050300 Z-0.125000 I5.401086 J-1.892270
G02 X61.038092 Y86.307682 Z-0.125000 I3.577436 J-3.200864
G02 X63.509905 Y86.782838 Z-0.125000 I2.471813 J-6.191747
G02 X65.784209 Y86.366382 Z-0.125000 I0.000000 J-6.418312
G02 X67.284363 Y85.359682 Z-0.125000 I-1.411098 J-3.723868
G02 X68.189974 Y83.812246 Z-0.125000 I-2.983957 J-2.785026
G02 X68.583766 Y81.275842 Z-0.125000 I-7.971553 J-2.536403
G01 X68.583766 Y80.223944 Z-0.125000
G01 X68.521890 Y80.223944 Z-0.125000
G00 Z5.000000

(End cutting path id: XMLID_1159_)


(Start cutting path id: XMLID_1159_)
(ZZZanette)
(Change tool to Default tool)

G00 Z5.000000
G00 X66.541846 Y81.770853

G01 Z-0.125000 F100.0(Penetrate)
G03 X66.315885 Y83.283160 Z-0.125000 I-5.173736 J-0.000000 F400.000000
G03 X65.737454 Y84.245908 Z-0.125000 I-2.219612 J-0.678433
G03 X64.799753 Y84.847341 Z-0.125000 I-1.845263 J-1.845263
G03 X63.324276 Y85.112177 Z-0.125000 I-1.475477 J-3.977737
G03 X61.783226 Y84.836128 Z-0.125000 I-0.000000 J-4.439500
G03 X60.725469 Y84.122155 Z-0.125000 I0.934712 J-2.525308
G03 X60.006835 Y83.091541 Z-0.125000 I2.529969 J-2.529969
G03 X59.611695 Y81.708977 Z-0.125000 I4.254956 J-1.963826
G01 X66.541846 Y81.708977 Z-0.125000
G01 X66.541846 Y81.770853 Z-0.125000
G00 Z5.000000

(End cutting path id: XMLID_1159_)


(Start cutting path id: XMLID_1156_)
(ZZZanette)
(Change tool to Default tool)

G00 Z5.000000
G00 X56.332248 Y74.469443

G01 Z-0.125000 F100.0(Penetrate)
G02 X55.754472 Y74.325029 Z-0.125000 I-1.226992 J3.680977 F400.000000
G02 X55.094721 Y74.221938 Z-0.125000 I-4.262368 J25.115223
G02 X54.426809 Y74.133120 Z-0.125000 I-4.914675 J34.402728
G02 X53.857193 Y74.098185 Z-0.125000 I-0.569615 J4.626325
G02 X52.143343 Y74.382651 Z-0.125000 I0.000000 J5.305036
G02 X51.010881 Y75.088207 Z-0.125000 I0.952632 J2.790650
G02 X50.355960 Y76.212113 Z-0.125000 I2.306481 J2.096800
G02 X50.020859 Y78.305777 Z-0.125000 I6.372925 J2.093664
G01 X50.020859 Y84.740918 Z-0.125000
G01 X48.659580 Y84.740918 Z-0.125000
G01 X48.659580 Y86.473456 Z-0.125000
G01 X50.020859 Y86.473456 Z-0.125000
G01 X50.020859 Y89.938532 Z-0.125000
G01 X52.062779 Y89.938532 Z-0.125000
G01 X52.062779 Y86.473456 Z-0.125000
G01 X56.270371 Y86.473456 Z-0.125000
G01 X56.270371 Y84.740918 Z-0.125000
G01 X52.062779 Y84.740918 Z-0.125000
G01 X52.062779 Y79.233923 Z-0.125000
G03 X52.072469 Y78.308171 Z-0.125000 I44.227844 J0.000000
G03 X52.124655 Y77.748890 Z-0.125000 I3.897457 J0.081597
G03 X52.213588 Y77.227980 Z-0.125000 I1.570055 J-0.000000
G03 X52.434037 Y76.758868 Z-0.125000 I2.421991 J0.851813
G03 X52.739075 Y76.379879 Z-0.125000 I1.524146 J0.914487
G03 X53.114677 Y76.140105 Z-0.125000 I0.819167 J0.869139
G03 X53.501250 Y76.019349 Z-0.125000 I0.565353 J1.130706
G03 X54.414081 Y75.954476 Z-0.125000 I0.912831 J6.389816
G03 X54.890433 Y75.988705 Z-0.125000 I-0.000000 J3.331682
G03 X55.465979 Y76.078229 Z-0.125000 I-3.841298 J26.590582
G02 X56.002240 Y76.243232 Z-0.125000 I3.815709 J-11.447126
G03 X56.270371 Y76.325734 Z-0.125000 I-1.639723 J5.806065
G01 X56.394124 Y76.325734 Z-0.125000
G01 X56.394124 Y74.469443 Z-0.125000
G01 X56.332248 Y74.469443 Z-0.125000
G00 Z5.000000

(End cutting path id: XMLID_1156_)


(Start cutting path id: XMLID_1154_)
(ZZZanette)
(Change tool to Default tool)

G00 Z5.000000
G00 X46.555783 Y74.407567

G01 Z-0.125000 F100.0(Penetrate)
G01 X44.513864 Y74.407567 Z-0.125000 F400.000000
G01 X44.513864 Y81.337719 Z-0.125000
G03 X44.472603 Y82.155178 Z-0.125000 I-8.118359 J-0.000000
G03 X44.390111 Y82.884628 Z-0.125000 I-31.091545 J-3.146682
G03 X44.233914 Y83.587311 Z-0.125000 I-3.789889 J-0.473736
G03 X44.018853 Y84.060278 Z-0.125000 I-2.179226 J-0.705531
G03 X43.691957 Y84.460290 Z-0.125000 I-1.535693 J-0.921416
G03 X43.214460 Y84.740918 Z-0.125000 I-0.898414 J-0.982124
G03 X42.703161 Y84.900114 Z-0.125000 I-1.265418 J-3.163545
G03 X41.915057 Y84.988424 Z-0.125000 I-0.788104 J-3.472485
G03 X41.118776 Y84.895251 Z-0.125000 I-0.000000 J-3.449215
G03 X40.182519 Y84.555289 Z-0.125000 I0.999020 J-4.210516
G03 X39.305519 Y84.106037 Z-0.125000 I1.972435 J-4.931087
G03 X38.449981 Y83.503391 Z-0.125000 I5.928950 J-9.325558
G01 X38.449981 Y74.469443 Z-0.125000
G01 X36.408061 Y74.469443 Z-0.125000
G01 X36.408061 Y86.597209 Z-0.125000
G01 X38.449981 Y86.597209 Z-0.125000
G01 X38.449981 Y85.235929 Z-0.125000
G02 X39.444209 Y85.962630 Z-0.125000 I4.059738 J-4.510820
G02 X40.430024 Y86.473456 Z-0.125000 I5.452273 J-9.315381
G02 X41.461207 Y86.803151 Z-0.125000 I1.916006 J-4.215214
G02 X42.533820 Y86.906591 Z-0.125000 I1.072613 J-5.509493
G02 X44.320462 Y86.573386 Z-0.125000 I0.000000 J-4.956582
G02 X45.503885 Y85.730940 Z-0.125000 I-1.058688 J-2.739617
G02 X46.228323 Y84.423870 Z-0.125000 I-2.926584 J-2.476341
G02 X46.555783 Y82.327741 Z-0.125000 I-6.545120 J-2.096130
G01 X46.555783 Y74.407567 Z-0.125000
G00 Z5.000000

(End cutting path id: XMLID_1154_)


(Start cutting path id: XMLID_1071_)
(ZZZanette)
(Change tool to Default tool)

G00 Z5.000000
G00 X33.747378 Y80.223944

G01 Z-0.125000 F100.0(Penetrate)
G01 X24.837182 Y80.223944 Z-0.125000 F400.000000
G03 X24.934376 Y79.088375 Z-0.125000 I6.682347 J0.000000
G03 X25.146564 Y78.305777 Z-0.125000 I4.256441 J0.733997
G03 X25.582988 Y77.531822 Z-0.125000 I4.270029 J1.897791
G03 X26.074710 Y76.944498 Z-0.125000 I3.560359 J2.481313
G03 X26.669176 Y76.486656 Z-0.125000 I2.060422 J2.060422
G03 X27.435989 Y76.140105 Z-0.125000 I2.064464 J3.546399
G03 X28.220285 Y75.949094 Z-0.125000 I1.185020 J3.160054
G03 X29.168527 Y75.892599 Z-0.125000 I0.948243 J7.929683
G03 X30.384573 Y76.017485 Z-0.125000 I-0.000000 J5.982933
G03 X31.643582 Y76.387610 Z-0.125000 I-1.643241 J7.915977
G03 X32.860420 Y76.965793 Z-0.125000 I-2.257042 J6.319717
G03 X33.437996 Y77.377632 Z-0.125000 I-2.440364 J4.033366
G01 X33.561749 Y77.377632 Z-0.125000
G01 X33.561749 Y75.150083 Z-0.125000
G02 X32.538868 Y74.735317 Z-0.125000 I-5.517959 J12.139510
G02 X31.457953 Y74.407567 Z-0.125000 I-3.853357 J10.762017
G02 X30.335723 Y74.182104 Z-0.125000 I-2.972692 J11.890769
G02 X29.230404 Y74.098185 Z-0.125000 I-1.105319 J7.237273
G02 X26.371502 Y74.584452 Z-0.125000 I-0.000000 J8.647277
G02 X24.527801 Y75.706970 Z-0.125000 I1.712172 J4.887561
G02 X23.340526 Y77.577857 Z-0.125000 I3.591103 J3.591103
G02 X22.857139 Y80.347697 Z-0.125000 I7.694000 J2.769840
G02 X23.329834 Y83.126522 Z-0.125000 I8.404263 J0.000000
G02 X24.465924 Y85.050300 Z-0.125000 I5.401086 J-1.892270
G02 X26.263580 Y86.307682 Z-0.125000 I3.577436 J-3.200864
G02 X28.735393 Y86.782838 Z-0.125000 I2.471813 J-6.191747
G02 X31.009697 Y86.366382 Z-0.125000 I0.000000 J-6.418312
G02 X32.509851 Y85.359682 Z-0.125000 I-1.411098 J-3.723868
G02 X33.415462 Y83.812246 Z-0.125000 I-2.983957 J-2.785026
G02 X33.809254 Y81.275842 Z-0.125000 I-7.971553 J-2.536403
G01 X33.809254 Y80.223944 Z-0.125000
G01 X33.747378 Y80.223944 Z-0.125000
G00 Z5.000000

(End cutting path id: XMLID_1071_)


(Start cutting path id: XMLID_1071_)
(ZZZanette)
(Change tool to Default tool)

G00 Z5.000000
G00 X31.767334 Y81.770853

G01 Z-0.125000 F100.0(Penetrate)
G03 X31.541373 Y83.283160 Z-0.125000 I-5.173736 J-0.000000 F400.000000
G03 X30.962942 Y84.245908 Z-0.125000 I-2.219612 J-0.678433
G03 X30.025241 Y84.847341 Z-0.125000 I-1.845263 J-1.845263
G03 X28.549764 Y85.112177 Z-0.125000 I-1.475477 J-3.977737
G03 X27.008714 Y84.836128 Z-0.125000 I-0.000000 J-4.439500
G03 X25.950957 Y84.122155 Z-0.125000 I0.934712 J-2.525308
G03 X25.232323 Y83.091541 Z-0.125000 I2.529969 J-2.529969
G03 X24.837182 Y81.708977 Z-0.125000 I4.254956 J-1.963826
G01 X31.767334 Y81.708977 Z-0.125000
G01 X31.767334 Y81.770853 Z-0.125000
G00 Z5.000000

(End cutting path id: XMLID_1071_)


(Start cutting path id: XMLID_1172_)
(ZZZanette)
(Change tool to Default tool)

G00 Z5.000000
G00 X103.605784 Y88.515376

G01 Z-0.125000 F100.0(Penetrate)
G01 X101.316359 Y88.515376 Z-0.125000 F400.000000
G01 X101.316359 Y90.619172 Z-0.125000
G01 X103.605784 Y90.619172 Z-0.125000
G01 X103.605784 Y88.515376 Z-0.125000
G00 Z5.000000

(End cutting path id: XMLID_1172_)


(Start cutting path id: XMLID_1201_)
(ZZZanette)
(Change tool to Default tool)

G00 Z5.000000
G00 X105.833332 Y137.583326

G01 Z-0.125000 F100.0(Penetrate)
G02 X103.675455 Y126.843322 Z-0.125000 I-27.806060 J0.000000 F400.000000
G02 X97.480024 Y117.721016 Z-0.125000 I-25.594291 J10.717438
G02 X88.302716 Y111.641135 Z-0.125000 I-20.008992 J20.236367
G02 X77.432085 Y109.491461 Z-0.125000 I-10.870631 J26.410873
G02 X66.907848 Y111.629445 Z-0.125000 I0.000000 J26.971800
G02 X57.631651 Y117.844769 Z-0.125000 I11.565750 J27.291449
G02 X51.340856 Y127.122893 Z-0.125000 I20.330204 J20.556095
G02 X49.216467 Y137.583326 Z-0.125000 I24.691250 J10.460433
G02 X51.364482 Y148.349858 Z-0.125000 I28.056637 J-0.000000
G02 X57.569775 Y157.569389 Z-0.125000 I26.011611 J-10.809329
G02 X66.784004 Y163.762238 Z-0.125000 I20.396868 J-20.396868
G02 X77.493961 Y165.922697 Z-0.125000 I10.709958 J-25.465790
G02 X88.477711 Y163.762531 Z-0.125000 I0.000000 J-29.004494
G02 X97.603777 Y157.693142 Z-0.125000 I-10.523140 J-25.718594
G02 X103.656837 Y148.606421 Z-0.125000 I-19.647550 J-19.647550
G02 X105.833332 Y137.583326 Z-0.125000 I-26.825570 J-11.023095
G01 X105.833332 Y137.583326 Z-0.125000
G00 Z5.000000

(End cutting path id: XMLID_1201_)


(Start cutting path id: XMLID_1201_)
(ZZZanette)
(Change tool to Default tool)

G00 Z5.000000
G00 X77.308332 Y173.347860

G01 Z-0.125000 F100.0(Penetrate)
G03 X73.533929 Y173.116511 Z-0.125000 I0.000000 J-30.904893 F400.000000
G03 X69.511912 Y172.357838 Z-0.125000 I3.907665 J-31.756520
G01 X90.611749 Y197.912774 Z-0.125000
G01 X91.354265 Y199.954693 Z-0.125000
G01 X91.292389 Y200.202199 Z-0.125000
G03 X89.152529 Y203.179030 Z-0.125000 I-4.114871 J-0.700404
G03 X87.703560 Y203.543522 Z-0.125000 I-1.448969 J-2.697807
G01 X87.517931 Y203.543522 Z-0.125000
G01 X85.228506 Y202.553500 Z-0.125000
G01 X50.763376 Y161.776982 Z-0.125000
G03 X43.441057 Y149.649963 Z-0.125000 I33.439243 J-28.464810
G03 X41.172540 Y137.892708 Z-0.125000 I29.333467 J-11.757255
G03 X43.948490 Y124.418253 Z-0.125000 I34.090471 J-0.000000
G03 X52.000903 Y112.709031 Z-0.125000 I33.501490 J14.415494
G03 X63.892836 Y104.825135 Z-0.125000 I26.794997 J27.506368
G03 X77.246456 Y102.128174 Z-0.125000 I13.353620 J31.710806
G03 X90.763766 Y104.847597 Z-0.125000 I-0.000000 J34.954655
G03 X102.677638 Y112.770908 Z-0.125000 I-14.662299 J34.965731
G03 X110.758126 Y124.570539 Z-0.125000 I-26.046555 J26.503512
G03 X113.506001 Y137.892708 Z-0.125000 I-30.920153 J13.322170
G03 X110.776353 Y151.057960 Z-0.125000 I-33.113215 J-0.000000
G03 X102.739515 Y162.767003 Z-0.125000 I-34.031853 J-14.746060
G03 X90.880210 Y170.633706 Z-0.125000 I-26.279359 J-26.744480
G03 X77.308332 Y173.347860 Z-0.125000 I-13.571877 J-32.575380
G01 X77.308332 Y173.347860 Z-0.125000
G00 Z5.000000

(End cutting path id: XMLID_1201_)


(Start cutting path id: XMLID_1208_)
(ZZZanette)
(Change tool to Default tool)

G00 Z5.000000
G00 X26.693473 Y172.914726

G01 Z-0.125000 F100.0(Penetrate)
G03 X23.937022 Y171.772966 Z-0.125000 I0.000000 J-3.898210 F400.000000
G03 X22.795263 Y169.016515 Z-0.125000 I2.756451 J-2.756451
G01 X22.795263 Y107.325788 Z-0.125000
G01 X22.795263 Y107.202036 Z-0.125000
G03 X25.131447 Y103.664133 Z-0.125000 I4.745254 J0.593157
G03 X26.693473 Y103.241949 Z-0.125000 I1.562026 J2.678554
G03 X29.166654 Y104.362296 Z-0.125000 I0.000000 J3.289963
G03 X30.282302 Y107.325788 Z-0.125000 I-3.378134 J2.963492
G01 X30.282302 Y169.016515 Z-0.125000
G03 X29.192525 Y171.816110 Z-0.125000 I-4.140915 J0.000000
G03 X26.693473 Y172.914726 Z-0.125000 I-2.499052 J-2.293024
G01 X26.693473 Y172.914726 Z-0.125000
G00 Z5.000000

(End cutting path id: XMLID_1208_)


(Start cutting path id: XMLID_1198_)
(ZZZanette)
(Change tool to Default tool)

G00 Z5.000000
G00 X167.029049 Y146.741027

G01 Z-0.125000 F100.0(Penetrate)
G03 X158.923620 Y151.275616 Z-0.125000 I-16.027623 J-19.137461 F400.000000
G03 X148.775524 Y152.928663 Z-0.125000 I-10.148096 J-30.323194
G03 X144.357081 Y152.583104 Z-0.125000 I0.000000 J-28.420680
G03 X139.370317 Y151.443630 Z-0.125000 I5.805584 J-36.889126
G01 X139.246565 Y151.381754 Z-0.125000
G03 X133.648625 Y148.778887 Z-0.125000 I130.236253 J-287.417938
G03 X131.883278 Y147.916678 Z-0.125000 I45.388347 J-95.169596
G01 X131.883278 Y165.427687 Z-0.125000
G01 X167.029049 Y165.427687 Z-0.125000
G01 X167.152801 Y165.427687 Z-0.125000
G03 X168.408596 Y166.010452 Z-0.125000 I-0.468261 J2.653481
G03 X169.875361 Y169.140268 Z-0.125000 I-2.605852 J3.129816
G03 X168.165408 Y172.393049 Z-0.125000 I-4.260517 J-0.163866
G03 X166.967172 Y172.790973 Z-0.125000 I-1.198236 J-1.605115
G01 X130.831380 Y172.790973 Z-0.125000
G03 X127.473507 Y171.730689 Z-0.125000 I-0.000000 J-5.847262
G03 X124.581868 Y166.170203 Z-0.125000 I3.900458 J-5.560486
G01 X124.581868 Y142.533435 Z-0.125000
G01 X124.581868 Y142.409682 Z-0.125000
G03 X126.390631 Y138.947469 Z-0.125000 I5.645087 J0.745578
G03 X127.675686 Y138.449595 Z-0.125000 I1.285056 J1.409486
G03 X130.427902 Y139.044030 Z-0.125000 I0.000000 J6.668560
G03 X136.028994 Y142.224053 Z-0.125000 I-14.636152 J32.301911
G02 X141.293463 Y144.678402 Z-0.125000 I9.646291 J-13.817660
G02 X148.466142 Y145.627253 Z-0.125000 I7.172679 J-26.635926
G02 X155.427141 Y144.385162 Z-0.125000 I0.000000 J-20.126666
G02 X161.027042 Y140.986526 Z-0.125000 I-5.926256 J-16.077408
G01 X161.088918 Y140.924650 Z-0.125000
G02 X165.010321 Y136.128065 Z-0.125000 I-7.645179 J-10.251490
G02 X166.472161 Y129.601277 Z-0.125000 I-13.839404 J-6.526788
G02 X164.980244 Y121.566292 Z-0.125000 I-22.382878 J0.000000
G02 X160.903289 Y115.122209 Z-0.125000 I-18.188663 J6.995640
G02 X154.652391 Y110.876238 Z-0.125000 I-13.329792 J12.899799
G02 X146.733604 Y109.305832 Z-0.125000 I-7.918787 J19.180073
G02 X138.964299 Y110.300336 Z-0.125000 I0.000000 J30.845086
G02 X133.801445 Y112.709031 Z-0.125000 I3.966245 J15.238781
G03 X127.026796 Y116.613095 Z-0.125000 I-26.578077 J-38.290450
G03 X125.943148 Y116.854747 Z-0.125000 I-1.083647 J-2.308892
G03 X124.690765 Y116.523095 Z-0.125000 I-0.000000 J-2.530447
G03 X122.725578 Y113.142166 Z-0.125000 I1.925699 J-3.380929
G03 X124.082096 Y110.243254 Z-0.125000 I3.775781 J-0.000000
G03 X131.635773 Y105.655127 Z-0.125000 I18.996314 J22.762564
G03 X140.693765 Y102.667038 Z-0.125000 I23.192972 J55.083308
G03 X146.733604 Y101.942545 Z-0.125000 I6.039839 J24.813751
G03 X157.519620 Y104.057154 Z-0.125000 I0.000000 J28.565504
G03 X166.595914 Y110.048348 Z-0.125000 I-10.529854 J25.822700
G03 X172.384573 Y118.758261 Z-0.125000 I-18.078213 J18.293430
G03 X174.516088 Y129.786906 Z-0.125000 I-27.465830 J11.028644
G03 X172.496794 Y139.485886 Z-0.125000 I-23.328165 J0.202854
G03 X167.029049 Y146.741027 Z-0.125000 I-18.467543 J-8.229912
G01 X167.029049 Y146.741027 Z-0.125000
G00 Z5.000000

(End cutting path id: XMLID_1198_)


(Footer)
M5
G00 X0.0000 Y0.0000
M2
(Using default footer. To add your own footer create file "footer" in the output dir.)
(end)
%