%
(Header)
(Generated by gcodetools from Inkscape.)
(Using default header. To add your own header create file "header" in the output dir.)
M3
(Header end.)
G21 (All units in mm)

(Start cutting path id: path77)
(ZZZanette)
(Change tool to Default tool)

G00 Z5.000000
G00 X171.532663 Y116.720994

G01 Z-0.125000 F100.0(Penetrate)
G01 X182.817637 Y116.720994 Z-0.125000 F400.000000
G01 X182.817637 Y113.042466 Z-0.125000
G01 X175.616749 Y113.042466 Z-0.125000
G01 X175.616749 Y97.351245 Z-0.125000
G01 X171.532663 Y97.351245 Z-0.125000
G01 X171.532663 Y116.720994 Z-0.125000
G00 Z5.000000

(End cutting path id: path77)


(Start cutting path id: path75)
(ZZZanette)
(Change tool to Default tool)

G00 Z5.000000
G00 X163.875002 Y97.351245

G01 Z-0.125000 F100.0(Penetrate)
G01 X163.875002 Y116.720994 Z-0.125000 F400.000000
G01 X167.959088 Y116.720994 Z-0.125000
G01 X167.959088 Y97.351245 Z-0.125000
G01 X163.875002 Y97.351245 Z-0.125000
G00 Z5.000000

(End cutting path id: path75)


(Start cutting path id: path73)
(ZZZanette)
(Change tool to Default tool)

G00 Z5.000000
G00 X148.640286 Y115.801363

G01 Z-0.125000 F100.0(Penetrate)
G02 X150.423861 Y116.557229 Z-0.125000 I3.716852 J-6.288208 F400.000000
G02 X153.772263 Y117.008379 Z-0.125000 I3.348402 J-12.200215
G02 X159.492042 Y114.691047 Z-0.125000 I0.000000 J-8.217619
G02 X161.053757 Y111.002033 Z-0.125000 I-3.576156 J-3.689014
G02 X159.916430 Y107.811829 Z-0.125000 I-5.042927 J0.000000
G02 X156.378553 Y105.225594 Z-0.125000 I-6.736929 J5.502913
G03 X153.638759 Y103.710625 Z-0.125000 I4.724497 J-11.779090
G03 X153.019930 Y102.495437 Z-0.125000 I0.883711 J-1.215188
G03 X153.527416 Y101.403872 Z-0.125000 I1.427682 J0.000000
G03 X155.653091 Y100.627435 Z-0.125000 I2.125675 J2.521544
G03 X158.290851 Y101.060762 Z-0.125000 I0.000000 J8.244974
G03 X159.414749 Y101.547066 Z-0.125000 I-2.370781 J7.020999
G01 X160.328294 Y98.040969 Z-0.125000
G02 X158.687255 Y97.429005 Z-0.125000 I-3.513749 J6.916159
G02 X155.706829 Y97.063861 Z-0.125000 I-2.980425 J11.981041
G02 X150.562973 Y99.036582 Z-0.125000 I-0.000000 J7.692643
G02 X148.855238 Y102.869038 Z-0.125000 I3.446481 J3.832455
G02 X150.214112 Y106.219519 Z-0.125000 I4.809961 J0.000000
G02 X153.852869 Y108.616737 Z-0.125000 I7.239169 J-7.028134
G03 X156.316462 Y110.069007 Z-0.125000 I-2.792559 J7.552950
G03 X156.889065 Y111.318156 Z-0.125000 I-1.076227 J1.249149
G03 X156.230798 Y112.659110 Z-0.125000 I-1.694961 J-0.000000
G03 X154.014082 Y113.416067 Z-0.125000 I-2.216716 J-2.867300
G03 X151.277788 Y112.992267 Z-0.125000 I-0.000000 J-9.045439
G03 X149.473225 Y112.209050 Z-0.125000 I2.917443 J-9.192408
G01 X148.640286 Y115.801363 Z-0.125000
G00 Z5.000000

(End cutting path id: path73)


(Start cutting path id: path71)
(ZZZanette)
(Change tool to Default tool)

G00 Z5.000000
G00 X141.116968 Y111.749234

G01 Z-0.125000 F100.0(Penetrate)
G01 X142.514156 Y116.720994 Z-0.125000 F400.000000
G01 X146.920669 Y116.720994 Z-0.125000
G01 X141.278182 Y97.351245 Z-0.125000
G01 X135.931255 Y97.351245 Z-0.125000
G01 X130.396243 Y116.720994 Z-0.125000
G01 X134.641543 Y116.720994 Z-0.125000
G01 X135.904385 Y111.749234 Z-0.125000
G01 X141.116968 Y111.749234 Z-0.125000
G00 Z5.000000

(End cutting path id: path71)


(Start cutting path id: path71)
(ZZZanette)
(Change tool to Default tool)

G00 Z5.000000
G00 X136.495503 Y108.473045

G01 Z-0.125000 F100.0(Penetrate)
G01 X137.597131 Y104.363440 Z-0.125000 F400.000000
G02 X138.009358 Y102.516140 Z-0.125000 I-58.485721 J-14.020805
G03 X138.403201 Y100.627435 Z-0.125000 I536.415715 J110.870744
G01 X138.483808 Y100.627435 Z-0.125000
G03 X138.913009 Y102.469887 Z-0.125000 I-143.270058 J34.346074
G02 X139.370484 Y104.363440 Z-0.125000 I65.048898 J-14.713540
G01 X140.498981 Y108.473045 Z-0.125000
G01 X136.495503 Y108.473045 Z-0.125000
G00 Z5.000000

(End cutting path id: path71)


(Start cutting path id: path69)
(ZZZanette)
(Change tool to Default tool)

G00 Z5.000000
G00 X115.537697 Y116.720994

G01 Z-0.125000 F100.0(Penetrate)
G01 X119.594913 Y116.720994 Z-0.125000 F400.000000
G01 X119.594913 Y109.105292 Z-0.125000
G01 X120.804018 Y109.105292 Z-0.125000
G03 X122.470202 Y109.802631 Z-0.125000 I-0.041393 J2.438118
G03 X123.786474 Y112.209050 Z-0.125000 I-3.308636 J3.372970
G02 X124.685076 Y115.817295 Z-0.125000 I54.717029 J-11.710783
G02 X125.022448 Y116.720994 Z-0.125000 I5.805398 J-1.652465
G01 X129.214009 Y116.720994 Z-0.125000
G03 X128.731148 Y115.299517 Z-0.125000 I6.203839 J-2.900131
G02 X127.763084 Y111.231941 Z-0.125000 I-127.449451 J28.183363
G02 X126.753522 Y108.857526 Z-0.125000 I-8.303373 J2.128625
G02 X125.344875 Y107.639628 Z-0.125000 I-2.639966 J1.629858
G01 X125.344875 Y107.553412 Z-0.125000
G02 X127.350266 Y106.111215 Z-0.125000 I-1.775037 J-4.583566
G02 X128.542285 Y102.811560 Z-0.125000 I-3.970915 J-3.299655
G02 X128.041525 Y100.362716 Z-0.125000 I-6.238122 J0.000000
G02 X126.849539 Y98.759432 Z-0.125000 I-3.931077 J1.677878
G02 X124.754612 Y97.669262 Z-0.125000 I-3.317926 J3.817952
G02 X120.992101 Y97.207553 Z-0.125000 I-3.762512 J15.099664
G02 X117.590033 Y97.351142 Z-0.125000 I-0.000000 J40.374489
G02 X115.537697 Y97.638630 Z-0.125000 I1.593787 J18.847212
G01 X115.537697 Y116.720994 Z-0.125000
G00 Z5.000000

(End cutting path id: path69)


(Start cutting path id: path69)
(ZZZanette)
(Change tool to Default tool)

G00 Z5.000000
G00 X119.594913 Y100.627435

G01 Z-0.125000 F100.0(Penetrate)
G03 X120.026557 Y100.546276 Z-0.125000 I0.628671 J2.155155 F400.000000
G03 X121.448872 Y100.483741 Z-0.125000 I1.422315 J16.143706
G03 X123.595110 Y101.278409 Z-0.125000 I0.000000 J3.295611
G03 X124.458199 Y103.156422 Z-0.125000 I-1.611656 J1.878013
G03 X123.604053 Y105.041774 Z-0.125000 I-2.507837 J-0.000000
G03 X121.207053 Y105.944057 Z-0.125000 I-2.397001 J-2.732790
G01 X119.594913 Y105.944057 Z-0.125000
G01 X119.594913 Y100.627435 Z-0.125000
G00 Z5.000000

(End cutting path id: path69)


(Start cutting path id: path67)
(ZZZanette)
(Change tool to Default tool)

G00 Z5.000000
G00 X99.308826 Y116.634779

G01 Z-0.125000 F100.0(Penetrate)
G02 X100.697544 Y116.799703 Z-0.125000 I2.874474 J-18.274922 F400.000000
G02 X103.742208 Y116.922163 Z-0.125000 I3.044664 J-37.787588
G02 X108.749478 Y116.273218 Z-0.125000 I0.000000 J-19.642558
G02 X110.862490 Y115.169116 Z-0.125000 I-1.369553 J-5.194998
G02 X112.163768 Y113.518020 Z-0.125000 I-3.330839 J-3.963472
G02 X112.743318 Y111.059509 Z-0.125000 I-4.924853 J-2.458511
G02 X111.603627 Y107.887085 Z-0.125000 I-4.985198 J-0.000000
G02 X109.142874 Y106.288918 Z-0.125000 I-3.768418 J3.108829
G01 X109.142874 Y106.231442 Z-0.125000
G02 X111.433844 Y104.339481 Z-0.125000 I-1.932817 J-4.673488
G02 X112.098462 Y102.121836 Z-0.125000 I-3.367525 J-2.217645
G02 X111.420255 Y99.722243 Z-0.125000 I-4.584155 J-0.000000
G02 X109.948943 Y98.299616 Z-0.125000 I-3.506119 J2.153960
G02 X107.997331 Y97.528326 Z-0.125000 I-3.003152 J4.744194
G02 X104.602016 Y97.207553 Z-0.125000 I-3.395315 J17.808939
G02 X101.131856 Y97.362905 Z-0.125000 I0.000000 J38.834838
G02 X99.308826 Y97.638630 Z-0.125000 I1.359467 J15.153047
G01 X99.308826 Y116.634779 Z-0.125000
G00 Z5.000000

(End cutting path id: path67)


(Start cutting path id: path67)
(ZZZanette)
(Change tool to Default tool)

G00 Z5.000000
G00 X103.366042 Y100.541219

G01 Z-0.125000 F100.0(Penetrate)
G03 X103.827523 Y100.458259 Z-0.125000 I0.726863 J2.718303 F400.000000
G03 X105.112526 Y100.397527 Z-0.125000 I1.285003 J13.563978
G03 X107.261344 Y101.121251 Z-0.125000 I0.000000 J3.551900
G03 X108.014376 Y102.639129 Z-0.125000 I-1.153267 J1.517878
G03 X107.267477 Y104.155073 Z-0.125000 I-1.911867 J0.000000
G03 X104.709491 Y105.024424 Z-0.125000 I-2.557986 J-3.328644
G01 X103.366042 Y105.024424 Z-0.125000
G01 X103.366042 Y100.541219 Z-0.125000
G00 Z5.000000

(End cutting path id: path67)


(Start cutting path id: path67)
(ZZZanette)
(Change tool to Default tool)

G00 Z5.000000
G00 X103.366042 Y108.156921

G01 Z-0.125000 F100.0(Penetrate)
G01 X104.763230 Y108.156921 Z-0.125000 F400.000000
G03 X107.318713 Y108.877491 Z-0.125000 I0.000000 J4.891764
G03 X108.444280 Y110.887078 Z-0.125000 I-1.231175 J2.009588
G03 X107.275031 Y113.023553 Z-0.125000 I-2.536528 J0.000000
G03 X104.951312 Y113.703452 Z-0.125000 I-2.323718 J-3.630984
G03 X103.950162 Y113.688091 Z-0.125000 I0.000000 J-32.632644
G03 X103.366042 Y113.617236 Z-0.125000 I0.100392 J-3.270747
G01 X103.366042 Y108.156921 Z-0.125000
G00 Z5.000000

(End cutting path id: path67)


(Start cutting path id: path64)
(ZZZanette)
(Change tool to Default tool)

G00 Z5.000000
G00 X180.529909 Y73.788530

G01 Z-0.125000 F100.0(Penetrate)
G01 X168.733549 Y73.788530 Z-0.125000 F400.000000
G01 X168.733549 Y79.770301 Z-0.125000
G01 X173.621284 Y79.770301 Z-0.125000
G01 X173.621284 Y86.908212 Z-0.125000
G03 X172.682786 Y87.179082 Z-0.125000 I-1.442646 J-3.237149
G03 X170.143472 Y87.360615 Z-0.125000 I-2.539314 J-17.669323
G03 X163.419291 Y84.475940 Z-0.125000 I-0.000000 J-9.279375
G03 X160.133014 Y76.251612 Z-0.125000 I8.648079 J-8.224328
G03 X163.736459 Y68.006041 Z-0.125000 I11.235674 J0.000000
G03 X170.660444 Y65.293410 Z-0.125000 I6.923985 J7.480411
G03 X175.458057 Y65.846040 Z-0.125000 I0.000000 J21.101342
G03 X177.992046 Y66.751152 Z-0.125000 I-2.696168 J11.547989
G01 X179.495964 Y60.568314 Z-0.125000
G02 X176.983805 Y59.678768 Z-0.125000 I-5.203509 J10.703131
G02 X170.707441 Y58.959770 Z-0.125000 I-6.276364 J27.034715
G02 X163.242088 Y60.252973 Z-0.125000 I0.000000 J22.194455
G02 X157.783142 Y63.584332 Z-0.125000 I5.286600 J14.801251
G02 X154.203177 Y68.755504 Z-0.125000 I10.196254 J10.883573
G02 X152.613422 Y76.653748 Z-0.125000 I19.257523 J7.985260
G02 X153.880071 Y83.890000 Z-0.125000 I21.303350 J-0.000000
G02 X157.078180 Y89.019425 Z-0.125000 I13.577000 J-4.903332
G02 X161.948995 Y92.143199 Z-0.125000 I9.291915 J-9.129277
G02 X169.955482 Y93.543454 Z-0.125000 I8.006487 J-22.189927
G02 X176.800574 Y92.747583 Z-0.125000 I-0.000000 J-29.834403
G02 X180.529909 Y91.633308 Z-0.125000 I-7.592336 J-32.208521
G01 X180.529909 Y73.788530 Z-0.125000
G00 Z5.000000

(End cutting path id: path64)


(Start cutting path id: path62)
(ZZZanette)
(Change tool to Default tool)

G00 Z5.000000
G00 X122.018081 Y59.311639

G01 Z-0.125000 F100.0(Penetrate)
G01 X122.018081 Y78.212025 Z-0.125000 F400.000000
G02 X123.103668 Y85.852395 Z-0.125000 I27.429288 J0.000000
G02 X125.343151 Y90.012198 Z-0.125000 I10.802809 J-3.133100
G02 X129.123411 Y92.703002 Z-0.125000 I7.231630 J-6.158773
G02 X134.660396 Y93.744521 Z-0.125000 I5.536985 J-14.197256
G02 X140.430220 Y92.673792 Z-0.125000 I0.000000 J-16.081249
G02 X144.365370 Y89.949364 Z-0.125000 I-3.633176 J-9.451910
G02 X146.744134 Y85.731377 Z-0.125000 I-8.554601 J-7.604182
G02 X147.866680 Y78.312558 Z-0.125000 I-23.953924 J-7.418819
G01 X147.866680 Y59.311639 Z-0.125000
G01 X140.723067 Y59.311639 Z-0.125000
G01 X140.723067 Y78.764962 Z-0.125000
G03 X138.585305 Y85.667200 Z-0.125000 I-12.211585 J0.000000
G03 X134.895383 Y87.611951 Z-0.125000 I-3.689922 J-2.528208
G03 X131.271316 Y85.681870 Z-0.125000 I-0.000000 J-4.367454
G03 X129.161694 Y78.764962 Z-0.125000 I10.284570 J-6.916909
G01 X129.161694 Y59.311639 Z-0.125000
G01 X122.018081 Y59.311639 Z-0.125000
G00 Z5.000000

(End cutting path id: path62)


(Start cutting path id: path60)
(ZZZanette)
(Change tool to Default tool)

G00 Z5.000000
G00 X99.459303 Y93.191585

G01 Z-0.125000 F100.0(Penetrate)
G01 X119.198233 Y93.191585 Z-0.125000 F400.000000
G01 X119.198233 Y86.757411 Z-0.125000
G01 X106.602915 Y86.757411 Z-0.125000
G01 X106.602915 Y59.311639 Z-0.125000
G01 X99.459303 Y59.311639 Z-0.125000
G01 X99.459303 Y93.191585 Z-0.125000
G00 Z5.000000

(End cutting path id: path60)


(Start cutting path id: path4286)
(ZZZanette)
(Change tool to Default tool)

G00 Z5.000000
G00 X42.930053 Y41.786040

G01 Z-0.125000 F100.0(Penetrate)
G02 X37.731831 Y44.292657 Z-0.125000 I6.272860 J19.651998 F400.000000
G02 X35.607292 Y46.618072 Z-0.125000 I3.671347 J5.487420
G02 X35.619357 Y48.837024 Z-0.125000 I2.013636 J1.098560
G02 X38.702058 Y51.361869 Z-0.125000 I4.755558 J-2.661954
G02 X55.394552 Y53.746275 Z-0.125000 I15.289675 J-47.416605
G02 X68.771221 Y51.891841 Z-0.125000 I-1.738321 J-61.711579
G02 X74.509268 Y49.019637 Z-0.125000 I-3.652664 J-14.465030
G02 X75.566305 Y46.924955 Z-0.125000 I-1.800384 J-2.222573
G02 X74.664084 Y44.524437 Z-0.125000 I-3.256776 J-0.145766
G02 X70.798569 Y41.896004 Z-0.125000 I-8.101955 J7.758537
G02 X60.084143 Y39.530010 Z-0.125000 I-12.261999 J30.085399
G02 X42.930053 Y41.786040 Z-0.125000 I-2.321956 J48.689604
G00 Z5.000000

(End cutting path id: path4286)


(Start cutting path id: path4278)
(ZZZanette)
(Change tool to Default tool)

G00 Z5.000000
G00 X35.192234 Y48.479810

G01 Z-0.125000 F100.0(Penetrate)
G02 X35.217691 Y55.791975 Z-0.125000 I1050.157718 J0.000000 F400.000000
G02 X35.297440 Y59.908540 Z-0.125000 I165.925236 J-1.155352
G02 X35.909828 Y61.415754 Z-0.125000 I2.343776 J-0.074273
G02 X38.702043 Y63.422426 Z-0.125000 I6.162547 J-5.629002
G02 X54.987359 Y66.628534 Z-0.125000 I15.259568 J-34.547038
G02 X68.771206 Y63.953838 Z-0.125000 I-1.164358 J-42.854792
G02 X74.579087 Y60.167967 Z-0.125000 I-5.493289 J-14.775071
G02 X75.437944 Y58.052758 Z-0.125000 I-2.175257 J-2.115208
G01 X75.568741 Y46.529110 Z-0.125000
G00 Z5.000000

(End cutting path id: path4278)


(Start cutting path id: path4262)
(ZZZanette)
(Change tool to Default tool)

G00 Z5.000000
G00 X35.261834 Y54.250527

G01 Z-0.125000 F100.0(Penetrate)
G01 X18.808968 Y59.419274 Z-0.125000 F400.000000
G00 Z5.000000

(End cutting path id: path4262)


(Start cutting path id: path4262)
(ZZZanette)
(Change tool to Default tool)

G00 Z5.000000
G00 X50.963245 Y72.072174

G01 Z-0.125000 F100.0(Penetrate)
G01 X91.999422 Y58.473616 Z-0.125000 F400.000000
G01 X75.479953 Y52.530812 Z-0.125000
G00 Z5.000000

(End cutting path id: path4262)


(Start cutting path id: path4258)
(ZZZanette)
(Change tool to Default tool)

G00 Z5.000000
G00 X91.999487 Y58.473670

G01 Z-0.125000 F100.0(Penetrate)
G01 X50.963309 Y72.072228 Z-0.125000 F400.000000
G01 X50.963309 Y133.207556 Z-0.125000
G01 X91.999487 Y118.188430 Z-0.125000
G01 X91.999487 Y58.473670 Z-0.125000
G00 Z5.000000

(End cutting path id: path4258)


(Start cutting path id: path4254)
(ZZZanette)
(Change tool to Default tool)

G00 Z5.000000
G00 X18.809490 Y59.419360

G01 Z-0.125000 F100.0(Penetrate)
G01 X50.963168 Y72.070979 Z-0.125000 F400.000000
G01 X50.963168 Y133.206308 Z-0.125000
G01 X18.809490 Y118.897866 Z-0.125000
G01 X18.809490 Y59.419360 Z-0.125000
G00 Z5.000000

(End cutting path id: path4254)


(Footer)
M5
G00 X0.0000 Y0.0000
M2
(Using default footer. To add your own footer create file "footer" in the output dir.)
(end)
%