%
(Header)
(Generated by gcodetools from Inkscape.)
(Using default header. To add your own header create file "header" in the output dir.)
M3
(Header end.)
G21 (All units in mm)

(Start cutting path id: path77)
(ZZZanette)
(Change tool to Default tool)

G00 Z5.000000
G00 X171.532663 Y56.384756

G01 Z-0.125000 F100.0(Penetrate)
G01 X182.817637 Y56.384756 Z-0.125000 F400.000000
G01 X182.817637 Y60.063284 Z-0.125000
G01 X175.616749 Y60.063284 Z-0.125000
G01 X175.616749 Y75.754505 Z-0.125000
G01 X171.532663 Y75.754505 Z-0.125000
G01 X171.532663 Y56.384756 Z-0.125000
G00 Z5.000000

(End cutting path id: path77)


(Start cutting path id: path75)
(ZZZanette)
(Change tool to Default tool)

G00 Z5.000000
G00 X163.875002 Y75.754505

G01 Z-0.125000 F100.0(Penetrate)
G01 X163.875002 Y56.384756 Z-0.125000 F400.000000
G01 X167.959088 Y56.384756 Z-0.125000
G01 X167.959088 Y75.754505 Z-0.125000
G01 X163.875002 Y75.754505 Z-0.125000
G00 Z5.000000

(End cutting path id: path75)


(Start cutting path id: path73)
(ZZZanette)
(Change tool to Default tool)

G00 Z5.000000
G00 X148.640286 Y57.304388

G01 Z-0.125000 F100.0(Penetrate)
G03 X150.423861 Y56.548521 Z-0.125000 I3.716852 J6.288208 F400.000000
G03 X153.772263 Y56.097371 Z-0.125000 I3.348402 J12.200215
G03 X159.492042 Y58.414703 Z-0.125000 I0.000000 J8.217619
G03 X161.053757 Y62.103717 Z-0.125000 I-3.576156 J3.689014
G03 X159.916430 Y65.293921 Z-0.125000 I-5.042927 J-0.000000
G03 X156.378553 Y67.880157 Z-0.125000 I-6.736929 J-5.502913
G02 X153.638759 Y69.395125 Z-0.125000 I4.724497 J11.779090
G02 X153.019930 Y70.610313 Z-0.125000 I0.883711 J1.215188
G02 X153.527416 Y71.701878 Z-0.125000 I1.427682 J-0.000000
G02 X155.653091 Y72.478315 Z-0.125000 I2.125675 J-2.521544
G02 X158.290851 Y72.044988 Z-0.125000 I0.000000 J-8.244974
G02 X159.414749 Y71.558684 Z-0.125000 I-2.370781 J-7.020999
G01 X160.328294 Y75.064781 Z-0.125000
G03 X158.687255 Y75.676746 Z-0.125000 I-3.513749 J-6.916159
G03 X155.706829 Y76.041890 Z-0.125000 I-2.980425 J-11.981041
G03 X150.562973 Y74.069168 Z-0.125000 I0.000000 J-7.692643
G03 X148.855238 Y70.236713 Z-0.125000 I3.446481 J-3.832455
G03 X150.214112 Y66.886232 Z-0.125000 I4.809961 J-0.000000
G03 X153.852869 Y64.489013 Z-0.125000 I7.239169 J7.028134
G02 X156.316462 Y63.036744 Z-0.125000 I-2.792559 J-7.552950
G02 X156.889065 Y61.787594 Z-0.125000 I-1.076227 J-1.249149
G02 X156.230798 Y60.446641 Z-0.125000 I-1.694961 J0.000000
G02 X154.014082 Y59.689684 Z-0.125000 I-2.216716 J2.867300
G02 X151.277788 Y60.113484 Z-0.125000 I-0.000000 J9.045439
G02 X149.473225 Y60.896700 Z-0.125000 I2.917443 J9.192408
G01 X148.640286 Y57.304388 Z-0.125000
G00 Z5.000000

(End cutting path id: path73)


(Start cutting path id: path71)
(ZZZanette)
(Change tool to Default tool)

G00 Z5.000000
G00 X141.116968 Y61.356517

G01 Z-0.125000 F100.0(Penetrate)
G01 X142.514156 Y56.384756 Z-0.125000 F400.000000
G01 X146.920669 Y56.384756 Z-0.125000
G01 X141.278182 Y75.754505 Z-0.125000
G01 X135.931255 Y75.754505 Z-0.125000
G01 X130.396243 Y56.384756 Z-0.125000
G01 X134.641543 Y56.384756 Z-0.125000
G01 X135.904385 Y61.356517 Z-0.125000
G01 X141.116968 Y61.356517 Z-0.125000
G00 Z5.000000

(End cutting path id: path71)


(Start cutting path id: path71)
(ZZZanette)
(Change tool to Default tool)

G00 Z5.000000
G00 X136.495503 Y64.632705

G01 Z-0.125000 F100.0(Penetrate)
G01 X137.597131 Y68.742311 Z-0.125000 F400.000000
G03 X138.009358 Y70.589611 Z-0.125000 I-58.485721 J14.020805
G02 X138.403201 Y72.478315 Z-0.125000 I536.415715 J-110.870744
G01 X138.483808 Y72.478315 Z-0.125000
G02 X138.913009 Y70.635863 Z-0.125000 I-143.270058 J-34.346074
G03 X139.370484 Y68.742311 Z-0.125000 I65.048898 J14.713540
G01 X140.498981 Y64.632705 Z-0.125000
G01 X136.495503 Y64.632705 Z-0.125000
G00 Z5.000000

(End cutting path id: path71)


(Start cutting path id: path69)
(ZZZanette)
(Change tool to Default tool)

G00 Z5.000000
G00 X119.594913 Y72.478315

G01 Z-0.125000 F100.0(Penetrate)
G02 X120.026557 Y72.559475 Z-0.125000 I0.628671 J-2.155155 F400.000000
G02 X121.448872 Y72.622009 Z-0.125000 I1.422315 J-16.143706
G02 X123.595110 Y71.827341 Z-0.125000 I0.000000 J-3.295611
G02 X124.458199 Y69.949329 Z-0.125000 I-1.611656 J-1.878013
G02 X123.604053 Y68.063976 Z-0.125000 I-2.507837 J0.000000
G02 X121.207053 Y67.161694 Z-0.125000 I-2.397001 J2.732790
G01 X119.594913 Y67.161694 Z-0.125000
G01 X119.594913 Y72.478315 Z-0.125000
G00 Z5.000000

(End cutting path id: path69)


(Start cutting path id: path67)
(ZZZanette)
(Change tool to Default tool)

G00 Z5.000000
G00 X103.366042 Y72.564532

G01 Z-0.125000 F100.0(Penetrate)
G02 X103.827523 Y72.647491 Z-0.125000 I0.726863 J-2.718303 F400.000000
G02 X105.112526 Y72.708224 Z-0.125000 I1.285003 J-13.563978
G02 X107.261344 Y71.984499 Z-0.125000 I0.000000 J-3.551900
G02 X108.014376 Y70.466621 Z-0.125000 I-1.153267 J-1.517878
G02 X107.267477 Y68.950677 Z-0.125000 I-1.911867 J0.000000
G02 X104.709491 Y68.081326 Z-0.125000 I-2.557986 J3.328644
G01 X103.366042 Y68.081326 Z-0.125000
G01 X103.366042 Y72.564532 Z-0.125000
G00 Z5.000000

(End cutting path id: path67)


(Start cutting path id: path67)
(ZZZanette)
(Change tool to Default tool)

G00 Z5.000000
G00 X103.366042 Y64.948830

G01 Z-0.125000 F100.0(Penetrate)
G01 X104.763230 Y64.948830 Z-0.125000 F400.000000
G02 X107.318713 Y64.228260 Z-0.125000 I0.000000 J-4.891764
G02 X108.444280 Y62.218672 Z-0.125000 I-1.231175 J-2.009588
G02 X107.275031 Y60.082197 Z-0.125000 I-2.536528 J-0.000000
G02 X104.951312 Y59.402298 Z-0.125000 I-2.323718 J3.630984
G02 X103.950162 Y59.417659 Z-0.125000 I0.000000 J32.632644
G02 X103.366042 Y59.488514 Z-0.125000 I0.100392 J3.270747
G01 X103.366042 Y64.948830 Z-0.125000
G00 Z5.000000

(End cutting path id: path67)


(Start cutting path id: path67)
(ZZZanette)
(Change tool to Default tool)

G00 Z5.000000
G00 X99.308826 Y56.470971

G01 Z-0.125000 F100.0(Penetrate)
G03 X100.697544 Y56.306048 Z-0.125000 I2.874474 J18.274922 F400.000000
G03 X103.742208 Y56.183587 Z-0.125000 I3.044664 J37.787588
G03 X108.749478 Y56.832532 Z-0.125000 I0.000000 J19.642558
G03 X110.862490 Y57.936635 Z-0.125000 I-1.369553 J5.194998
G03 X112.163768 Y59.587730 Z-0.125000 I-3.330839 J3.963472
G03 X112.743318 Y62.046241 Z-0.125000 I-4.924853 J2.458511
G03 X111.603627 Y65.218665 Z-0.125000 I-4.985198 J-0.000000
G03 X109.142874 Y66.816832 Z-0.125000 I-3.768418 J-3.108829
G01 X109.142874 Y66.874308 Z-0.125000
G03 X111.433844 Y68.766269 Z-0.125000 I-1.932817 J4.673488
G03 X112.098462 Y70.983915 Z-0.125000 I-3.367525 J2.217645
G03 X111.420255 Y73.383507 Z-0.125000 I-4.584155 J0.000000
G03 X109.948943 Y74.806134 Z-0.125000 I-3.506119 J-2.153960
G03 X107.997331 Y75.577424 Z-0.125000 I-3.003152 J-4.744194
G03 X104.602016 Y75.898198 Z-0.125000 I-3.395315 J-17.808939
G03 X101.131856 Y75.742845 Z-0.125000 I0.000000 J-38.834838
G03 X99.308826 Y75.467120 Z-0.125000 I1.359467 J-15.153047
G01 X99.308826 Y56.470971 Z-0.125000
G00 Z5.000000

(End cutting path id: path67)


(Start cutting path id: path69)
(ZZZanette)
(Change tool to Default tool)

G00 Z5.000000
G00 X115.537697 Y56.384756

G01 Z-0.125000 F100.0(Penetrate)
G01 X119.594913 Y56.384756 Z-0.125000 F400.000000
G01 X119.594913 Y64.000458 Z-0.125000
G01 X120.804018 Y64.000458 Z-0.125000
G02 X122.470202 Y63.303120 Z-0.125000 I-0.041393 J-2.438118
G02 X123.786474 Y60.896700 Z-0.125000 I-3.308636 J-3.372970
G03 X124.685076 Y57.288456 Z-0.125000 I54.717029 J11.710783
G03 X125.022448 Y56.384756 Z-0.125000 I5.805398 J1.652465
G01 X129.214009 Y56.384756 Z-0.125000
G02 X128.731148 Y57.806233 Z-0.125000 I6.203839 J2.900131
G03 X127.763084 Y61.873809 Z-0.125000 I-127.449451 J-28.183363
G03 X126.753522 Y64.248224 Z-0.125000 I-8.303373 J-2.128625
G03 X125.344875 Y65.466122 Z-0.125000 I-2.639966 J-1.629858
G01 X125.344875 Y65.552338 Z-0.125000
G03 X127.350266 Y66.994535 Z-0.125000 I-1.775037 J4.583566
G03 X128.542285 Y70.294190 Z-0.125000 I-3.970915 J3.299655
G03 X128.041525 Y72.743034 Z-0.125000 I-6.238122 J-0.000000
G03 X126.849539 Y74.346318 Z-0.125000 I-3.931077 J-1.677878
G03 X124.754612 Y75.436488 Z-0.125000 I-3.317926 J-3.817952
G03 X120.992101 Y75.898198 Z-0.125000 I-3.762512 J-15.099664
G03 X117.590033 Y75.754608 Z-0.125000 I-0.000000 J-40.374489
G03 X115.537697 Y75.467120 Z-0.125000 I1.593787 J-18.847212
G01 X115.537697 Y56.384756 Z-0.125000
G00 Z5.000000

(End cutting path id: path69)


(Start cutting path id: path60)
(ZZZanette)
(Change tool to Default tool)

G00 Z5.000000
G00 X99.459303 Y79.914166

G01 Z-0.125000 F100.0(Penetrate)
G01 X119.198233 Y79.914166 Z-0.125000 F400.000000
G01 X119.198233 Y86.348339 Z-0.125000
G01 X106.602915 Y86.348339 Z-0.125000
G01 X106.602915 Y113.794111 Z-0.125000
G01 X99.459303 Y113.794111 Z-0.125000
G01 X99.459303 Y79.914166 Z-0.125000
G00 Z5.000000

(End cutting path id: path60)


(Start cutting path id: path4262)
(ZZZanette)
(Change tool to Default tool)

G00 Z5.000000
G00 X91.999422 Y114.632134

G01 Z-0.125000 F100.0(Penetrate)
G01 X75.479953 Y120.574938 Z-0.125000 F400.000000
G00 Z5.000000

(End cutting path id: path4262)


(Start cutting path id: path4286)
(ZZZanette)
(Change tool to Default tool)

G00 Z5.000000
G00 X42.930053 Y131.319710

G01 Z-0.125000 F100.0(Penetrate)
G03 X37.731831 Y128.813093 Z-0.125000 I6.272860 J-19.651998 F400.000000
G03 X35.607292 Y126.487678 Z-0.125000 I3.671347 J-5.487420
G03 X35.619357 Y124.268726 Z-0.125000 I2.013636 J-1.098560
G03 X38.702058 Y121.743881 Z-0.125000 I4.755558 J2.661954
G03 X55.394552 Y119.359475 Z-0.125000 I15.289675 J47.416605
G03 X68.771221 Y121.213909 Z-0.125000 I-1.738321 J61.711579
G03 X74.509268 Y124.086114 Z-0.125000 I-3.652664 J14.465030
G03 X75.566305 Y126.180795 Z-0.125000 I-1.800384 J2.222573
G03 X74.664084 Y128.581313 Z-0.125000 I-3.256776 J0.145766
G03 X70.798569 Y131.209746 Z-0.125000 I-8.101955 J-7.758537
G03 X60.084143 Y133.575740 Z-0.125000 I-12.261999 J-30.085399
G03 X42.930053 Y131.319710 Z-0.125000 I-2.321956 J-48.689604
G00 Z5.000000

(End cutting path id: path4286)


(Start cutting path id: path4278)
(ZZZanette)
(Change tool to Default tool)

G00 Z5.000000
G00 X35.192234 Y124.625940

G01 Z-0.125000 F100.0(Penetrate)
G03 X35.217691 Y117.313775 Z-0.125000 I1050.157718 J-0.000000 F400.000000
G03 X35.297440 Y113.197210 Z-0.125000 I165.925236 J1.155352
G03 X35.909828 Y111.689996 Z-0.125000 I2.343776 J0.074273
G03 X38.702043 Y109.683325 Z-0.125000 I6.162547 J5.629002
G03 X54.987359 Y106.477216 Z-0.125000 I15.259568 J34.547038
G03 X68.771206 Y109.151912 Z-0.125000 I-1.164358 J42.854792
G03 X74.579087 Y112.937784 Z-0.125000 I-5.493289 J14.775071
G03 X75.437944 Y115.052992 Z-0.125000 I-2.175257 J2.115208
G01 X75.568741 Y126.576640 Z-0.125000
G00 Z5.000000

(End cutting path id: path4278)


(Start cutting path id: path4262)
(ZZZanette)
(Change tool to Default tool)

G00 Z5.000000
G00 X35.261834 Y118.855224

G01 Z-0.125000 F100.0(Penetrate)
G01 X18.808968 Y113.686476 Z-0.125000 F400.000000
G00 Z5.000000

(End cutting path id: path4262)


(Start cutting path id: path4254)
(ZZZanette)
(Change tool to Default tool)

G00 Z5.000000
G00 X18.809490 Y113.686390

G01 Z-0.125000 F100.0(Penetrate)
G01 X50.963168 Y101.034771 Z-0.125000 F400.000000
G01 X50.963168 Y39.899443 Z-0.125000
G01 X18.809490 Y54.207885 Z-0.125000
G01 X18.809490 Y113.686390 Z-0.125000
G00 Z5.000000

(End cutting path id: path4254)


(Start cutting path id: path4258)
(ZZZanette)
(Change tool to Default tool)

G00 Z5.000000
G00 X50.963309 Y39.898194

G01 Z-0.125000 F100.0(Penetrate)
G01 X91.999487 Y54.917320 Z-0.125000 F400.000000
G01 X91.999487 Y114.632080 Z-0.125000
G01 X50.963309 Y101.033522 Z-0.125000
G00 Z5.000000

(End cutting path id: path4258)


(Start cutting path id: path62)
(ZZZanette)
(Change tool to Default tool)

G00 Z5.000000
G00 X122.018081 Y113.794111

G01 Z-0.125000 F100.0(Penetrate)
G01 X122.018081 Y94.893725 Z-0.125000 F400.000000
G03 X123.103668 Y87.253355 Z-0.125000 I27.429288 J-0.000000
G03 X125.343151 Y83.093552 Z-0.125000 I10.802809 J3.133100
G03 X129.123411 Y80.402748 Z-0.125000 I7.231630 J6.158773
G03 X134.660396 Y79.361229 Z-0.125000 I5.536985 J14.197256
G03 X140.430220 Y80.431958 Z-0.125000 I0.000000 J16.081249
G03 X144.365370 Y83.156386 Z-0.125000 I-3.633176 J9.451910
G03 X146.744134 Y87.374373 Z-0.125000 I-8.554601 J7.604182
G03 X147.866680 Y94.793192 Z-0.125000 I-23.953924 J7.418819
G01 X147.866680 Y113.794111 Z-0.125000
G01 X140.723067 Y113.794111 Z-0.125000
G01 X140.723067 Y94.340789 Z-0.125000
G02 X138.585305 Y87.438551 Z-0.125000 I-12.211585 J0.000000
G02 X134.895383 Y85.493800 Z-0.125000 I-3.689922 J2.528208
G02 X131.271316 Y87.423880 Z-0.125000 I-0.000000 J4.367454
G02 X129.161694 Y94.340789 Z-0.125000 I10.284570 J6.916909
G01 X129.161694 Y113.794111 Z-0.125000
G01 X122.018081 Y113.794111 Z-0.125000
G00 Z5.000000

(End cutting path id: path62)


(Start cutting path id: path64)
(ZZZanette)
(Change tool to Default tool)

G00 Z5.000000
G00 X180.529909 Y99.317220

G01 Z-0.125000 F100.0(Penetrate)
G01 X168.733549 Y99.317220 Z-0.125000 F400.000000
G01 X168.733549 Y93.335450 Z-0.125000
G01 X173.621284 Y93.335450 Z-0.125000
G01 X173.621284 Y86.197539 Z-0.125000
G02 X172.682786 Y85.926669 Z-0.125000 I-1.442646 J3.237149
G02 X170.143472 Y85.745135 Z-0.125000 I-2.539314 J17.669323
G02 X163.419291 Y88.629810 Z-0.125000 I-0.000000 J9.279375
G02 X160.133014 Y96.854138 Z-0.125000 I8.648079 J8.224328
G02 X163.736459 Y105.099709 Z-0.125000 I11.235674 J0.000000
G02 X170.660444 Y107.812341 Z-0.125000 I6.923985 J-7.480411
G02 X175.458057 Y107.259710 Z-0.125000 I0.000000 J-21.101342
G02 X177.992046 Y106.354598 Z-0.125000 I-2.696168 J-11.547989
G01 X179.495964 Y112.537437 Z-0.125000
G03 X176.983805 Y113.426983 Z-0.125000 I-5.203509 J-10.703131
G03 X170.707441 Y114.145980 Z-0.125000 I-6.276364 J-27.034715
G03 X163.242088 Y112.852777 Z-0.125000 I-0.000000 J-22.194455
G03 X157.783142 Y109.521418 Z-0.125000 I5.286600 J-14.801251
G03 X154.203177 Y104.350246 Z-0.125000 I10.196254 J-10.883573
G03 X152.613422 Y96.452002 Z-0.125000 I19.257523 J-7.985260
G03 X153.880071 Y89.215751 Z-0.125000 I21.303350 J0.000000
G03 X157.078180 Y84.086325 Z-0.125000 I13.577000 J4.903332
G03 X161.948995 Y80.962551 Z-0.125000 I9.291915 J9.129277
G03 X169.955482 Y79.562296 Z-0.125000 I8.006487 J22.189927
G03 X176.800574 Y80.358168 Z-0.125000 I-0.000000 J29.834403
G03 X180.529909 Y81.472442 Z-0.125000 I-7.592336 J32.208521
G01 X180.529909 Y99.317220 Z-0.125000
G00 Z5.000000

(End cutting path id: path64)
