%
(Header)
(Generated by gcodetools from Inkscape.)
(Using default header. To add your own header create file "header" in the output dir.)
M3
(Header end.)
G21 (All units in mm)

(Start cutting path id: path4286)
(ZZZanette)
(Change tool to Default tool)

G00 Z5.000000
G00 X42.930053 Y131.319710

G01 Z-0.125000 F100.0(Penetrate)
G03 X37.731831 Y128.813093 Z-0.125000 I6.272860 J-19.651998 F400.000000
G03 X35.607292 Y126.487678 Z-0.125000 I3.671347 J-5.487420
G03 X35.619357 Y124.268726 Z-0.125000 I2.013636 J-1.098560
G03 X38.702058 Y121.743881 Z-0.125000 I4.755558 J2.661954
G03 X55.394552 Y119.359475 Z-0.125000 I15.289675 J47.416605
G03 X68.771221 Y121.213909 Z-0.125000 I-1.738321 J61.711579
G03 X74.509268 Y124.086114 Z-0.125000 I-3.652664 J14.465030
G03 X75.566305 Y126.180795 Z-0.125000 I-1.800384 J2.222573
G03 X74.664084 Y128.581313 Z-0.125000 I-3.256776 J0.145766
G03 X70.798569 Y131.209746 Z-0.125000 I-8.101955 J-7.758537
G03 X60.084143 Y133.575740 Z-0.125000 I-12.261999 J-30.085399
G03 X42.930053 Y131.319710 Z-0.125000 I-2.321956 J-48.689604
G00 Z5.000000

(End cutting path id: path4286)


(Start cutting path id: path4278)
(ZZZanette)
(Change tool to Default tool)

G00 Z5.000000
G00 X35.192234 Y124.625940

G01 Z-0.125000 F100.0(Penetrate)
G03 X35.217691 Y117.313775 Z-0.125000 I1050.157718 J-0.000000 F400.000000
G03 X35.297440 Y113.197210 Z-0.125000 I165.925236 J1.155352
G03 X35.909828 Y111.689996 Z-0.125000 I2.343776 J0.074273
G03 X38.702043 Y109.683325 Z-0.125000 I6.162547 J5.629002
G03 X54.987359 Y106.477216 Z-0.125000 I15.259568 J34.547038
G03 X68.771206 Y109.151912 Z-0.125000 I-1.164358 J42.854792
G03 X74.579087 Y112.937784 Z-0.125000 I-5.493289 J14.775071
G03 X75.437944 Y115.052992 Z-0.125000 I-2.175257 J2.115208
G01 X75.568741 Y126.576640 Z-0.125000
G00 Z5.000000

(End cutting path id: path4278)


(Start cutting path id: path4262)
(ZZZanette)
(Change tool to Default tool)

G00 Z5.000000
G00 X91.999422 Y114.632134

G01 Z-0.125000 F100.0(Penetrate)
G01 X75.479953 Y120.574938 Z-0.125000 F400.000000
G00 Z5.000000

(End cutting path id: path4262)


(Start cutting path id: path4262)
(ZZZanette)
(Change tool to Default tool)

G00 Z5.000000
G00 X35.261834 Y118.855224

G01 Z-0.125000 F100.0(Penetrate)
G01 X18.808968 Y113.686476 Z-0.125000 F400.000000
G00 Z5.000000

(End cutting path id: path4262)


(Start cutting path id: path4254)
(ZZZanette)
(Change tool to Default tool)

G00 Z5.000000
G00 X18.809490 Y113.686390

G01 Z-0.125000 F100.0(Penetrate)
G01 X50.963168 Y101.034771 Z-0.125000 F400.000000
G01 X50.963168 Y39.899443 Z-0.125000
G01 X18.809490 Y54.207885 Z-0.125000
G01 X18.809490 Y113.686390 Z-0.125000
G00 Z5.000000

(End cutting path id: path4254)


(Start cutting path id: path4258)
(ZZZanette)
(Change tool to Default tool)

G00 Z5.000000
G00 X50.963309 Y39.898194

G01 Z-0.125000 F100.0(Penetrate)
G01 X91.999487 Y54.917320 Z-0.125000 F400.000000
G01 X91.999487 Y114.632080 Z-0.125000
G01 X50.963309 Y101.033522 Z-0.125000
G00 Z5.000000

(End cutting path id: path4258)
