%
(Header)
(Generated by gcodetools from Inkscape.)
(Using default header. To add your own header create file "header" in the output dir.)
M3
(Header end.)
G21 (All units in mm)

(Start cutting path id: path6701)
(ZZZanette)
(Change tool to Default tool)

G00 Z5.000000
G00 X90.111510 Y145.601055

G01 Z-0.125000 F100.0(Penetrate)
G03 X89.566674 Y144.996013 Z-0.125000 I0.078068 J-0.618131 F400.000000
G03 X90.080295 Y144.364712 Z-0.125000 I0.628549 J-0.013207
G03 X90.667360 Y144.756246 Z-0.125000 I0.054010 J0.554907
G03 X90.510351 Y145.431764 Z-0.125000 I-0.660600 J0.202464
G03 X90.332916 Y145.565037 Z-0.125000 I-0.355945 J-0.289141
G03 X90.111510 Y145.601055 Z-0.125000 I-0.184756 J-0.437193
G01 X90.111510 Y145.601055 Z-0.125000
G00 Z5.000000

(End cutting path id: path6701)


(Start cutting path id: path6699)
(ZZZanette)
(Change tool to Default tool)

G00 Z5.000000
G00 X89.690421 Y146.336826

G01 Z-0.125000 F100.0(Penetrate)
G03 X88.111794 Y144.580049 Z-0.125000 I0.229785 J-1.794143 F400.000000
G03 X89.601011 Y142.745545 Z-0.125000 I1.828005 J-0.037770
G03 X91.288402 Y143.874979 Z-0.125000 I0.157003 J1.590646
G03 X90.832875 Y145.845074 Z-0.125000 I-1.948424 J0.587195
G03 X90.323281 Y146.232585 Z-0.125000 I-1.028849 J-0.824158
G03 X89.690421 Y146.336826 Z-0.125000 I-0.527928 J-1.231908
G01 X89.690421 Y146.336826 Z-0.125000
G00 Z5.000000

(End cutting path id: path6699)


(Start cutting path id: path6691)
(ZZZanette)
(Change tool to Default tool)

G00 Z5.000000
G00 X97.525170 Y143.042815

G01 Z-0.125000 F100.0(Penetrate)
G03 X96.980334 Y142.437773 Z-0.125000 I0.078068 J-0.618131 F400.000000
G03 X97.493955 Y141.806472 Z-0.125000 I0.628549 J-0.013207
G03 X98.081020 Y142.198006 Z-0.125000 I0.054010 J0.554907
G03 X97.924011 Y142.873524 Z-0.125000 I-0.660600 J0.202464
G03 X97.746576 Y143.006797 Z-0.125000 I-0.355945 J-0.289141
G03 X97.525170 Y143.042815 Z-0.125000 I-0.184756 J-0.437193
G01 X97.525170 Y143.042815 Z-0.125000
G00 Z5.000000

(End cutting path id: path6691)


(Start cutting path id: path6673)
(ZZZanette)
(Change tool to Default tool)

G00 Z5.000000
G00 X97.104081 Y143.778586

G01 Z-0.125000 F100.0(Penetrate)
G03 X95.525454 Y142.021809 Z-0.125000 I0.229785 J-1.794143 F400.000000
G03 X97.014671 Y140.187305 Z-0.125000 I1.828005 J-0.037770
G03 X98.702062 Y141.316739 Z-0.125000 I0.157003 J1.590646
G03 X98.246535 Y143.286834 Z-0.125000 I-1.948424 J0.587195
G03 X97.736941 Y143.674345 Z-0.125000 I-1.028849 J-0.824158
G03 X97.104081 Y143.778586 Z-0.125000 I-0.527928 J-1.231908
G01 X97.104081 Y143.778586 Z-0.125000
G00 Z5.000000

(End cutting path id: path6673)


(Start cutting path id: path6643)
(ZZZanette)
(Change tool to Default tool)

G00 Z5.000000
G00 X105.728900 Y175.539750

G01 Z-0.125000 F100.0(Penetrate)
G03 X98.343205 Y174.015242 Z-0.125000 I0.024177 J-18.769907 F400.000000
G03 X93.142030 Y171.362340 Z-0.125000 I17.516810 J-40.767826
G03 X87.535287 Y164.720847 Z-0.125000 I13.581604 J-17.152930
G03 X84.429570 Y152.462170 Z-0.125000 I22.151976 J-12.134921
G03 X85.368868 Y147.630991 Z-0.125000 I25.828669 J2.514818
G03 X86.793960 Y146.705190 Z-0.125000 I1.253638 J0.370006
G01 X86.793960 Y149.655710 Z-0.125000
G03 X95.704989 Y147.027035 Z-0.125000 I8.754013 J13.257279
G03 X105.103030 Y148.329460 Z-0.125000 I-0.367805 J37.212427
G03 X106.270681 Y143.748528 Z-0.125000 I227.312336 J55.501209
G03 X108.942670 Y138.136780 Z-0.125000 I16.354487 J4.345062
G01 X112.633300 Y137.694700 Z-0.125000
G02 X114.795738 Y141.456807 Z-0.125000 I39.861130 J-20.409418
G02 X117.332426 Y144.514344 Z-0.125000 I13.694447 J-8.780561
G02 X118.706291 Y145.480150 Z-0.125000 I4.038572 J-4.284822
G02 X119.602204 Y145.563989 Z-0.125000 I0.554040 J-1.091699
G02 X120.235605 Y145.044727 Z-0.125000 I-0.291135 J-1.001075
G02 X120.903680 Y142.865550 Z-0.125000 I-5.555313 J-2.895100
G03 X122.193655 Y138.842000 Z-0.125000 I20.100541 J4.225797
G03 X124.008170 Y137.843720 Z-0.125000 I1.557697 J0.683126
G02 X123.959620 Y137.671863 Z-0.125000 I-4.231515 J1.102627
G03 X123.908870 Y137.500980 Z-0.125000 I12.078923 J-3.680258
G01 X124.152260 Y137.545680 Z-0.125000
G01 X128.583000 Y155.561690 Z-0.125000
G03 X126.173903 Y164.476907 Z-0.125000 I-17.158625 J0.146449
G03 X116.030900 Y173.577700 Z-0.125000 I-19.620280 J-11.664488
G03 X109.875988 Y175.173447 Z-0.125000 I-13.520089 J-39.480123
G03 X105.728940 Y175.539740 Z-0.125000 I-4.118440 J-22.968692
G01 X105.728900 Y175.539750 Z-0.125000
G00 Z5.000000

(End cutting path id: path6643)


(Start cutting path id: path6689)
(ZZZanette)
(Change tool to Default tool)

G00 Z5.000000
G00 X92.799700 Y145.914930

G01 Z-0.125000 F100.0(Penetrate)
G03 X90.206954 Y148.471567 Z-0.125000 I-6.287837 J-3.783643 F400.000000
G03 X88.475330 Y148.597380 Z-0.125000 I-0.994346 J-1.706164
G00 Z5.000000

(End cutting path id: path6689)


(Start cutting path id: path6687)
(ZZZanette)
(Change tool to Default tool)

G00 Z5.000000
G00 X95.505760 Y145.521480

G01 Z-0.125000 F100.0(Penetrate)
G02 X100.520953 Y145.982509 Z-0.125000 I3.525823 J-10.846029 F400.000000
G02 X103.627560 Y144.635470 Z-0.125000 I-0.805175 J-6.112759
G00 Z5.000000

(End cutting path id: path6687)


(Start cutting path id: path6669)
(ZZZanette)
(Change tool to Default tool)

G00 Z5.000000
G00 X90.337340 Y135.627660

G01 Z-0.125000 F100.0(Penetrate)
G03 X92.483618 Y133.873118 Z-0.125000 I3.953505 J2.646192 F400.000000
G03 X95.653430 Y134.003300 Z-0.125000 I1.443244 J3.514410
G00 Z5.000000

(End cutting path id: path6669)


(Start cutting path id: path6121)
(ZZZanette)
(Change tool to Default tool)

G00 Z5.000000
G00 X93.881400 Y130.311570

G01 Z-0.125000 F100.0(Penetrate)
G03 X94.467765 Y128.772344 Z-0.125000 I6.144508 J1.459438 F400.000000
G03 X96.222882 Y126.900943 Z-0.125000 I4.414988 J2.381922
G03 X98.644207 Y125.905858 Z-0.125000 I4.127753 J6.600572
G03 X105.251920 Y125.143150 Z-0.125000 I6.885638 J30.649374
G03 X115.726999 Y127.779193 Z-0.125000 I0.189095 J21.379477
G03 X117.360780 Y130.606910 Z-0.125000 I-1.515390 J2.761389
G00 Z5.000000

(End cutting path id: path6121)


(Start cutting path id: path6119)
(ZZZanette)
(Change tool to Default tool)

G00 Z5.000000
G00 X86.793280 Y149.656220

G01 Z-0.125000 F100.0(Penetrate)
G01 X86.793280 Y137.842700 Z-0.125000 F400.000000
G03 X90.218593 Y132.375137 Z-0.125000 I9.110965 J1.901103
G03 X96.834780 Y129.425550 Z-0.125000 I9.392193 J12.172383
G03 X105.610109 Y128.412248 Z-0.125000 I8.021478 J30.962647
G03 X114.407400 Y129.720890 Z-0.125000 I-0.846746 J35.916243
G03 X121.701679 Y133.823050 Z-0.125000 I-3.695178 J15.106864
G03 X124.005890 Y137.842700 Z-0.125000 I-6.236714 J6.245368
G00 Z5.000000

(End cutting path id: path6119)


(Start cutting path id: path3328)
(ZZZanette)
(Change tool to Default tool)

G00 Z5.000000
G00 X115.784730 Y86.165090

G01 Z-0.125000 F100.0(Penetrate)
G03 X114.818677 Y86.127421 Z-0.125000 I0.119986 J-15.483527 F400.000000
G03 X113.792890 Y86.021040 Z-0.125000 I1.091541 J-15.524099
G03 X113.614129 Y85.706627 Z-0.125000 I0.000000 J-0.208025
G03 X115.009850 Y83.979520 Z-0.125000 I6.702464 J3.988928
G01 X115.496630 Y85.112040 Z-0.125000
G02 X120.714419 Y83.965840 Z-0.125000 I0.000000 J-12.449443
G02 X124.353140 Y81.024040 Z-0.125000 I-4.004006 J-8.673839
G01 X123.563360 Y79.444480 Z-0.125000
G03 X125.853707 Y79.236399 Z-0.125000 I1.637231 J5.312025
G03 X126.851640 Y80.229290 Z-0.125000 I-0.134009 J1.132635
G03 X121.787832 Y84.626804 Z-0.125000 I-13.032405 J-9.892738
G03 X115.784730 Y86.165090 Z-0.125000 I-5.918325 J-10.613456
G01 X115.784730 Y86.165090 Z-0.125000
G00 Z5.000000

(End cutting path id: path3328)


(Start cutting path id: path3322)
(ZZZanette)
(Change tool to Default tool)

G00 Z5.000000
G00 X126.623860 Y80.569100

G01 Z-0.125000 F100.0(Penetrate)
G01 X134.798440 Y98.507760 Z-0.125000 F400.000000
G03 X135.545351 Y103.858165 Z-0.125000 I-8.628148 J3.931816
G03 X134.117230 Y108.271850 Z-0.125000 I-14.153089 J-2.141577
G01 X130.257010 Y115.765210 Z-0.125000
G03 X126.758172 Y120.837846 Z-0.125000 I-13.833858 J-5.798895
G03 X119.584630 Y122.123220 Z-0.125000 I-4.561747 J-4.798556
G03 X115.050938 Y116.462059 Z-0.125000 I3.039414 J-7.080054
G03 X115.043200 Y109.180130 Z-0.125000 I19.543916 J-3.661736
G01 X119.584630 Y98.507760 Z-0.125000
G01 X113.680770 Y85.791750 Z-0.125000
G02 X121.659751 Y84.370668 Z-0.125000 I1.751661 J-13.275335
G02 X126.623860 Y80.569100 Z-0.125000 I-8.601562 J-16.373832
G01 X126.623860 Y80.569100 Z-0.125000
G00 Z5.000000

(End cutting path id: path3322)


(Start cutting path id: path3326)
(ZZZanette)
(Change tool to Default tool)

G00 Z5.000000
G00 X122.763640 Y77.844240

G01 Z-0.125000 F100.0(Penetrate)
G01 X124.353140 Y81.023240 Z-0.125000 F400.000000
G00 Z5.000000

(End cutting path id: path3326)


(Start cutting path id: path3326)
(ZZZanette)
(Change tool to Default tool)

G00 Z5.000000
G00 X115.497340 Y85.110530

G01 Z-0.125000 F100.0(Penetrate)
G01 X114.134910 Y81.931530 Z-0.125000 F400.000000
G00 Z5.000000

(End cutting path id: path3326)


(Start cutting path id: path3333)
(ZZZanette)
(Change tool to Default tool)

G00 Z5.000000
G00 X110.032720 Y83.115200

G01 Z-0.125000 F100.0(Penetrate)
G03 X109.278645 Y83.341940 Z-0.125000 I-1.557975 J-3.814098 F400.000000
G03 X108.502820 Y83.423170 Z-0.125000 I-0.827848 J-4.161215
G01 X108.502820 Y83.423200 Z-0.125000
G03 X108.391392 Y83.422175 Z-0.125000 I-0.032294 J-2.546130
G03 X108.279300 Y83.418200 Z-0.125000 I0.399441 J-12.846875
G03 X104.745283 Y82.047836 Z-0.125000 I0.219576 J-5.808364
G03 X101.399740 Y77.442660 Z-0.125000 I7.716886 J-9.123935
G03 X100.566513 Y71.789689 Z-0.125000 I11.061183 J-4.518269
G03 X102.149780 Y68.337800 Z-0.125000 I5.750675 J0.548602
G01 X103.043880 Y70.528330 Z-0.125000
G00 Z5.000000

(End cutting path id: path3333)


(Start cutting path id: path3333)
(ZZZanette)
(Change tool to Default tool)

G00 Z5.000000
G00 X106.962990 Y69.440510

G01 Z-0.125000 F100.0(Penetrate)
G01 X106.009290 Y67.120840 Z-0.125000 F400.000000
G00 Z5.000000

(End cutting path id: path3333)


(Start cutting path id: path3297)
(ZZZanette)
(Change tool to Default tool)

G00 Z5.000000
G00 X74.397360 Y49.006130

G01 Z-0.125000 F100.0(Penetrate)
G01 X74.283830 Y38.560830 Z-0.125000 F400.000000
G01 X92.563100 Y30.726860 Z-0.125000
G00 Z5.000000

(End cutting path id: path3297)


(Start cutting path id: path3295)
(ZZZanette)
(Change tool to Default tool)

G00 Z5.000000
G00 X79.847080 Y50.595630

G01 Z-0.125000 F100.0(Penetrate)
G01 X74.737970 Y48.892590 Z-0.125000 F400.000000
G01 X92.790170 Y41.399230 Z-0.125000
G01 X97.445140 Y43.556410 Z-0.125000
G01 X79.847080 Y50.595630 Z-0.125000
G00 Z5.000000

(End cutting path id: path3295)


(Start cutting path id: path3293)
(ZZZanette)
(Change tool to Default tool)

G00 Z5.000000
G00 X79.960620 Y67.739540

G01 Z-0.125000 F100.0(Penetrate)
G01 X79.847080 Y50.709170 Z-0.125000 F400.000000
G00 Z5.000000

(End cutting path id: path3293)


(Start cutting path id: path3291)
(ZZZanette)
(Change tool to Default tool)

G00 Z5.000000
G00 X100.363860 Y73.738970

G01 Z-0.125000 F100.0(Penetrate)
G01 X99.261720 Y74.211090 Z-0.125000 F400.000000
G03 X98.169506 Y68.086527 Z-0.125000 I11.434300 J-5.198788
G03 X100.624150 Y60.473250 Z-0.125000 I16.910106 J1.249745
G01 X118.222200 Y53.547560 Z-0.125000
G00 Z5.000000

(End cutting path id: path3291)


(Start cutting path id: path3289)
(ZZZanette)
(Change tool to Default tool)

G00 Z5.000000
G00 X97.558680 Y61.040930

G01 Z-0.125000 F100.0(Penetrate)
G02 X94.147121 Y68.482939 Z-0.125000 I8.672424 J8.478570 F400.000000
G02 X95.287960 Y75.800590 Z-0.125000 I15.506963 J1.330184
G01 X78.598190 Y81.704450 Z-0.125000
G03 X77.600563 Y74.495796 Z-0.125000 I11.614486 J-5.280723
G03 X79.960620 Y67.966620 Z-0.125000 I17.694766 J2.704883
G01 X97.558680 Y61.040930 Z-0.125000
G00 Z5.000000

(End cutting path id: path3289)


(Start cutting path id: path3285)
(ZZZanette)
(Change tool to Default tool)

G00 Z5.000000
G00 X100.722420 Y42.968100

G01 Z-0.125000 F100.0(Penetrate)
G01 X118.705590 Y35.823010 Z-0.125000 F400.000000
G00 Z5.000000

(End cutting path id: path3285)


(Start cutting path id: path3283)
(ZZZanette)
(Change tool to Default tool)

G00 Z5.000000
G00 X113.888920 Y33.575110

G01 Z-0.125000 F100.0(Penetrate)
G01 X95.735200 Y40.735650 Z-0.125000 F400.000000
G01 X95.745200 Y30.203270 Z-0.125000
G01 X113.888920 Y23.058180 Z-0.125000
G00 Z5.000000

(End cutting path id: path3283)


(Start cutting path id: path3276)
(ZZZanette)
(Change tool to Default tool)

G00 Z5.000000
G00 X95.492360 Y75.677200

G01 Z-0.125000 F100.0(Penetrate)
G03 X93.937732 Y67.761811 Z-0.125000 I10.903756 J-6.251924 F400.000000
G03 X97.589900 Y61.433430 Z-0.125000 I9.508924 J1.269648
G01 X97.272000 Y43.452190 Z-0.125000
G01 X92.612770 Y41.202050 Z-0.125000
G01 X92.612770 Y30.924930 Z-0.125000
G01 X95.542710 Y32.178790 Z-0.125000
G01 X95.542710 Y40.590380 Z-0.125000
G01 X100.594340 Y43.005850 Z-0.125000
G01 X100.803670 Y60.310840 Z-0.125000
G02 X99.796383 Y61.549748 Z-0.125000 I2.827006 J3.327420
G02 X98.054781 Y66.060681 Z-0.125000 I16.340072 J8.900318
G02 X97.710322 Y70.295963 Z-0.125000 I13.205418 J3.205658
G02 X99.391480 Y74.233480 Z-0.125000 I6.632026 J-0.503952
G02 X97.603107 Y74.925538 Z-0.125000 I8.673136 J25.069301
G03 X95.492360 Y75.677200 Z-0.125000 I-6.987389 J-16.281904
G01 X95.492360 Y75.677200 Z-0.125000
G00 Z5.000000

(End cutting path id: path3276)


(Start cutting path id: path3272)
(ZZZanette)
(Change tool to Default tool)

G00 Z5.000000
G00 X129.916400 Y74.978970

G01 Z-0.125000 F100.0(Penetrate)
G01 X134.039170 Y76.687680 Z-0.125000 F400.000000
G01 X134.039170 Y83.751030 Z-0.125000
G01 X127.366880 Y81.040670 Z-0.125000
G00 Z5.000000

(End cutting path id: path3272)


(Start cutting path id: path3270)
(ZZZanette)
(Change tool to Default tool)

G00 Z5.000000
G00 X76.878680 Y90.816160

G01 Z-0.125000 F100.0(Penetrate)
G01 X76.385990 Y82.451790 Z-0.125000 F400.000000
G01 X78.598190 Y81.704450 Z-0.125000
G00 Z5.000000

(End cutting path id: path3270)


(Start cutting path id: path3268)
(ZZZanette)
(Change tool to Default tool)

G00 Z5.000000
G00 X134.039170 Y83.751030

G01 Z-0.125000 F100.0(Penetrate)
G01 X135.002830 Y84.233040 Z-0.125000 F400.000000
G00 Z5.000000

(End cutting path id: path3268)


(Start cutting path id: path3268)
(ZZZanette)
(Change tool to Default tool)

G00 Z5.000000
G00 X135.002830 Y84.233040

G01 Z-0.125000 F100.0(Penetrate)
G01 X133.672870 Y96.124640 Z-0.125000 F400.000000
G00 Z5.000000

(End cutting path id: path3268)


(Start cutting path id: path3268)
(ZZZanette)
(Change tool to Default tool)

G00 Z5.000000
G00 X131.373640 Y113.533060

G01 Z-0.125000 F100.0(Penetrate)
G01 X129.222530 Y128.709250 Z-0.125000 F400.000000
G00 Z5.000000

(End cutting path id: path3268)


(Start cutting path id: path3266)
(ZZZanette)
(Change tool to Default tool)

G00 Z5.000000
G00 X113.852380 Y82.585550

G01 Z-0.125000 F100.0(Penetrate)
G01 X109.312600 Y121.002180 Z-0.125000 F400.000000
G00 Z5.000000

(End cutting path id: path3266)


(Start cutting path id: path3266)
(ZZZanette)
(Change tool to Default tool)

G00 Z5.000000
G00 X80.892780 Y131.920530

G01 Z-0.125000 F100.0(Penetrate)
G01 X75.594170 Y91.458420 Z-0.125000 F400.000000
G01 X103.118740 Y80.792290 Z-0.125000
G00 Z5.000000

(End cutting path id: path3266)


(Start cutting path id: path3274)
(ZZZanette)
(Change tool to Default tool)

G00 Z5.000000
G00 X123.567690 Y76.122720

G01 Z-0.125000 F100.0(Penetrate)
G02 X130.513763 Y73.644551 Z-0.125000 I1.691595 J-6.232297 F400.000000
G02 X133.604780 Y66.249880 Z-0.125000 I-14.650946 J-10.467551
G01 X133.123090 Y30.444110 Z-0.125000
G01 X113.694850 Y23.218730 Z-0.125000
G01 X113.694850 Y33.494830 Z-0.125000
G01 X118.351210 Y35.742720 Z-0.125000
G01 X118.672330 Y53.725890 Z-0.125000
G02 X115.330766 Y58.151513 Z-0.125000 I13.053005 J13.329998
G02 X114.619437 Y60.270886 Z-0.125000 I5.682267 J3.086207
G02 X114.693755 Y62.627840 Z-0.125000 I6.454971 J0.976115
G03 X114.747690 Y63.696970 Z-0.125000 I-3.229186 J0.698829
G00 Z5.000000

(End cutting path id: path3274)


(Start cutting path id: path3374)
(ZZZanette)
(Change tool to Default tool)

G00 Z5.000000
G00 X51.292820 Y87.778630

G01 Z-0.125000 F100.0(Penetrate)
G01 X56.118090 Y87.040640 Z-0.125000 F400.000000
G00 Z5.000000

(End cutting path id: path3374)


(Start cutting path id: path3359)
(ZZZanette)
(Change tool to Default tool)

G00 Z5.000000
G00 X71.558970 Y97.713010

G01 Z-0.125000 F100.0(Penetrate)
G01 X72.807860 Y99.870190 Z-0.125000 F400.000000
G00 Z5.000000

(End cutting path id: path3359)


(Start cutting path id: path3359)
(ZZZanette)
(Change tool to Default tool)

G00 Z5.000000
G00 X65.882170 Y105.300630

G01 Z-0.125000 F100.0(Penetrate)
G01 X63.611460 Y102.027380 Z-0.125000 F400.000000
G00 Z5.000000

(End cutting path id: path3359)


(Start cutting path id: path3357)
(ZZZanette)
(Change tool to Default tool)

G00 Z5.000000
G00 X55.567410 Y86.885370

G01 Z-0.125000 F100.0(Penetrate)
G01 X56.233720 Y86.872570 Z-0.125000 F400.000000
G01 X63.271530 Y83.746080 Z-0.125000
G03 X69.734016 Y85.405341 Z-0.125000 I0.349556 J12.053218
G03 X72.808540 Y88.743080 Z-0.125000 I-3.959148 J6.731831
G03 X73.354754 Y93.532156 Z-0.125000 I-9.695875 J3.531543
G03 X71.785300 Y97.713830 Z-0.125000 I-9.445606 J-1.159741
G01 X71.606480 Y97.808230 Z-0.125000
G01 X71.556780 Y97.713830 Z-0.125000
G02 X66.632512 Y99.668573 Z-0.125000 I-0.080491 J6.977058
G03 X63.609270 Y102.025350 Z-0.125000 I-12.676397 J-13.143640
G01 X63.658970 Y102.109750 Z-0.125000
G01 X63.609270 Y102.139550 Z-0.125000
G01 X58.955070 Y103.048580 Z-0.125000
G01 X58.905370 Y102.810150 Z-0.125000
G03 X58.979966 Y102.783632 Z-0.125000 I2.054153 J5.660331
G02 X59.054380 Y102.755550 Z-0.125000 I-0.505177 J-1.451268
G00 Z5.000000

(End cutting path id: path3357)


(Start cutting path id: path3355)
(ZZZanette)
(Change tool to Default tool)

G00 Z5.000000
G00 X102.213650 Y68.250460

G01 Z-0.125000 F100.0(Penetrate)
G01 X106.244170 Y67.398940 Z-0.125000 F400.000000
G00 Z5.000000

(End cutting path id: path3355)


(Start cutting path id: path3342)
(ZZZanette)
(Change tool to Default tool)

G00 Z5.000000
G00 X110.841740 Y73.612020

G01 Z-0.125000 F100.0(Penetrate)
G02 X109.269580 Y71.077972 Z-0.125000 I-7.687419 J3.014666 F400.000000
G02 X107.241860 Y69.652890 Z-0.125000 I-4.180486 J3.793187
G03 X104.723826 Y70.149764 Z-0.125000 I-4.166038 J-14.483630
G02 X102.962320 Y70.597080 Z-0.125000 I0.716597 J6.513933
G02 X102.235644 Y72.821389 Z-0.125000 I4.176544 J2.595323
G02 X102.811690 Y76.892130 Z-0.125000 I9.559638 J0.723354
G02 X105.984051 Y80.810151 Z-0.125000 I7.420548 J-2.764987
G02 X109.215150 Y81.099200 Z-0.125000 I1.895190 J-2.981406
G02 X111.279959 Y78.640112 Z-0.125000 I-1.303389 J-3.190827
G02 X110.841740 Y73.612020 Z-0.125000 I-8.321657 J-1.807876
G01 X110.841740 Y73.612020 Z-0.125000
G00 Z5.000000

(End cutting path id: path3342)


(Start cutting path id: path3337)
(ZZZanette)
(Change tool to Default tool)

G00 Z5.000000
G00 X109.933380 Y83.408300

G01 Z-0.125000 F100.0(Penetrate)
G01 X109.878780 Y83.169870 Z-0.125000 F400.000000
G03 X109.955812 Y83.143398 Z-0.125000 I0.817860 J2.254642
G02 X110.032760 Y83.115270 Z-0.125000 I-0.347304 J-1.069398
G02 X112.815298 Y79.800176 Z-0.125000 I-1.756213 J-4.299399
G02 X112.223290 Y73.021930 Z-0.125000 I-11.225854 J-2.434517
G02 X109.207493 Y68.653328 Z-0.125000 I-11.442932 J4.674196
G02 X105.924180 Y66.933570 Z-0.125000 I-4.776957 J5.125947
G01 X113.792930 Y63.768050 Z-0.125000
G03 X119.044107 Y64.732508 Z-0.125000 I0.202128 J13.677230
G03 X123.672670 Y68.988570 Z-0.125000 I-3.247402 J8.176487
G03 X124.222389 Y72.807447 Z-0.125000 I-12.029672 J3.680649
G03 X122.877920 Y77.730830 Z-0.125000 I-10.092967 J-0.110906
G02 X117.605185 Y79.303918 Z-0.125000 I-0.020780 J9.553571
G02 X114.364150 Y82.156600 Z-0.125000 I8.522569 J12.950266
G01 X109.933380 Y83.408300 Z-0.125000
G00 Z5.000000

(End cutting path id: path3337)


(Start cutting path id: path3335)
(ZZZanette)
(Change tool to Default tool)

G00 Z5.000000
G00 X57.345700 Y103.063480

G01 Z-0.125000 F100.0(Penetrate)
G03 X53.791794 Y101.712587 Z-0.125000 I0.158474 J-5.767134 F400.000000
G03 X50.421430 Y97.087950 Z-0.125000 I7.683042 J-9.139736
G03 X49.588386 Y91.428049 Z-0.125000 I11.065055 J-4.519848
G03 X51.176440 Y87.973150 Z-0.125000 I5.751037 J0.551053
G01 X52.179820 Y89.905390 Z-0.125000
G02 X51.190732 Y92.453130 Z-0.125000 I3.581258 J2.856184
G02 X51.832110 Y96.422340 Z-0.125000 I8.889715 J0.599950
G02 X54.315543 Y99.837450 Z-0.125000 I8.190949 J-3.345857
G02 X56.938390 Y100.853080 Z-0.125000 I2.785976 J-3.300191
G02 X57.600169 Y100.810953 Z-0.125000 I0.123811 J-3.274097
G02 X58.239790 Y100.629550 Z-0.125000 I-0.490917 J-2.949300
G02 X60.304168 Y98.169312 Z-0.125000 I-1.302801 J-3.189402
G02 X59.864060 Y93.139030 Z-0.125000 I-8.335662 J-1.805092
G02 X58.139799 Y90.430270 Z-0.125000 I-8.344666 J3.408627
G02 X56.193310 Y89.051030 Z-0.125000 I-4.234190 J3.912476
G01 X56.039320 Y87.044280 Z-0.125000
G03 X58.790111 Y88.872342 Z-0.125000 I-2.665001 J6.993851
G03 X61.244940 Y92.662180 Z-0.125000 I-8.787908 J8.382241
G03 X61.836941 Y99.440430 Z-0.125000 I-10.633893 J4.343724
G03 X59.054410 Y102.755510 Z-0.125000 I-4.538728 J-0.984300
G03 X58.336486 Y102.975800 Z-0.125000 I-1.578324 J-3.863752
G03 X57.599020 Y103.063480 Z-0.125000 I-0.858365 J-4.074382
G03 X57.472747 Y103.065357 Z-0.125000 I-0.108280 J-3.035455
G03 X57.345700 Y103.063480 Z-0.125000 I0.042516 J-7.176930
G01 X57.345700 Y103.063480 Z-0.125000
G00 Z5.000000

(End cutting path id: path3335)


(Start cutting path id: path3324)
(ZZZanette)
(Change tool to Default tool)

G00 Z5.000000
G00 X80.528300 Y129.389510

G01 Z-0.125000 F100.0(Penetrate)
G01 X64.406210 Y106.909420 Z-0.125000 F400.000000
G01 X74.120160 Y98.675690 Z-0.125000
G01 X77.235760 Y103.616880 Z-0.125000
G00 Z5.000000

(End cutting path id: path3324)


(Start cutting path id: path6123)
(ZZZanette)
(Change tool to Default tool)

G00 Z5.000000
G00 X87.911580 Y134.818700

G01 Z-0.125000 F100.0(Penetrate)
G01 X80.887960 Y132.081770 Z-0.125000 F400.000000
G01 X109.384750 Y121.153950 Z-0.125000
G01 X128.731970 Y128.833230 Z-0.125000
G01 X119.671810 Y131.823480 Z-0.125000
G02 X117.594233 Y130.753878 Z-0.125000 I-7.004599 J11.053089
G02 X114.406590 Y129.722360 Z-0.125000 I-8.639415 J21.256847
G02 X105.608635 Y128.412269 Z-0.125000 I-9.656533 J34.652229
G02 X96.832660 Y129.424320 Z-0.125000 I-0.762626 J31.943271
G02 X91.255162 Y131.464110 Z-0.125000 I3.186583 J17.358539
G02 X87.911580 Y134.818700 Z-0.125000 I4.451112 J7.780105
G01 X87.911580 Y134.818700 Z-0.125000
G00 Z5.000000

(End cutting path id: path6123)

