%
(Header)
(Generated by gcodetools from Inkscape.)
(Using default header. To add your own header create file "header" in the output dir.)
M3
(Header end.)
G21 (All units in mm)

(Start cutting path id: path11698)
(ZZZanette)
(Change tool to Tangent knife)

G00 Z5.000000
G00 X76.310246 Y102.269900

G01 A-2.60128665186
G01 Z-0.125000 F100.0(Penetrate)
G03 X72.851244 Y98.465179 Z-0.125000 I4.584283 J-7.642437 F400.000000 A-2.01598350962
G01 A-2.01598350962
G03 X69.818782 Y89.860900 Z-0.125000 I38.786307 J-18.506225 A-1.80329667389
G01 A0.115109833837
G02 X79.521877 Y87.069499 Z-0.125000 I1.505977 J-13.025124 A-0.675344756542
G01 A-0.675344756542
G03 X83.554863 Y84.481200 Z-0.125000 I14.323769 J17.882565 A-0.465808369349
G01 A-0.168743686282
G03 X87.951949 Y84.623487 Z-0.125000 I1.849538 J10.856407 A0.23343986628
G01 A0.23343986628
G03 X90.548428 Y85.628800 Z-0.125000 I-2.375800 J9.991808 A0.505377652847
G01 A1.52638104284
G01 X90.835344 Y92.084400 Z-0.125000
G01 A2.64906340964
G01 X89.364902 Y92.873500 Z-0.125000
G01 A2.73402771907
G01 A-0.812822260789
G01 X88.900476 Y93.364124 Z-0.125000
G01 A1.92351306653
G02 X88.755206 Y94.092900 Z-0.125000 I2.244784 J0.826328 A1.61158966186
G01 A1.33524818234
G02 X88.981379 Y94.894502 Z-0.125000 I10.266355 J-2.463959 A1.25633897974
G01 A1.25633897974
G02 X89.221444 Y95.455700 Z-0.125000 I3.237775 J-1.053084 A1.07682131737
G01 A1.07685473686
G03 X89.381102 Y95.764228 Z-0.125000 I-9.323246 J5.020212 A1.10966317208
G01 A1.10966317205
G03 X89.580089 Y96.173000 Z-0.125000 I-25.106032 J12.474205 A1.12588037678
G01 A2.71090355776
G01 X76.310246 Y102.269900 Z-0.125000
G00 Z5.000000

(End cutting path id: path11698)


(Start cutting path id: path1903)
(ZZZanette)
(Change tool to Tangent knife)

G00 Z5.000000
G00 X76.311611 Y102.235600

G01 A-0.428895187113
G01 Z-0.125000 F100.0(Penetrate)
G01 X89.549759 Y96.182000 Z-0.125000 F400.000000
G00 Z5.000000

(End cutting path id: path1903)


(Start cutting path id: path4561)
(ZZZanette)
(Change tool to Tangent knife)

G00 Z5.000000
G00 X89.047639 Y93.035800

G01 A2.32076483253
G01 Z-0.125000 F100.0(Penetrate)
G02 X88.779023 Y94.865184 Z-0.125000 I1.190784 J1.109260 F400.000000 A1.11241211727
G01 A1.11241211727
G02 X90.121461 Y96.801400 Z-0.125000 I7.171276 J-3.538580 A0.816709056642
G01 A-0.366443749562
G02 X94.953139 Y94.755629 Z-0.125000 I-27.588774 J-71.887414 A-0.434599251708
G01 A-0.434599251953
G02 X119.539050 Y83.309900 Z-0.125000 I-5178.777375 J-11156.362415 A-0.436804139033
G01 A-0.340062385993
G01 X160.825110 Y68.702600 Z-0.125000
G00 Z5.000000

(End cutting path id: path4561)


(Start cutting path id: path4563)
(ZZZanette)
(Change tool to Tangent knife)

G00 Z5.000000
G00 X159.404940 Y66.978100

G01 A1.76078377093
G01 Z-0.125000 F100.0(Penetrate)
G02 X160.955276 Y70.032190 Z-0.125000 I2.743892 J0.527669 F400.000000 A0.44134921811
G01 A0.44134921811
G02 X171.679180 Y74.687500 Z-0.125000 I78.554370 J-166.277329 A0.377766926172
G00 Z5.000000

(End cutting path id: path4563)


(Start cutting path id: path4565)
(ZZZanette)
(Change tool to Tangent knife)

G00 Z5.000000
G00 X169.346060 Y73.876000

G01 A2.70325587847
G01 Z-0.125000 F100.0(Penetrate)
G01 X133.639200 Y90.613600 Z-0.125000 F400.000000
G00 Z5.000000

(End cutting path id: path4565)


(Start cutting path id: path4567)
(ZZZanette)
(Change tool to Tangent knife)

G00 Z5.000000
G00 X135.972320 Y92.033700

G01 A-2.57828751908
G01 Z-0.125000 F100.0(Penetrate)
G02 X132.470252 Y89.876396 Z-0.125000 I-98.075984 J155.290801 F400.000000 A-2.60068269525
G01 A-2.60068269525
G01 A-6.47635033155
G01 X131.813290 Y90.004900 Z-0.125000
G01 A-4.06891941497
G03 X131.068823 Y90.598377 Z-0.125000 I-1.513831 J-1.135299 A-3.56030908374
G01 A-3.5603090837
G03 X104.120170 Y102.583500 Z-0.125000 I-24375.209187 J-54771.581082 A-3.55981711864
G01 A-6.07307853827
G03 X106.969290 Y103.314740 Z-0.125000 I-7.460822 J34.985605 A-5.99082795185
G01 A-5.99082795185
G03 X109.395050 Y104.206500 Z-0.125000 I-6.218437 J20.660503 A-5.87097140414
G01 A-5.46500162511
G01 A-1.50793901286
G01 X109.332380 Y105.202212 Z-0.125000
G01 A-3.83406170778
G03 X107.670570 Y106.438200 Z-0.125000 I-12.486087 J-15.052627 A-3.72811473367
G01 A-3.72810158635
G03 X105.378249 Y107.566162 Z-0.125000 I-5.485919 J-8.255570 A-3.46963652888
G01 A-3.46963652888
G03 X97.120818 Y110.292900 Z-0.125000 I-153.923452 J-452.262835 A-3.45143387103
G00 Z5.000000

(End cutting path id: path4567)


(Start cutting path id: path12336)
(ZZZanette)
(Change tool to Tangent knife)

G00 Z5.000000
G00 X96.609519 Y110.267700

G01 A-0.0447490008244
G01 Z-0.125000 F100.0(Penetrate)
G01 X106.221190 Y109.837300 Z-0.125000 F400.000000
G01 A0.374842013133
G01 X123.723040 Y116.723300 Z-0.125000
G01 A0.56231518548
G03 X133.536758 Y122.999740 Z-0.125000 I-464.581059 J737.220280 A0.57568367992
G01 A0.575683679927
G03 X137.351520 Y125.761200 Z-0.125000 I-25.198093 J38.825029 A0.67747401001
G01 A0.950354715038
G03 X139.273730 Y129.190375 Z-0.125000 I-14.629187 J10.453665 A1.16943005321
G01 A1.16943005321
G03 X146.748010 Y146.992900 Z-0.125000 I-2295.676117 J974.295622 A1.17717221805
G01 A0.709239248395
G02 X151.625482 Y149.633450 Z-0.125000 I8.541982 J-9.953291 A0.283157762643
G01 A0.283157762643
G02 X155.714110 Y150.722800 Z-0.125000 I25.958395 J-89.211369 A0.237612964919
G01 A-1.73783004819
G01 X151.553840 Y126.048100 Z-0.125000
G01 A-0.45508278351
G01 A-4.36873691207
G01 X151.897535 Y125.087658 Z-0.125000
G01 A-1.99920573345
G02 X150.477910 Y123.465800 Z-0.125000 I-3.421400 J1.562544 A-2.58039546936
G01 A0.282128054212
G01 X155.427200 Y124.900400 Z-0.125000
G01 A-0.420256213235
G02 X169.183161 Y118.628946 Z-0.125000 I-411.209548 J-920.179128 A-0.435256269475
G01 A-0.435256269475
G02 X170.203340 Y116.866800 Z-0.125000 I-0.748525 J-1.609737 A-1.65675359138
G01 A-2.01354237941
G02 X167.836785 Y114.156499 Z-0.125000 I-5.985387 J2.837909 A-2.56363579419
G01 A-2.56363579419
G02 X162.026260 Y111.774000 Z-0.125000 I-9.138595 J14.010830 A-2.94130105664
G01 A-3.23481723156
G02 X152.678902 Y113.928018 Z-0.125000 I3.360254 J35.940244 A-3.50134324762
G01 A-3.50134324762
G03 X140.507600 Y117.871000 Z-0.125000 I-48.487340 J-128.915186 A-3.40841902704
G00 Z5.000000

(End cutting path id: path12336)


(Start cutting path id: path1893)
(ZZZanette)
(Change tool to Tangent knife)

G00 Z5.000000
G00 X140.507600 Y117.942700

G01 A1.49402525559
G01 Z-0.125000 F100.0(Penetrate)
G02 X141.998751 Y120.040210 Z-0.125000 I2.490242 J-0.191555 F400.000000 A0.411539384756
G01 A0.411539384756
G02 X150.477910 Y123.465800 Z-0.125000 I66.307574 J-151.920398 A0.356362457855
G00 Z5.000000

(End cutting path id: path1893)


(Start cutting path id: path2781)
(ZZZanette)
(Change tool to Tangent knife)

G00 Z5.000000
G00 X147.895670 Y122.461600

G01 A-0.374890042188
G01 Z-0.125000 F100.0(Penetrate)
G01 X167.764560 Y114.643200 Z-0.125000 F400.000000
G00 Z5.000000

(End cutting path id: path2781)


(Start cutting path id: path12338)
(ZZZanette)
(Change tool to Tangent knife)

G00 Z5.000000
G00 X143.448470 Y116.866800

G01 A-2.38772204954
G01 Z-0.125000 F100.0(Penetrate)
G01 X123.507850 Y98.145500 Z-0.125000 F400.000000
G00 Z5.000000

(End cutting path id: path12338)


(Start cutting path id: path12340)
(ZZZanette)
(Change tool to Tangent knife)

G00 Z5.000000
G00 X109.359850 Y104.209200

G01 A-0.431423243583
G01 Z-0.125000 F100.0(Penetrate)
G01 X175.664940 Y73.686000 Z-0.125000 F400.000000
G01 A-2.46667780429
G02 X166.960317 Y67.642894 Z-0.125000 I-48.676233 J60.823604 A-2.60280679392
G01 A-2.60280679392
G02 X160.735130 Y65.795800 Z-0.125000 I-6.724264 J11.248719 A-3.10350143111
G01 A-3.10324472282
G02 X159.120769 Y66.024497 Z-0.125000 I-0.175472 J4.573549 A-3.46139570441
G01 A-3.46139570441
G02 X119.993130 Y78.993900 Z-0.125000 I24530.005766 J74070.548151 A-3.46192399892
G01 A-3.56807988006
G03 X93.270741 Y91.128919 Z-0.125000 I-27960.351243 J-61535.683729 A-3.56764566446
G01 A-3.56764566317
G03 X89.077987 Y92.981100 Z-0.125000 I-94.016452 J-207.152017 A-3.54749644036
G00 Z5.000000

(End cutting path id: path12340)


(Start cutting path id: path3717)
(ZZZanette)
(Change tool to Tangent knife)

G00 Z5.000000
G00 X93.063219 Y91.120800

G01 A-1.53444870702
G01 Z-0.125000 F100.0(Penetrate)
G02 X93.080994 Y89.025288 Z-0.125000 I-37.581938 J-1.366616 F400.000000 A-1.59017959378
G01 A-1.59017959367
G03 X93.101259 Y87.186800 Z-0.125000 I30.233626 J-0.586100 A-1.52936858972
G01 A-1.52115063383
G01 A2.22015580412
G01 X93.372091 Y86.830064 Z-0.125000
G01 A-0.321723065103
G01 A3.09634238836
G01 X93.824019 Y86.809600 Z-0.125000
G01 A0.315572029272
G03 X96.318563 Y87.956607 Z-0.125000 I-3.700054 J11.333092 A0.546385636499
G01 A0.546385636498
G02 X98.160577 Y88.838400 Z-0.125000 I5.319095 J-8.746451 A0.346558593857
G00 Z5.000000

(End cutting path id: path3717)


(Start cutting path id: path1929)
(ZZZanette)
(Change tool to Tangent knife)

G00 Z5.000000
G00 X100.604710 Y79.668500

G01 A1.56199012963
G01 Z-0.125000 F100.0(Penetrate)
G02 X102.505712 Y81.816841 Z-0.125000 I2.186189 J-0.019253 F400.000000 A0.130817305486
G01 A0.130817305486
G03 X104.234660 Y82.080400 Z-0.125000 I-5.576448 J42.384310 A0.171730992062
G00 Z5.000000

(End cutting path id: path1929)


(Start cutting path id: path2830)
(ZZZanette)
(Change tool to Tangent knife)

G00 Z5.000000
G00 X105.616410 Y79.074800

G01 A-1.20364281777
G01 Z-0.125000 F100.0(Penetrate)
G03 X105.895471 Y78.514813 Z-0.125000 I3.072931 J1.181825 F400.000000 A-1.01331913502
G01 A-1.01331913505
G03 X108.558170 Y74.256400 Z-0.125000 I1610.587656 J1004.105799 A-1.01067293715
G00 Z5.000000

(End cutting path id: path2830)


(Start cutting path id: path1923)
(ZZZanette)
(Change tool to Tangent knife)

G00 Z5.000000
G00 X107.996480 Y73.811500

G01 A-2.70177166101
G01 Z-0.125000 F100.0(Penetrate)
G03 X105.039195 Y70.556495 Z-0.125000 I2.442002 J-5.189544 F400.000000 A-1.91484204206
G01 A-1.91484204206
G03 X106.543970 Y66.710400 Z-0.125000 I2.958359 J-1.059967 A-0.480873690904
G01 A-0.209746613379
G03 X111.384727 Y67.347919 Z-0.125000 I1.521235 J7.146057 A0.471635963896
G01 A0.471635963896
G03 X116.065980 Y71.390700 Z-0.125000 I-5.894278 J11.556826 A0.953049911069
G01 A0.953023663294
G03 X117.264395 Y74.771034 Z-0.125000 I-5.343993 J3.797184 A1.50716735872
G01 A1.50716735872
G03 X116.065980 Y76.088900 Z-0.125000 I-1.237138 J0.078824 A3.11035064393
G01 A3.42766037495
G02 X113.222205 Y75.343762 Z-0.125000 I-13.918651 J47.320566 A3.36805152862
G01 A3.36805152862
G02 X110.740110 Y75.084700 Z-0.125000 I-2.293467 J9.953801 A3.12312509634
G01 A3.12281974752
G03 X109.309380 Y74.673480 Z-0.125000 I-0.047488 J-2.529307 A3.7201173606
G01 A3.7201173606
G03 X107.996480 Y73.811500 Z-0.125000 I176.074159 J-269.613266 A3.72499471594
G01 A1.57079632679
G01 X107.996480 Y73.811500 Z-0.125000
G00 Z5.000000

(End cutting path id: path1923)


(Start cutting path id: path2828)
(ZZZanette)
(Change tool to Tangent knife)

G00 Z5.000000
G00 X102.700020 Y78.060400

G01 A-1.01227675803
G01 Z-0.125000 F100.0(Penetrate)
G03 X102.959227 Y77.697560 Z-0.125000 I3.061718 J1.913234 F400.000000 A-0.888687470667
G01 A-0.888687470827
G03 X106.909770 Y72.836200 Z-0.125000 I8299.157282 J6740.204120 A-0.88810156589
G00 Z5.000000

(End cutting path id: path2828)


(Start cutting path id: path14357)
(ZZZanette)
(Change tool to Tangent knife)

G00 Z5.000000
G00 X108.136920 Y66.627400

G01 A-0.706828101038
G01 Z-0.125000 F100.0(Penetrate)
G03 X111.016870 Y66.353385 Z-0.125000 I1.635184 J1.914671 F400.000000 A0.517107756632
G01 A0.517107756632
G03 X113.043150 Y68.681500 Z-0.125000 I-2.303989 J4.051127 A1.19210188977
G01 A3.73762296014
G02 X110.749801 Y67.335147 Z-0.125000 I-11.461035 J16.896086 A3.60727593413
G01 A3.60727593413
G02 X108.136920 Y66.627400 Z-0.125000 I-3.041793 J6.052750 A3.20495153129
G01 A1.57079632679
G01 X108.136920 Y66.627400 Z-0.125000
G00 Z5.000000

(End cutting path id: path14357)


(Start cutting path id: path2826)
(ZZZanette)
(Change tool to Tangent knife)

G00 Z5.000000
G00 X117.046860 Y73.453300

G01 A-2.44925153256
G01 Z-0.125000 F100.0(Penetrate)
G02 X109.625787 Y68.343505 Z-0.125000 I-32.231959 J38.867422 F400.000000 A-2.62793100278
G01 A-2.62793100278
G02 X105.623310 Y69.032700 Z-0.125000 I-1.578731 J2.798296 A-3.99629400721
G00 Z5.000000

(End cutting path id: path2826)


(Start cutting path id: path5491)
(ZZZanette)
(Change tool to Tangent knife)

G00 Z5.000000
G00 X98.983038 Y78.097100

G01 A0.867162304088
G01 Z-0.125000 F100.0(Penetrate)
G02 X100.963959 Y79.509048 Z-0.125000 I3.779527 J-3.207003 F400.000000 A0.371332586017
G01 A0.371332586017
G01 A-3.41381794688
G01 X102.105790 Y79.190300 Z-0.125000
G00 Z5.000000

(End cutting path id: path5491)


(Start cutting path id: path1927)
(ZZZanette)
(Change tool to Tangent knife)

G00 Z5.000000
G00 X107.360890 Y84.522100

G01 A-2.18297707792
G01 Z-0.125000 F100.0(Penetrate)
G02 X105.522975 Y82.939418 Z-0.125000 I-4.048158 J2.842495 F400.000000 A-2.67836916468
G01 A-2.67836916468
G03 X104.054160 Y81.795000 Z-0.125000 I2.107792 J-4.220057 A-2.28102838874
G01 A-1.16590574236
G03 X104.437718 Y80.941433 Z-0.125000 I24.675458 J10.575161 A-1.13104655946
G01 A-1.13104655946
G03 X104.769950 Y80.327100 Z-0.125000 I5.645067 J2.655862 A-1.01903787267
G00 Z5.000000

(End cutting path id: path1927)


(Start cutting path id: path12354)
(ZZZanette)
(Change tool to Tangent knife)

G00 Z5.000000
G00 X111.529130 Y82.652100

G01 A-2.79250197403
G01 Z-0.125000 F100.0(Penetrate)
G01 X93.596906 Y76.124800 Z-0.125000 F400.000000
G00 Z5.000000

(End cutting path id: path12354)


(Start cutting path id: path4587)
(ZZZanette)
(Change tool to Tangent knife)

G00 Z5.000000
G00 X90.413474 Y73.074700

G01 A1.96601827459
G01 Z-0.125000 F100.0(Penetrate)
G02 X90.861018 Y75.239546 Z-0.125000 I1.809064 J0.754692 F400.000000 A0.767853231049
G01 A0.767853231049
G02 X93.565322 Y76.065700 Z-0.125000 I2.162615 J-2.239864 A-0.174870661354
G00 Z5.000000

(End cutting path id: path4587)


(Start cutting path id: path12344)
(ZZZanette)
(Change tool to Tangent knife)

G00 Z5.000000
G00 X90.379302 Y72.902100

G01 A-2.72569361559
G01 Z-0.125000 F100.0(Penetrate)
G02 X81.865259 Y69.452891 Z-0.125000 I-59.895460 J135.613578 F400.000000 A-2.7876670406
G01 A-2.7876670406
G02 X72.365158 Y66.716000 Z-0.125000 I-23.352545 J63.203201 A-2.93452747934
G01 A-3.11312176626
G03 X69.513336 Y66.572820 Z-0.125000 I1.873643 J-65.791297 A-3.06973486985
G01 A-3.06973486985
G02 X66.770305 Y66.800000 Z-0.125000 I-0.642117 J8.920553 A-3.3787147097
G01 A-3.40113301131
G02 X63.724218 Y67.949486 Z-0.125000 I4.131095 J15.557956 A-3.60373709705
G01 A-3.60373709705
G02 X60.863177 Y69.643800 Z-0.125000 I10.230473 J20.538068 A-3.74877982314
G00 Z5.000000

(End cutting path id: path12344)


(Start cutting path id: path5495)
(ZZZanette)
(Change tool to Tangent knife)

G00 Z5.000000
G00 X63.884555 Y70.079500

G01 A-0.353479528629
G01 Z-0.125000 F100.0(Penetrate)
G03 X66.680670 Y69.874788 Z-0.125000 I1.753480 J4.752279 F400.000000 A0.207314341672
G01 A0.207314341672
G01 A4.06086032362
G01 X67.149347 Y70.489350 Z-0.125000
G01 A1.63122099839
G03 X66.665840 Y71.689175 Z-0.125000 I-2.036115 J-0.123182 A2.27651935536
G01 A2.27651935536
G03 X64.214236 Y73.706000 Z-0.125000 I-6.874178 J-5.857618 A2.62985946872
G00 Z5.000000

(End cutting path id: path5495)


(Start cutting path id: path5497)
(ZZZanette)
(Change tool to Tangent knife)

G00 Z5.000000
G00 X58.953905 Y74.456000

G01 A2.2436780979
G01 Z-0.125000 F100.0(Penetrate)
G01 A-1.48609579812
G01 X58.873451 Y75.403587 Z-0.125000 F400.000000
G01 A1.06731561305
G02 X60.754465 Y75.926900 Z-0.125000 I1.196689 J-0.659173 A-0.52462357828
G00 Z5.000000

(End cutting path id: path5497)


(Start cutting path id: path12346)
(ZZZanette)
(Change tool to Tangent knife)

G00 Z5.000000
G00 X58.206352 Y73.209100

G01 A2.15741975279
G01 Z-0.125000 F100.0(Penetrate)
G02 X57.141238 Y76.158668 Z-0.125000 I5.491668 J3.650182 F400.000000 A1.67724572889
G01 A1.67724572889
G02 X58.093223 Y79.708200 Z-0.125000 I5.072417 J0.542005 A0.940280037212
G01 A0.8415091493
G02 X63.392078 Y84.902870 Z-0.125000 I41.922457 J-37.463360 A0.709430823917
G01 A0.709430823917
G02 X69.782918 Y89.753300 Z-0.125000 I43.421890 J-50.576464 A0.588998525287
G01 A1.30021427074
G02 X71.438142 Y94.939667 Z-0.125000 I68.415413 J-18.977401 A1.22351663612
G01 A1.22351663612
G02 X73.943193 Y99.938800 Z-0.125000 I22.473890 J-8.134397 A0.989026297399
G01 A2.72240322059
G01 X47.504948 Y111.719700 Z-0.125000
G01 A2.62203213297
G01 X19.743761 Y127.598500 Z-0.125000
G01 A2.68527301501
G02 X18.375115 Y128.895011 Z-0.125000 I1.396421 J2.844768 A2.08123499951
G01 A2.08123499951
G02 X18.222161 Y131.244400 Z-0.125000 I2.383992 J1.334880 A1.19038137865
G01 A1.19037813153
G02 X21.741853 Y134.802391 Z-0.125000 I5.972629 J-2.388441 A0.391240572839
G01 A0.391240572839
G02 X29.800223 Y137.321800 Z-0.125000 I18.270666 J-44.291895 A0.214793372524
G01 A-0.351359026339
G02 X62.980657 Y124.611408 Z-0.125000 I-422.671238 J-1153.045702 A-0.380292831167
G01 A-0.380292831151
G02 X97.183350 Y110.267700 Z-0.125000 I-409.688257 J-1024.855264 A-0.413898050331
G00 Z5.000000

(End cutting path id: path12346)


(Start cutting path id: path5499)
(ZZZanette)
(Change tool to Tangent knife)

G00 Z5.000000
G00 X97.775114 Y110.160100

G01 A-0.022302544141
G01 Z-0.125000 F100.0(Penetrate)
G02 X99.128036 Y110.119704 Z-0.125000 I-1.999784 J-89.651297 F400.000000 A-0.0373965948155
G01 A-0.0373965863282
G02 X106.149460 Y109.855300 Z-0.125000 I-541.988167 J-14486.228260 A-0.0378812872308
G01 A-0.354256906571
G01 X110.076620 Y108.402800 Z-0.125000
G01 A-3.13663575758
G01 X102.814070 Y108.366800 Z-0.125000
G01 A-3.48350254717
G01 X97.775114 Y110.160100 Z-0.125000
G00 Z5.000000

(End cutting path id: path5499)


(Start cutting path id: path6386)
(ZZZanette)
(Change tool to Tangent knife)

G00 Z5.000000
G00 X104.983860 Y107.685500

G01 A-0.165751450096
G01 Z-0.125000 F100.0(Penetrate)
G03 X105.820493 Y107.796583 Z-0.125000 I0.237327 J1.418686 F400.000000 A0.429755025444
G01 A0.429755025444
G02 X111.313940 Y107.775500 Z-0.125000 I2.723955 J-5.943287 A-0.437430677352
G01 A-0.437841391071
G02 X114.732267 Y103.506820 Z-0.125000 I-2.623414 J-5.603836 A-1.35330327471
G01 A-1.35330327471
G02 X114.541740 Y101.875800 Z-0.125000 I-2.447100 J-0.540781 A-2.02086445822
G01 A-3.41255548252
G02 X113.158055 Y102.395289 Z-0.125000 I2.245726 J8.084112 A-3.58893981492
G01 A-3.58893981492
G02 X109.431050 Y104.225000 Z-0.125000 I99.548309 J207.484213 A-3.60698171516
G01 A-5.95817784949
G01 A-1.81477537269
G01 X109.594462 Y104.881435 Z-0.125000
G01 A-3.95455820307
G03 X107.028140 Y106.771300 Z-0.125000 I-6.528999 J-6.178595 A-3.59812056229
G01 A-3.59974647689
G03 X105.568106 Y107.379436 Z-0.125000 I-5.513080 J-11.179282 A-3.47277376742
G01 A-3.47277376742
G02 X104.983860 Y107.685900 Z-0.125000 I0.708806 J2.061410 A-3.77659490137
G01 A-1.57079632676
G01 X104.983860 Y107.685500 Z-0.125000
G00 Z5.000000

(End cutting path id: path6386)


(Start cutting path id: path1901)
(ZZZanette)
(Change tool to Tangent knife)

G00 Z5.000000
G00 X102.821970 Y102.029500

G01 A-2.87706689571
G01 Z-0.125000 F100.0(Penetrate)
G03 X96.792230 Y99.805573 Z-0.125000 I9.471284 J-34.965716 F400.000000 A-2.69942411758
G01 A-2.69942411758
G03 X90.827442 Y96.556900 Z-0.125000 I25.710048 J-54.305637 A-2.58632082788
G00 Z5.000000

(End cutting path id: path1901)


(Start cutting path id: path5489)
(ZZZanette)
(Change tool to Tangent knife)

G00 Z5.000000
G00 X87.646209 Y100.442700

G01 A0.4440976993
G01 Z-0.125000 F100.0(Penetrate)
G03 X89.969125 Y101.628327 Z-0.125000 I-20.127433 J42.302641 F400.000000 A0.499775614968
G01 A0.499775614967
G02 X92.749772 Y102.932200 Z-0.125000 I12.010786 J-21.997327 A0.377159620394
G01 A0.360804654757
G02 X94.648732 Y103.304927 Z-0.125000 I2.055110 J-5.446571 A0.0268266821983
G01 A0.0268266821983
G01 A-4.34598215503
G01 X95.198750 Y101.871600 Z-0.125000
G01 A-2.75780921397
G03 X92.349220 Y100.401739 Z-0.125000 I6.502545 J-16.103126 A-2.57292038586
G01 A-2.57292038586
G02 X88.995258 Y98.823400 Z-0.125000 I-7.768785 J12.155880 A-2.83057770946
G01 A-3.16979058063
G02 X87.475798 Y100.241743 Z-0.125000 I0.044297 J1.570519 A-4.61537972703
G01 A-4.61537972703
G01 A-8.55730968657
G01 X87.646209 Y100.442700 Z-0.125000
G01 A-10.9955742876
G01 X87.646209 Y100.442700 Z-0.125000
G00 Z5.000000

(End cutting path id: path5489)


(Start cutting path id: path1917)
(ZZZanette)
(Change tool to Tangent knife)

G00 Z5.000000
G00 X81.402250 Y103.398400

G01 A0.444098000134
G01 Z-0.125000 F100.0(Penetrate)
G02 X83.818206 Y104.398024 Z-0.125000 I10.850658 J-22.805251 F400.000000 A0.340524116329
G01 A0.340524116327
G03 X86.708693 Y105.482100 Z-0.125000 I-28.186972 J79.550802 A0.377104420672
G01 A0.360804654757
G02 X88.489366 Y105.827053 Z-0.125000 I1.898414 J-5.031286 A0.0218967258862
G01 A0.0218967258862
G01 A-4.34840396035
G01 X89.005510 Y104.472200 Z-0.125000
G01 A-2.75785377552
G03 X86.132112 Y103.167857 Z-0.125000 I13.941101 J-34.528653 A-2.6730847273
G01 A-2.6730847273
G02 X82.751299 Y101.779100 Z-0.125000 I-10.490079 J20.727685 A-2.83057758225
G01 A-3.16979057306
G02 X81.231839 Y103.197442 Z-0.125000 I0.044297 J1.570519 A-4.61537940584
G01 A-4.61537940584
G01 A-8.55730959196
G01 X81.402250 Y103.398400 Z-0.125000
G01 A-9.42477796077
G01 X81.402250 Y103.398400 Z-0.125000
G00 Z5.000000

(End cutting path id: path1917)


(Start cutting path id: path4573)
(ZZZanette)
(Change tool to Tangent knife)

G00 Z5.000000
G00 X88.701302 Y108.568500

G01 A-2.87704353104
G01 Z-0.125000 F100.0(Penetrate)
G03 X82.671554 Y106.344480 Z-0.125000 I9.473246 J-34.969723 F400.000000 A-2.69942117181
G01 A-2.69942117181
G03 X76.706774 Y103.095800 Z-0.125000 I25.710860 J-54.306940 A-2.58632082788
G00 Z5.000000

(End cutting path id: path4573)


(Start cutting path id: path1907)
(ZZZanette)
(Change tool to Tangent knife)

G00 Z5.000000
G00 X69.788635 Y89.880100

G01 A0.131769022822
G01 Z-0.125000 F100.0(Penetrate)
G02 X79.604409 Y87.180842 Z-0.125000 I1.716850 J-12.953743 F400.000000 A-0.668486286038
G01 A-0.668486286038
G03 X83.593404 Y84.493100 Z-0.125000 I19.744040 J24.998997 A-0.517348646462
G01 A-0.0873882308699
G03 X86.736943 Y84.448237 Z-0.125000 I1.878008 J21.435671 A0.0588472006952
G01 A0.0588472006952
G03 X90.614132 Y85.663300 Z-0.125000 I-0.492901 J8.366281 A0.548539377124
G01 A1.49926557418
G03 X90.734480 Y88.079010 Z-0.125000 I-55.456784 J3.973645 A1.54277171985
G01 A1.54277171984
G03 X90.828443 Y92.168900 Z-0.125000 I-404.556273 J11.340500 A1.55288003024
G00 Z5.000000

(End cutting path id: path1907)


(Start cutting path id: path4579)
(ZZZanette)
(Change tool to Tangent knife)

G00 Z5.000000
G00 X83.290176 Y76.985800

G01 A-2.5383019098
G01 Z-0.125000 F100.0(Penetrate)
G02 X74.282876 Y71.440145 Z-0.125000 I-58.382961 J84.738414 F400.000000 A-2.64113853375
G01 A-2.64113853375
G02 X67.022862 Y71.221100 Z-0.125000 I-3.845462 J7.031479 A-3.58172209828
G00 Z5.000000

(End cutting path id: path4579)


(Start cutting path id: path1925)
(ZZZanette)
(Change tool to Tangent knife)

G00 Z5.000000
G00 X72.983246 Y66.742800

G01 A-2.75116043984
G01 Z-0.125000 F100.0(Penetrate)
G03 X69.300318 Y62.588146 Z-0.125000 I2.403721 J-5.840507 F400.000000 A-1.84099825369
G01 A-1.84099825369
G03 X71.429077 Y59.567700 Z-0.125000 I2.302378 J-0.637702 A-0.0727364635344
G01 A0.0386412892746
G03 X76.883146 Y61.804392 Z-0.125000 I-0.331577 J8.576626 A0.739717647868
G01 A0.739717647868
G02 X79.800347 Y64.252600 Z-0.125000 I30.932150 J-33.895575 A0.656700781353
G01 A0.656693854005
G03 X81.385845 Y66.833599 Z-0.125000 I-2.602379 J3.376114 A1.38316849698
G01 A1.38316849698
G03 X81.089974 Y69.156300 Z-0.125000 I-3.720157 J0.706313 A2.01182398589
G00 Z5.000000

(End cutting path id: path1925)


(Start cutting path id: path2818)
(ZZZanette)
(Change tool to Tangent knife)

G00 Z5.000000
G00 X81.416085 Y67.222600

G01 A-2.37081382389
G01 Z-0.125000 F100.0(Penetrate)
G02 X75.283531 Y62.053997 Z-0.125000 I-39.677206 J40.854612 F400.000000 A-2.51175654492
G01 A-2.51175654492
G02 X69.967170 Y61.178900 Z-0.125000 I-3.526652 J4.838562 A-3.44514558848
G00 Z5.000000

(End cutting path id: path2818)


(Start cutting path id: path12585)
(ZZZanette)
(Change tool to Tangent knife)

G00 Z5.000000
G00 X72.659989 Y59.698500

G01 A-0.618587857874
G01 Z-0.125000 F100.0(Penetrate)
G03 X75.552943 Y59.679372 Z-0.125000 I1.460103 J2.051343 F400.000000 A0.605364408461
G01 A0.605364408461
G03 X77.366133 Y62.176900 Z-0.125000 I-2.652194 J3.832423 A1.2803095871
G01 A3.82583316292
G02 X75.200344 Y60.633713 Z-0.125000 I-12.908512 J15.825091 A3.69552262209
G01 A3.69552262209
G02 X72.659989 Y59.698500 Z-0.125000 I-3.562998 J5.760470 A3.29315303715
G01 A1.57079632679
G01 X72.659989 Y59.698500 Z-0.125000
G00 Z5.000000

(End cutting path id: path12585)


(Start cutting path id: path5493)
(ZZZanette)
(Change tool to Tangent knife)

G00 Z5.000000
G00 X57.317746 Y70.149800

G01 A-0.209706554808
G01 Z-0.125000 F100.0(Penetrate)
G03 X61.652192 Y69.495973 Z-0.125000 I7.610059 J35.755560 F400.000000 A-0.0897246136507
G01 A-0.0897246136506
G03 X64.430559 Y70.645700 Z-0.125000 I0.290566 J3.229723 A0.874440298198
G01 A0.874451802332
G03 X64.581682 Y74.483424 Z-0.125000 I-2.412307 J2.016830 A2.18842514561
G01 A2.18842514561
G03 X61.463437 Y76.155500 Z-0.125000 I-3.242482 J-2.303249 A3.11035078902
G01 A3.36027449122
G03 X58.969872 Y74.573042 Z-0.125000 I0.942503 J-4.241006 A4.05388028005
G01 A4.05388028005
G03 X57.317746 Y70.149800 Z-0.125000 I6.297136 J-4.872208 A4.65596998557
G01 A1.57079632679
G01 X57.317746 Y70.149800 Z-0.125000
G00 Z5.000000

(End cutting path id: path5493)


(Start cutting path id: path4581)
(ZZZanette)
(Change tool to Tangent knife)

G00 Z5.000000
G00 X57.391165 Y78.428500

G01 A0.441279109932
G01 Z-0.125000 F100.0(Penetrate)
G02 X61.972488 Y78.414465 Z-0.125000 I2.275923 J-4.818357 F400.000000 A-0.44740595289
G01 A-0.44740595289
G02 X67.385266 Y74.445650 Z-0.125000 I-7.881312 J-16.424199 A-0.817958396237
G01 A-0.817958396237
G02 X69.189815 Y70.245862 Z-0.125000 I-4.904193 J-4.594795 A-1.51198478577
G01 A-1.51198478577
G02 X66.679511 Y66.768000 Z-0.125000 I-3.387959 J-0.199481 A-2.88001641995
G00 Z5.000000

(End cutting path id: path4581)


(Start cutting path id: path4583)
(ZZZanette)
(Change tool to Tangent knife)

G00 Z5.000000
G00 X68.745231 Y88.918800

G01 A0.0767781725694
G01 Z-0.125000 F100.0(Penetrate)
G02 X79.545744 Y86.007971 Z-0.125000 I1.286274 J-16.720184 F400.000000 A-0.603285268339
G01 A-0.603285268339
G02 X83.426424 Y78.136500 Z-0.125000 I-5.104502 J-7.408882 A-1.62223446477
G01 A-1.62130551459
G02 X82.716772 Y71.885301 Z-0.125000 I-50.275761 J2.541550 A-1.74636426519
G01 A-1.74636426519
G02 X81.682430 Y69.541700 Z-0.125000 I-5.304172 J0.940930 A-2.22649880609
G00 Z5.000000

(End cutting path id: path4583)


(Start cutting path id: path12342)
(ZZZanette)
(Change tool to Tangent knife)

G00 Z5.000000
G00 X113.465810 Y81.863100

G01 A-2.80154631462
G01 Z-0.125000 F100.0(Penetrate)
G01 X93.596906 Y74.833700 Z-0.125000 F400.000000
G01 A-2.62712999575
G01 X90.297378 Y72.968700 Z-0.125000
G00 Z5.000000

(End cutting path id: path12342)


(Start cutting path id: path12352)
(ZZZanette)
(Change tool to Tangent knife)

G00 Z5.000000
G00 X56.920947 Y107.324700

G01 A-0.908545403394
G01 Z-0.125000 F100.0(Penetrate)
G01 X69.887345 Y90.695100 Z-0.125000 F400.000000
G00 Z5.000000

(End cutting path id: path12352)


(Start cutting path id: path12350)
(ZZZanette)
(Change tool to Tangent knife)

G00 Z5.000000
G00 X51.966557 Y109.612800

G01 A-1.10712641062
G01 Z-0.125000 F100.0(Penetrate)
G03 X52.626635 Y108.590899 Z-0.125000 I4.963097 J2.481687 F400.000000 A-0.887446920711
G01 A-0.887446920524
G03 X68.433869 Y89.186600 Z-0.125000 I39441.611143 J32113.996202 A-0.886954846613
G00 Z5.000000

(End cutting path id: path12350)


(Start cutting path id: path4577)
(ZZZanette)
(Change tool to Tangent knife)

G00 Z5.000000
G00 X65.978752 Y120.741200

G01 A2.75630462509
G01 Z-0.125000 F100.0(Penetrate)
G01 X29.460369 Y135.551500 Z-0.125000 F400.000000
G00 Z5.000000

(End cutting path id: path4577)


(Start cutting path id: path4571)
(ZZZanette)
(Change tool to Tangent knife)

G00 Z5.000000
G00 X19.722133 Y131.189600

G01 A-0.506257157167
G01 Z-0.125000 F100.0(Penetrate)
G01 X50.458439 Y114.147700 Z-0.125000 F400.000000
G01 A-0.380085539622
G02 X68.789187 Y106.658187 Z-0.125000 I-471.386602 J-1179.906253 A-0.395670454823
G01 A-0.395670454803
G02 X77.238587 Y102.684900 Z-0.125000 I-41.009395 J-98.179289 A-0.483452356419
G01 A-2.70432914996
G03 X75.931017 Y101.898673 Z-0.125000 I3.108763 J-6.650589 A-2.49612329854
G01 A-2.49612329854
G03 X73.943281 Y100.003400 Z-0.125000 I7.130178 J-9.468023 A-2.26388103741
G00 Z5.000000

(End cutting path id: path4571)


(Start cutting path id: path4575)
(ZZZanette)
(Change tool to Tangent knife)

G00 Z5.000000
G00 X70.442110 Y121.654200

G01 A-2.94427292595
G01 Z-0.125000 F100.0(Penetrate)
G03 X69.577315 Y121.464155 Z-0.125000 I4.568534 J-22.851682 F400.000000 A-2.90627567583
G01 A-2.9062756777
G03 X64.457153 Y120.234000 Z-0.125000 I1303.043457 J-5434.808015 A-2.90533346565
G01 A-0.429622018425
G03 X89.479820 Y108.781808 Z-0.125000 I14122.597647 J30824.354136 A-0.428810386881
G01 A-0.428810386893
G01 A3.2489222413
G01 X90.324341 Y108.872800 Z-0.125000
G01 A0.643469562306
G02 X91.118357 Y109.220297 Z-0.125000 I1.135948 J-1.514697 A0.181594658782
G01 A0.181594658781
G02 X97.095457 Y110.292900 Z-0.125000 I135.981413 J-740.569032 A0.173529587737
G00 Z5.000000

(End cutting path id: path4575)


(Start cutting path id: path2787)
(ZZZanette)
(Change tool to Tangent knife)

G00 Z5.000000
G00 X123.723040 Y116.651600

G01 A-3.14159265359
G01 Z-0.125000 F100.0(Penetrate)
G03 X123.106553 Y116.461125 Z-0.125000 I0.000000 J-1.092891 F400.000000 A-2.54226417774
G01 A-2.54226417775
G03 X114.900380 Y110.841600 Z-0.125000 I2509.197487 J-3672.974044 A-2.5400282642
G01 A-2.60625235633
G01 A1.26076341433
G01 X114.737860 Y110.334301 Z-0.125000
G01 A-1.1554061222
G01 A2.74057213014
G01 X115.402490 Y110.052500 Z-0.125000
G01 A0.415443452842
G01 X151.338650 Y125.904600 Z-0.125000
G00 Z5.000000

(End cutting path id: path2787)


(Start cutting path id: path12348)
(ZZZanette)
(Change tool to Tangent knife)

G00 Z5.000000
G00 X131.235060 Y121.793600

G01 A2.54946202338
G01 Z-0.125000 F100.0(Penetrate)
G01 X123.807080 Y126.790000 Z-0.125000 F400.000000
G01 A2.54609156682
G03 X122.550685 Y127.633407 Z-0.125000 I-98.615327 J-145.546415 A2.55469883584
G01 A2.55469883585
G02 X121.774050 Y128.934600 Z-0.125000 I0.973117 J1.463188 A1.66311466951
G01 A0.777440412864
G02 X126.502438 Y131.771447 Z-0.125000 I8.235346 J-8.367469 A0.303340858538
G01 A0.303340858538
G02 X130.777080 Y133.018100 Z-0.125000 I33.980909 J-108.564998 A0.264196597262
G01 A-0.307313489876
G01 X139.310710 Y130.309800 Z-0.125000
G00 Z5.000000

(End cutting path id: path12348)


(Start cutting path id: path3674)
(ZZZanette)
(Change tool to Tangent knife)

G00 Z5.000000
G00 X125.659710 Y131.642900

G01 A-0.587970430932
G01 Z-0.125000 F100.0(Penetrate)
G03 X126.496715 Y131.180495 Z-0.125000 I3.189405 J4.784441 F400.000000 A-0.421477212941
G01 A-0.421477212856
G03 X137.638430 Y126.191500 Z-0.125000 I5266.754333 J11747.087960 A-0.42052894816
G00 Z5.000000

(End cutting path id: path3674)


(Start cutting path id: path2785)
(ZZZanette)
(Change tool to Tangent knife)

G00 Z5.000000
G00 X146.461080 Y146.203900

G01 A-0.434678114707
G01 Z-0.125000 F100.0(Penetrate)
G03 X149.367286 Y146.276301 Z-0.125000 I1.379961 J2.972161 F400.000000 A0.484493031588
G01 A0.484493031588
G03 X155.570660 Y149.933800 Z-0.125000 I-34.775897 J66.071784 A0.580979144745
G00 Z5.000000

(End cutting path id: path2785)


(Start cutting path id: path2783)
(ZZZanette)
(Change tool to Tangent knife)

G00 Z5.000000
G00 X152.127670 Y147.781900

G01 A-1.84908283308
G01 Z-0.125000 F100.0(Penetrate)
G03 X151.862172 Y146.815243 Z-0.125000 I47.064710 J-13.446390 F400.000000 A-1.82860243553
G01 A-1.82860265472
G03 X145.743800 Y123.609300 Z-0.125000 I675444.588667 J-178097.173250 A-1.82856829833
G00 Z5.000000

(End cutting path id: path2783)


(Start cutting path id: path4569)
(ZZZanette)
(Change tool to Tangent knife)

G00 Z5.000000
G00 X18.809174 Y129.363600

G01 A1.7429813533
G01 Z-0.125000 F100.0(Penetrate)
G02 X20.256453 Y132.030658 Z-0.125000 I2.409036 J0.418948 F400.000000 A0.404245734286
G01 A0.404245734286
G02 X30.474769 Y136.058700 Z-0.125000 I75.140666 J-175.641538 A0.346744014931
G00 Z5.000000

(End cutting path id: path4569)
