%
(Header)
(Generated by gcodetools from Inkscape.)
(Using default header. To add your own header create file "header" in the output dir.)
M3
(Header end.)
G21 (All units in mm)

(Start cutting path id: path14587)
(ZZZanette)
(Change tool to Default tool)

G00 Z5.000000
G00 X117.829945 Y135.743795

G01 Z-0.125000 F100.0(Penetrate)
G02 X118.322844 Y139.164838 Z-0.125000 I12.118593 J0.000000 F400.000000
G02 X119.531195 Y141.525135 Z-0.125000 I6.842313 J-2.013458
G02 X121.533587 Y143.127936 Z-0.125000 I4.399957 J-3.444699
G02 X124.144735 Y143.716569 Z-0.125000 I2.611148 J-5.497147
G02 X126.477179 Y143.225677 Z-0.125000 I-0.000000 J-5.786679
G02 X128.138325 Y141.957657 Z-0.125000 I-1.792987 J-4.070957
G01 X128.311335 Y143.428223 Z-0.125000
G01 X132.088675 Y143.428223 Z-0.125000
G01 X132.088675 Y128.347715 Z-0.125000
G02 X131.833209 Y126.373129 Z-0.125000 I-7.758863 J-0.000000
G02 X131.151545 Y124.786635 Z-0.125000 I-5.643522 J1.485143
G02 X130.050364 Y123.471675 Z-0.125000 I-4.908091 J2.991600
G02 X128.542015 Y122.479865 Z-0.125000 I-4.217249 J4.770756
G02 X126.806044 Y121.906965 Z-0.125000 I-3.230356 J6.871886
G02 X124.591665 Y121.686915 Z-0.125000 I-2.214378 J11.031679
G02 X122.911030 Y121.858952 Z-0.125000 I0.000000 J8.295105
G02 X121.246855 Y122.378945 Z-0.125000 I1.790005 J8.651688
G02 X119.739690 Y123.215922 Z-0.125000 I2.941735 J7.072737
G02 X118.781495 Y124.137855 Z-0.125000 I2.646665 J3.709673
G01 X120.626905 Y126.675305 Z-0.125000
G03 X122.382912 Y125.375021 Z-0.125000 I4.009142 J3.578398
G03 X124.404245 Y124.930805 Z-0.125000 I2.021333 J4.376763
G03 X125.956459 Y125.192013 Z-0.125000 I0.000000 J4.742570
G03 X126.984945 Y125.824685 Z-0.125000 I-0.913471 J2.637262
G03 X127.638101 Y126.819597 Z-0.125000 I-1.812743 J1.901912
G03 X127.907655 Y128.333295 Z-0.125000 I-4.115354 J1.513698
G01 X127.907655 Y129.169495 Z-0.125000
G02 X126.266636 Y127.982827 Z-0.125000 I-3.470428 J3.071184
G02 X124.115895 Y127.540345 Z-0.125000 I-2.150741 J5.005736
G02 X121.582952 Y128.117864 Z-0.125000 I0.000000 J5.843377
G02 X119.560025 Y129.731775 Z-0.125000 I2.513283 J5.224986
G02 X118.331735 Y132.110932 Z-0.125000 I5.620895 J4.408549
G02 X117.829945 Y135.570785 Z-0.125000 I11.676983 J3.459853
G01 X117.829945 Y135.743795 Z-0.125000
G00 Z5.000000

(End cutting path id: path14587)


(Start cutting path id: path14587)
(ZZZanette)
(Change tool to Default tool)

G00 Z5.000000
G00 X121.996555 Y135.441025

G01 Z-0.125000 F100.0(Penetrate)
G03 X122.252752 Y133.402668 Z-0.125000 I8.236897 J0.000000 F400.000000
G03 X122.847175 Y132.110625 Z-0.125000 I3.824795 J0.976894
G03 X123.862212 Y131.232595 Z-0.125000 I2.304003 J1.637792
G03 X125.182775 Y130.913995 Z-0.125000 I1.320563 J2.577494
G03 X126.848862 Y131.323932 Z-0.125000 I-0.000000 J3.590666
G03 X127.907655 Y132.341305 Z-0.125000 I-1.220233 J2.329548
G01 X127.907655 Y138.901185 Z-0.125000
G03 X126.839692 Y139.924121 Z-0.125000 I-2.333180 J-1.366927
G03 X125.211615 Y140.328495 Z-0.125000 I-1.628077 J-3.075267
G03 X123.880353 Y140.004001 Z-0.125000 I-0.000000 J-2.893050
G03 X122.847175 Y139.103025 Z-0.125000 I1.332439 J-2.570828
G03 X122.266147 Y137.793160 Z-0.125000 I3.128454 J-2.171514
G03 X121.996555 Y135.441025 Z-0.125000 I10.126165 J-2.352135
G01 X121.996555 Y135.441025 Z-0.125000
G00 Z5.000000

(End cutting path id: path14587)


(Start cutting path id: path14585)
(ZZZanette)
(Change tool to Default tool)

G00 Z5.000000
G00 X105.719405 Y143.428223

G01 Z-0.125000 F100.0(Penetrate)
G01 X105.849155 Y141.626058 Z-0.125000 F400.000000
G02 X107.792245 Y143.153386 Z-0.125000 I4.234683 J-3.387748
G02 X110.332945 Y143.716569 Z-0.125000 I2.540700 J-5.449370
G02 X112.609712 Y143.283677 Z-0.125000 I-0.000000 J-6.203701
G02 X114.023775 Y142.260420 Z-0.125000 I-1.291452 J-3.273380
G02 X114.864082 Y140.668159 Z-0.125000 I-3.348850 J-2.785202
G02 X115.263665 Y137.906395 Z-0.125000 I-10.063818 J-2.865860
G01 X115.263665 Y127.828685 Z-0.125000
G01 X111.097065 Y127.828685 Z-0.125000
G01 X111.097065 Y137.805465 Z-0.125000
G03 X110.912947 Y139.056928 Z-0.125000 I-4.345195 J-0.000000
G03 X110.520365 Y139.722975 Z-0.125000 I-1.554466 J-0.467513
G03 X109.860589 Y140.134627 Z-0.125000 I-1.129454 J-1.075679
G03 X108.602865 Y140.328495 Z-0.125000 I-1.257724 J-3.982835
G03 X107.075222 Y139.924734 Z-0.125000 I0.000000 J-3.091828
G03 X105.964495 Y138.829095 Z-0.125000 I1.489355 J-2.620695
G01 X105.964495 Y127.828685 Z-0.125000
G01 X101.797895 Y127.828685 Z-0.125000
G01 X101.797895 Y143.428223 Z-0.125000
G01 X105.719405 Y143.428223 Z-0.125000
G00 Z5.000000

(End cutting path id: path14585)


(Start cutting path id: path14575)
(ZZZanette)
(Change tool to Default tool)

G00 Z5.000000
G00 X115.624095 Y157.355350

G01 Z-0.125000 F100.0(Penetrate)
G02 X115.390900 Y157.935527 Z-0.125000 I3.039132 J1.558496 F400.000000
G02 X115.205995 Y158.753830 Z-0.125000 I5.890502 J1.761068
G02 X113.488951 Y157.522447 Z-0.125000 I-3.647768 J3.273642
G02 X111.270065 Y157.067004 Z-0.125000 I-2.218886 J5.177404
G02 X109.114909 Y157.431767 Z-0.125000 I-0.000000 J6.549121
G02 X107.463895 Y158.393397 Z-0.125000 I1.646711 J4.725343
G02 X106.358263 Y159.897184 Z-0.125000 I2.931012 J3.313316
G02 X105.964495 Y161.738214 Z-0.125000 I4.106915 J1.841030
G02 X106.470995 Y163.959471 Z-0.125000 I5.123914 J0.000000
G02 X107.795495 Y165.544385 Z-0.125000 I3.795193 J-1.825719
G02 X109.773050 Y166.463436 Z-0.125000 I3.402174 J-4.733470
G02 X113.115485 Y166.885196 Z-0.125000 I3.400167 J-13.490980
G01 X115.032985 Y166.885196 Z-0.125000
G01 X115.032985 Y167.779069 Z-0.125000
G03 X114.871244 Y168.800033 Z-0.125000 I-3.303200 J-0.000000
G03 X114.470715 Y169.509147 Z-0.125000 I-1.949990 J-0.633741
G03 X113.830575 Y169.959219 Z-0.125000 I-1.177231 J-0.994110
G03 X112.726215 Y170.157926 Z-0.125000 I-1.104360 J-2.969510
G03 X111.727557 Y170.009321 Z-0.125000 I0.000000 J-3.429907
G03 X111.068225 Y169.653320 Z-0.125000 I0.550031 J-1.807244
G03 X110.641540 Y169.072889 Z-0.125000 I1.024607 J-1.200254
G03 X110.477115 Y168.269258 Z-0.125000 I1.881671 J-0.803631
G01 X106.310515 Y168.269258 Z-0.125000
G02 X106.519440 Y169.556719 Z-0.125000 I4.071328 J0.000000
G02 X107.146715 Y170.777871 Z-0.125000 I4.278975 J-1.426318
G02 X108.113136 Y171.767724 Z-0.125000 I3.846306 J-2.788558
G02 X109.511155 Y172.580035 Z-0.125000 I3.934056 J-5.161483
G02 X111.076492 Y173.064559 Z-0.125000 I2.991208 J-6.892799
G02 X112.942475 Y173.243232 Z-0.125000 I1.865983 J-9.654422
G02 X115.668334 Y172.819481 Z-0.125000 I0.000000 J-8.979170
G02 X117.512765 Y171.787083 Z-0.125000 I-1.600357 J-5.022905
G02 X118.731997 Y170.122020 Z-0.125000 I-2.856294 J-3.370422
G02 X119.214005 Y167.721400 Z-0.125000 I-5.737085 J-2.400620
G01 X119.214005 Y160.959679 Z-0.125000
G03 X119.419842 Y158.787799 Z-0.125000 I12.410436 J0.080490
G03 X119.833955 Y157.600444 Z-0.125000 I4.054928 J0.748341
G01 X119.833955 Y157.355350 Z-0.125000
G01 X115.624095 Y157.355350 Z-0.125000
G00 Z5.000000

(End cutting path id: path14575)


(Start cutting path id: path14575)
(ZZZanette)
(Change tool to Default tool)

G00 Z5.000000
G00 X112.178355 Y160.253230

G01 Z-0.125000 F100.0(Penetrate)
G03 X113.075467 Y160.358209 Z-0.125000 I0.000000 J3.885677 F400.000000
G03 X113.879605 Y160.656915 Z-0.125000 I-0.809178 J3.410121
G03 X114.572098 Y161.161363 Z-0.125000 I-1.486957 J2.768800
G03 X115.032985 Y161.767049 Z-0.125000 I-1.719988 J1.786992
G01 X115.032985 Y164.448669 Z-0.125000
G01 X113.475915 Y164.448669 Z-0.125000
G03 X111.012161 Y163.718926 Z-0.125000 I-0.000000 J-4.523925
G03 X110.145515 Y162.286072 Z-0.125000 I1.046363 J-1.611399
G01 X110.131115 Y162.040978 Z-0.125000
G03 X110.277258 Y161.326524 Z-0.125000 I1.819464 J0.000000
G03 X110.678975 Y160.757836 Z-0.125000 I1.525376 J0.651286
G03 X111.284006 Y160.399689 Z-0.125000 I1.143311 J1.241314
G03 X112.178375 Y160.253230 Z-0.125000 I0.894369 J2.657553
G01 X112.178355 Y160.253230 Z-0.125000
G00 Z5.000000

(End cutting path id: path14575)


(Start cutting path id: path14573)
(ZZZanette)
(Change tool to Default tool)

G00 Z5.000000
G00 X104.018155 Y165.010945

G01 Z-0.125000 F100.0(Penetrate)
G02 X103.538191 Y161.567450 Z-0.125000 I-12.592640 J-0.000000 F400.000000
G02 X102.374585 Y159.229601 Z-0.125000 I-6.833422 J1.942664
G02 X100.456988 Y157.645425 Z-0.125000 I-4.271559 J3.217907
G02 X97.962887 Y157.067004 Z-0.125000 I-2.494101 J5.087967
G02 X95.799029 Y157.512692 Z-0.125000 I0.000000 J5.475710
G02 X94.142298 Y158.710578 Z-0.125000 I1.852980 J4.307367
G01 X94.142298 Y151.357747 Z-0.125000
G01 X89.975694 Y151.357747 Z-0.125000
G01 X89.975694 Y172.954886 Z-0.125000
G01 X93.839535 Y172.954886 Z-0.125000
G01 X93.983708 Y171.426650 Z-0.125000
G02 X95.724114 Y172.759457 Z-0.125000 I3.815414 J-3.179511
G02 X97.934052 Y173.243232 Z-0.125000 I2.209938 J-4.805737
G02 X100.524987 Y172.658174 Z-0.125000 I0.000000 J-6.029519
G02 X102.417835 Y171.109469 Z-0.125000 I-2.196570 J-4.615763
G02 X103.538702 Y168.815889 Z-0.125000 I-5.436915 J-4.077681
G02 X104.018155 Y165.227204 Z-0.125000 I-13.190858 J-3.588685
G01 X104.018155 Y165.010945 Z-0.125000
G00 Z5.000000

(End cutting path id: path14573)


(Start cutting path id: path14573)
(ZZZanette)
(Change tool to Default tool)

G00 Z5.000000
G00 X99.851555 Y165.313708

G01 Z-0.125000 F100.0(Penetrate)
G03 X99.610833 Y167.418580 Z-0.125000 I-9.322856 J-0.000000 F400.000000
G03 X99.073020 Y168.672943 Z-0.125000 I-3.769025 J-0.873508
G03 X98.133854 Y169.533591 Z-0.125000 I-2.119057 J-1.369633
G03 X96.838336 Y169.855163 Z-0.125000 I-1.295518 J-2.448845
G03 X95.150483 Y169.417387 Z-0.125000 I-0.000000 J-3.472665
G03 X94.142298 Y168.355762 Z-0.125000 I1.189900 J-2.139532
G01 X94.142298 Y161.968891 Z-0.125000
G03 X95.181933 Y160.870173 Z-0.125000 I2.309220 J1.143819
G03 X96.867171 Y160.426238 Z-0.125000 I1.685238 J2.976728
G03 X98.778926 Y161.498867 Z-0.125000 I0.000000 J2.239984
G03 X99.851555 Y165.313708 Z-0.125000 I-6.247495 J3.814841
G01 X99.851555 Y165.313708 Z-0.125000
G00 Z5.000000

(End cutting path id: path14573)


(Start cutting path id: path14571)
(ZZZanette)
(Change tool to Default tool)

G00 Z5.000000
G00 X75.774636 Y157.355350

G01 Z-0.125000 F100.0(Penetrate)
G02 X75.541437 Y157.935528 Z-0.125000 I3.039011 J1.558466 F400.000000
G02 X75.356534 Y158.753830 Z-0.125000 I5.890233 J1.760996
G02 X73.639492 Y157.522447 Z-0.125000 I-3.647764 J3.273634
G02 X71.420607 Y157.067004 Z-0.125000 I-2.218885 J5.177397
G02 X69.265448 Y157.431767 Z-0.125000 I0.000000 J6.549135
G02 X67.614435 Y158.393397 Z-0.125000 I1.646705 J4.725330
G02 X66.508802 Y159.897184 Z-0.125000 I2.931011 J3.313318
G02 X66.115034 Y161.738214 Z-0.125000 I4.106912 J1.841030
G02 X66.621534 Y163.959471 Z-0.125000 I5.123914 J-0.000000
G02 X67.946034 Y165.544385 Z-0.125000 I3.795193 J-1.825719
G02 X69.923585 Y166.463435 Z-0.125000 I3.402165 J-4.733446
G02 X73.266023 Y166.885196 Z-0.125000 I3.400170 J-13.490988
G01 X75.183526 Y166.885196 Z-0.125000
G01 X75.183526 Y167.779069 Z-0.125000
G03 X75.021783 Y168.800033 Z-0.125000 I-3.303171 J0.000000
G03 X74.621251 Y169.509147 Z-0.125000 I-1.949986 J-0.633745
G03 X73.981113 Y169.959219 Z-0.125000 I-1.177229 J-0.994105
G03 X72.876756 Y170.157926 Z-0.125000 I-1.104356 J-2.969492
G03 X71.878095 Y170.009321 Z-0.125000 I0.000000 J-3.429923
G03 X71.218764 Y169.653320 Z-0.125000 I0.550027 J-1.807231
G03 X70.792079 Y169.072889 Z-0.125000 I1.024607 J-1.200254
G03 X70.627654 Y168.269258 Z-0.125000 I1.881671 J-0.803631
G01 X66.461050 Y168.269258 Z-0.125000
G02 X66.669976 Y169.556719 Z-0.125000 I4.071309 J-0.000000
G02 X67.297254 Y170.777871 Z-0.125000 I4.278967 J-1.426322
G02 X68.263679 Y171.767725 Z-0.125000 I3.846345 J-2.788603
G02 X69.661694 Y172.580035 Z-0.125000 I3.934065 J-5.161495
G02 X71.227028 Y173.064559 Z-0.125000 I2.991194 J-6.892749
G02 X73.093015 Y173.243232 Z-0.125000 I1.865988 J-9.654450
G02 X75.818876 Y172.819480 Z-0.125000 I0.000000 J-8.979177
G02 X77.663304 Y171.787083 Z-0.125000 I-1.600351 J-5.022883
G02 X78.882539 Y170.122019 Z-0.125000 I-2.856292 J-3.370427
G02 X79.364548 Y167.721400 Z-0.125000 I-5.737070 J-2.400619
G01 X79.364548 Y160.959679 Z-0.125000
G03 X79.570394 Y158.787795 Z-0.125000 I12.411217 J0.080607
G03 X79.984492 Y157.600444 Z-0.125000 I4.055114 J0.748368
G01 X79.984492 Y157.355350 Z-0.125000
G01 X75.774636 Y157.355350 Z-0.125000
G00 Z5.000000

(End cutting path id: path14571)


(Start cutting path id: path14571)
(ZZZanette)
(Change tool to Default tool)

G00 Z5.000000
G00 X72.328898 Y160.253230

G01 Z-0.125000 F100.0(Penetrate)
G03 X73.226008 Y160.358209 Z-0.125000 I0.000000 J3.885653 F400.000000
G03 X74.030141 Y160.656915 Z-0.125000 I-0.809172 J3.410079
G03 X74.722639 Y161.161363 Z-0.125000 I-1.486954 J2.768812
G03 X75.183526 Y161.767049 Z-0.125000 I-1.719972 J1.786982
G01 X75.183526 Y164.448669 Z-0.125000
G01 X73.626456 Y164.448669 Z-0.125000
G03 X71.162703 Y163.718926 Z-0.125000 I0.000000 J-4.523923
G03 X70.296056 Y162.286072 Z-0.125000 I1.046364 J-1.611401
G01 X70.281636 Y162.040978 Z-0.125000
G03 X70.427778 Y161.326524 Z-0.125000 I1.819470 J0.000000
G03 X70.829494 Y160.757836 Z-0.125000 I1.525376 J0.651284
G03 X71.434523 Y160.399690 Z-0.125000 I1.143305 J1.241303
G03 X72.328895 Y160.253230 Z-0.125000 I0.894372 J2.657563
G01 X72.328898 Y160.253230 Z-0.125000
G00 Z5.000000

(End cutting path id: path14571)


(Start cutting path id: path14569)
(ZZZanette)
(Change tool to Default tool)

G00 Z5.000000
G00 X65.120239 Y169.047793

G01 Z-0.125000 F100.0(Penetrate)
G03 X64.267941 Y169.138280 Z-0.125000 I-1.985840 J-14.645501 F400.000000
G03 X63.620838 Y169.163132 Z-0.125000 I-0.647103 J-8.412303
G03 X61.574970 Y168.666174 Z-0.125000 I-0.000000 J-4.459676
G03 X60.521115 Y167.562810 Z-0.125000 I1.074513 J-2.081264
G01 X60.521115 Y157.355350 Z-0.125000
G01 X56.354511 Y157.355350 Z-0.125000
G01 X56.354511 Y172.954886 Z-0.125000
G01 X60.290438 Y172.954886 Z-0.125000
G01 X60.405777 Y171.095052 Z-0.125000
G02 X61.971490 Y172.700798 Z-0.125000 I4.003851 J-2.337818
G02 X63.880350 Y173.243232 Z-0.125000 I1.908860 J-3.087484
G02 X64.564943 Y173.194044 Z-0.125000 I0.000000 J-4.788677
G02 X65.177908 Y173.055807 Z-0.125000 I-0.573784 J-3.972350
G01 X65.120239 Y169.047793 Z-0.125000
G00 Z5.000000

(End cutting path id: path14569)


(Start cutting path id: path14571)
(ZZZanette)
(Change tool to Default tool)

G00 Z5.000000
G00 X73.914802 Y179.500347

G01 Z-0.125000 F100.0(Penetrate)
G01 X78.456257 Y179.500347 Z-0.125000 F400.000000
G01 X74.462660 Y175.030979 Z-0.125000
G01 X71.074591 Y175.030979 Z-0.125000
G01 X73.914802 Y179.500347 Z-0.125000
G00 Z5.000000

(End cutting path id: path14571)


(Start cutting path id: path14553)
(ZZZanette)
(Change tool to Default tool)

G00 Z5.000000
G00 X64.759806 Y186.882013

G01 Z-0.125000 F100.0(Penetrate)
G02 X64.526607 Y187.462191 Z-0.125000 I3.039002 J1.558467 F400.000000
G02 X64.341703 Y188.280492 Z-0.125000 I5.890196 J1.760991
G02 X62.624661 Y187.049109 Z-0.125000 I-3.647764 J3.273634
G02 X60.405776 Y186.593666 Z-0.125000 I-2.218885 J5.177397
G02 X58.250618 Y186.958429 Z-0.125000 I-0.000000 J6.549125
G02 X56.599605 Y187.920060 Z-0.125000 I1.646707 J4.725330
G02 X55.493972 Y189.423847 Z-0.125000 I2.931011 J3.313318
G02 X55.100204 Y191.264877 Z-0.125000 I4.106912 J1.841030
G02 X55.606704 Y193.486134 Z-0.125000 I5.123917 J-0.000000
G02 X56.931203 Y195.071048 Z-0.125000 I3.795193 J-1.825718
G02 X58.908755 Y195.990098 Z-0.125000 I3.402167 J-4.733452
G02 X62.251193 Y196.411859 Z-0.125000 I3.400170 J-13.490991
G01 X64.168696 Y196.411859 Z-0.125000
G01 X64.168696 Y197.305732 Z-0.125000
G03 X64.006953 Y198.326695 Z-0.125000 I-3.303165 J0.000000
G03 X63.606420 Y199.035810 Z-0.125000 I-1.949985 J-0.633746
G03 X62.966282 Y199.485882 Z-0.125000 I-1.177229 J-0.994105
G03 X61.861925 Y199.684589 Z-0.125000 I-1.104356 J-2.969492
G03 X60.863264 Y199.535984 Z-0.125000 I0.000000 J-3.429921
G03 X60.203934 Y199.179983 Z-0.125000 I0.550025 J-1.807226
G03 X59.777249 Y198.599552 Z-0.125000 I1.024607 J-1.200254
G03 X59.612824 Y197.795921 Z-0.125000 I1.881671 J-0.803631
G01 X55.446220 Y197.795921 Z-0.125000
G02 X55.655146 Y199.083382 Z-0.125000 I4.071309 J0.000000
G02 X56.282424 Y200.304534 Z-0.125000 I4.278967 J-1.426322
G02 X57.248848 Y201.294387 Z-0.125000 I3.846337 J-2.788594
G02 X58.646864 Y202.106698 Z-0.125000 I3.934063 J-5.161492
G02 X60.212197 Y202.591222 Z-0.125000 I2.991191 J-6.892736
G02 X62.078185 Y202.769895 Z-0.125000 I1.865988 J-9.654455
G02 X64.804046 Y202.346143 Z-0.125000 I-0.000000 J-8.979177
G02 X66.648474 Y201.313746 Z-0.125000 I-1.600351 J-5.022883
G02 X67.867708 Y199.648681 Z-0.125000 I-2.856297 J-3.370428
G02 X68.349717 Y197.248063 Z-0.125000 I-5.737072 J-2.400618
G01 X68.349717 Y190.486342 Z-0.125000
G03 X68.555563 Y188.314458 Z-0.125000 I12.411196 J0.080607
G03 X68.969662 Y187.127107 Z-0.125000 I4.055109 J0.748368
G01 X68.969662 Y186.882013 Z-0.125000
G01 X64.759806 Y186.882013 Z-0.125000
G00 Z5.000000

(End cutting path id: path14553)


(Start cutting path id: path14553)
(ZZZanette)
(Change tool to Default tool)

G00 Z5.000000
G00 X61.314067 Y189.779893

G01 Z-0.125000 F100.0(Penetrate)
G03 X62.211177 Y189.884872 Z-0.125000 I0.000000 J3.885653 F400.000000
G03 X63.015310 Y190.183578 Z-0.125000 I-0.809172 J3.410079
G03 X63.707808 Y190.688026 Z-0.125000 I-1.486959 J2.768821
G03 X64.168696 Y191.293711 Z-0.125000 I-1.719974 J1.786988
G01 X64.168696 Y193.975332 Z-0.125000
G01 X62.611626 Y193.975332 Z-0.125000
G03 X60.147873 Y193.245589 Z-0.125000 I-0.000000 J-4.523923
G03 X59.281226 Y191.812735 Z-0.125000 I1.046364 J-1.611401
G01 X59.266806 Y191.567640 Z-0.125000
G03 X59.412948 Y190.853186 Z-0.125000 I1.819469 J-0.000000
G03 X59.814664 Y190.284499 Z-0.125000 I1.525372 J0.651282
G03 X60.419693 Y189.926353 Z-0.125000 I1.143305 J1.241303
G03 X61.314065 Y189.779893 Z-0.125000 I0.894372 J2.657563
G01 X61.314067 Y189.779893 Z-0.125000
G00 Z5.000000

(End cutting path id: path14553)


(Start cutting path id: path14551)
(ZZZanette)
(Change tool to Default tool)

G00 Z5.000000
G00 X48.511490 Y188.467918

G01 Z-0.125000 F100.0(Penetrate)
G02 X46.723150 Y187.114092 Z-0.125000 I-3.731989 J3.071711 F400.000000
G02 X44.243965 Y186.593666 Z-0.125000 I-2.479185 J5.644911
G02 X41.920660 Y187.015950 Z-0.125000 I-0.000000 J6.602274
G02 X40.408959 Y188.035398 Z-0.125000 I1.385180 J3.684577
G02 X39.489238 Y189.631232 Z-0.125000 I3.185586 J2.898883
G02 X39.068149 Y192.259672 Z-0.125000 I8.574691 J2.721659
G01 X39.068149 Y202.481548 Z-0.125000
G01 X43.234753 Y202.481548 Z-0.125000
G01 X43.234753 Y192.403845 Z-0.125000
G03 X43.914950 Y190.647515 Z-0.125000 I2.607598 J-0.000000
G03 X45.455020 Y189.967318 Z-0.125000 I1.540070 J1.403377
G03 X47.310588 Y190.409232 Z-0.125000 I-0.000000 J4.116662
G03 X48.367317 Y191.437885 Z-0.125000 I-1.109135 J2.196520
G01 X48.367317 Y202.481548 Z-0.125000
G01 X52.548339 Y202.481548 Z-0.125000
G01 X52.548339 Y186.882013 Z-0.125000
G01 X48.626829 Y186.882013 Z-0.125000
G01 X48.511490 Y188.467918 Z-0.125000
G00 Z5.000000

(End cutting path id: path14551)


(Start cutting path id: path14567)
(ZZZanette)
(Change tool to Default tool)

G00 Z5.000000
G00 X48.482657 Y176.991734

G01 Z-0.125000 F100.0(Penetrate)
G02 X48.650262 Y177.858278 Z-0.125000 I2.323891 J-0.000000 F400.000000
G02 X49.102601 Y178.534387 Z-0.125000 I1.831716 J-0.736109
G02 X49.806406 Y178.966591 Z-0.125000 I1.358738 J-1.423441
G02 X50.818262 Y179.139914 Z-0.125000 I1.011856 J-2.866926
G02 X51.816114 Y178.967624 Z-0.125000 I0.000000 J-2.975779
G02 X52.519505 Y178.534387 Z-0.125000 I-0.664124 J-1.865873
G02 X52.983143 Y177.855807 Z-0.125000 I-1.365852 J-1.430894
G02 X53.153867 Y176.991734 Z-0.125000 I-2.101268 J-0.864073
G02 X52.978776 Y176.116277 Z-0.125000 I-2.276188 J-0.000000
G02 X52.505088 Y175.434664 Z-0.125000 I-1.816134 J0.756722
G02 X51.802118 Y175.000377 Z-0.125000 I-1.376543 J1.442093
G02 X50.818262 Y174.829137 Z-0.125000 I-0.983855 J2.740741
G02 X49.832861 Y174.999277 Z-0.125000 I-0.000000 J2.938650
G02 X49.117018 Y175.434664 Z-0.125000 I0.691770 J1.943546
G02 X48.654637 Y176.113781 Z-0.125000 I1.355013 J1.419536
G02 X48.482657 Y176.991734 Z-0.125000 I2.154978 J0.877953
G01 X48.482657 Y176.991734 Z-0.125000
G00 Z5.000000

(End cutting path id: path14567)


(Start cutting path id: path14567)
(ZZZanette)
(Change tool to Default tool)

G00 Z5.000000
G00 X52.908773 Y157.355350

G01 Z-0.125000 F100.0(Penetrate)
G01 X48.727751 Y157.355350 Z-0.125000 F400.000000
G01 X48.727751 Y172.954886 Z-0.125000
G01 X52.908773 Y172.954886 Z-0.125000
G01 X52.908773 Y157.355350 Z-0.125000
G00 Z5.000000

(End cutting path id: path14567)


(Start cutting path id: path14581)
(ZZZanette)
(Change tool to Default tool)

G00 Z5.000000
G00 X67.513513 Y130.726565

G01 Z-0.125000 F100.0(Penetrate)
G03 X68.410623 Y130.831546 Z-0.125000 I-0.000000 J3.885611 F400.000000
G03 X69.214757 Y131.130255 Z-0.125000 I-0.809175 J3.410050
G03 X69.907255 Y131.634702 Z-0.125000 I-1.486946 J2.768810
G03 X70.368142 Y132.240385 Z-0.125000 I-1.719961 J1.786978
G01 X70.368142 Y134.922005 Z-0.125000
G01 X68.811072 Y134.922005 Z-0.125000
G03 X66.347320 Y134.192261 Z-0.125000 I-0.000000 J-4.523917
G03 X65.480672 Y132.759405 Z-0.125000 I1.046367 J-1.611404
G01 X65.466252 Y132.514315 Z-0.125000
G03 X65.612395 Y131.799857 Z-0.125000 I1.819478 J0.000000
G03 X66.014110 Y131.231175 Z-0.125000 I1.525341 J0.651270
G03 X66.619140 Y130.873025 Z-0.125000 I1.143310 J1.241298
G03 X67.513510 Y130.726565 Z-0.125000 I0.894370 J2.657535
G01 X67.513513 Y130.726565 Z-0.125000
G00 Z5.000000

(End cutting path id: path14581)


(Start cutting path id: path14581)
(ZZZanette)
(Change tool to Default tool)

G00 Z5.000000
G00 X70.959252 Y127.828685

G01 Z-0.125000 F100.0(Penetrate)
G02 X70.726053 Y128.408867 Z-0.125000 I3.039099 J1.558498 F400.000000
G02 X70.541150 Y129.227165 Z-0.125000 I5.890239 J1.760998
G02 X68.824109 Y127.995787 Z-0.125000 I-3.647756 J3.273638
G02 X66.605223 Y127.540345 Z-0.125000 I-2.218886 J5.177418
G02 X64.450063 Y127.905107 Z-0.125000 I0.000000 J6.549150
G02 X62.799051 Y128.866735 Z-0.125000 I1.646703 J4.725332
G02 X61.693419 Y130.370520 Z-0.125000 I2.930994 J3.313306
G02 X61.299650 Y132.211555 Z-0.125000 I4.106928 J1.841035
G02 X61.806149 Y134.432806 Z-0.125000 I5.123901 J-0.000000
G02 X63.130649 Y136.017725 Z-0.125000 I3.795221 J-1.825732
G02 X65.108201 Y136.936774 Z-0.125000 I3.402168 J-4.733464
G02 X68.450639 Y137.358535 Z-0.125000 I3.400178 J-13.491035
G01 X70.368142 Y137.358535 Z-0.125000
G01 X70.368142 Y138.252405 Z-0.125000
G03 X70.206399 Y139.273370 Z-0.125000 I-3.303178 J0.000000
G03 X69.805867 Y139.982485 Z-0.125000 I-1.949990 J-0.633746
G03 X69.165728 Y140.432558 Z-0.125000 I-1.177230 J-0.994104
G03 X68.061371 Y140.631265 Z-0.125000 I-1.104357 J-2.969492
G03 X67.062710 Y140.482659 Z-0.125000 I-0.000000 J-3.429894
G03 X66.403380 Y140.126655 Z-0.125000 I0.550029 J-1.807222
G03 X65.976696 Y139.546229 Z-0.125000 I1.024582 J-1.200239
G03 X65.812270 Y138.742595 Z-0.125000 I1.881676 J-0.803634
G01 X61.645666 Y138.742595 Z-0.125000
G02 X61.854593 Y140.030057 Z-0.125000 I4.071310 J0.000000
G02 X62.481870 Y141.251205 Z-0.125000 I4.278930 J-1.426311
G02 X63.448295 Y142.241061 Z-0.125000 I3.846352 J-2.788601
G02 X64.846310 Y143.053373 Z-0.125000 I3.934063 J-5.161481
G02 X66.411643 Y143.537896 Z-0.125000 I2.991190 J-6.892745
G02 X68.277631 Y143.716569 Z-0.125000 I1.865989 J-9.654470
G02 X71.003492 Y143.292817 Z-0.125000 I-0.000000 J-8.979177
G02 X72.847920 Y142.260420 Z-0.125000 I-1.600351 J-5.022883
G02 X74.067156 Y140.595353 Z-0.125000 I-2.856308 J-3.370436
G02 X74.549164 Y138.194735 Z-0.125000 I-5.737069 J-2.400618
G01 X74.549164 Y131.433015 Z-0.125000
G03 X74.755010 Y129.261129 Z-0.125000 I12.411213 J0.080607
G03 X75.169108 Y128.073785 Z-0.125000 I4.055055 J0.748358
G01 X75.169108 Y127.828685 Z-0.125000
G01 X70.959252 Y127.828685 Z-0.125000
G00 Z5.000000

(End cutting path id: path14581)


(Start cutting path id: path14583)
(ZZZanette)
(Change tool to Default tool)

G00 Z5.000000
G00 X84.511529 Y135.772625

G01 Z-0.125000 F100.0(Penetrate)
G02 X84.753381 Y138.037534 Z-0.125000 I10.726197 J0.000000 F400.000000
G02 X85.405402 Y139.910395 Z-0.125000 I7.947142 J-1.716803
G02 X86.510996 Y141.531423 Z-0.125000 I6.251198 J-3.075982
G02 X87.971685 Y142.721774 Z-0.125000 I4.745294 J-4.331599
G02 X89.731928 Y143.447553 Z-0.125000 I3.422758 J-5.803806
G02 X91.878777 Y143.716569 Z-0.125000 I2.146849 J-8.431824
G02 X94.819666 Y143.182818 Z-0.125000 I-0.000000 J-8.368808
G02 X97.025759 Y141.784649 Z-0.125000 I-2.245642 J-5.982793
G02 X98.520160 Y139.614937 Z-0.125000 I-4.588915 J-4.760135
G02 X99.260443 Y136.536745 Z-0.125000 I-8.784877 J-3.740812
G01 X99.289283 Y135.469865 Z-0.125000
G02 X98.720755 Y132.101789 Z-0.125000 I-10.260839 J-0.000000
G02 X97.285276 Y129.702935 Z-0.125000 I-6.492270 J2.256063
G02 X95.018365 Y128.142399 Z-0.125000 I-4.613835 J4.275501
G02 X91.907617 Y127.540345 Z-0.125000 I-3.110748 J7.735421
G02 X88.795089 Y128.141249 Z-0.125000 I-0.000000 J8.361501
G02 X86.515541 Y129.702935 Z-0.125000 I2.364909 J5.896527
G02 X85.090176 Y132.092420 Z-0.125000 I4.906463 J4.546650
G02 X84.511534 Y135.585205 Z-0.125000 I10.252212 J3.492785
G01 X84.511529 Y135.772625 Z-0.125000
G00 Z5.000000

(End cutting path id: path14583)


(Start cutting path id: path14583)
(ZZZanette)
(Change tool to Default tool)

G00 Z5.000000
G00 X88.678133 Y135.469865

G01 Z-0.125000 F100.0(Penetrate)
G03 X88.936998 Y133.331892 Z-0.125000 I8.958216 J-0.000000 F400.000000
G03 X89.514337 Y132.067375 Z-0.125000 I3.624445 J0.890752
G03 X90.515738 Y131.221044 Z-0.125000 I2.173938 J1.556652
G03 X91.907612 Y130.899575 Z-0.125000 I1.391874 J2.852489
G03 X93.263334 Y131.212611 Z-0.125000 I0.000000 J3.092255
G03 X94.272052 Y132.052965 Z-0.125000 I-1.207076 J2.474496
G03 X94.844821 Y133.311231 Z-0.125000 I-2.780088 J2.025005
G03 X95.122673 Y135.772625 Z-0.125000 I-10.763370 J2.461394
G03 X94.862748 Y137.866675 Z-0.125000 I-8.565168 J-0.000000
G03 X94.272052 Y139.146285 Z-0.125000 I-3.704995 J-0.934162
G03 X93.253905 Y140.018293 Z-0.125000 I-2.255968 J-1.603650
G03 X91.878777 Y140.342915 Z-0.125000 I-1.375128 J-2.750274
G03 X90.519585 Y140.018562 Z-0.125000 I-0.000000 J-3.010003
G03 X89.514337 Y139.146285 Z-0.125000 I1.233047 J-2.436397
G03 X88.948556 Y137.878094 Z-0.125000 I2.910976 J-2.058982
G03 X88.678133 Y135.469865 Z-0.125000 I10.587919 J-2.408229
G01 X88.678133 Y135.469865 Z-0.125000
G00 Z5.000000

(End cutting path id: path14583)


(Start cutting path id: path14520)
(ZZZanette)
(Change tool to Default tool)

G00 Z5.000000
G00 X97.381820 Y95.365600

G01 Z-0.125000 F100.0(Penetrate)
G01 X97.376838 Y95.418025 Z-0.125000 F400.000000
G03 X97.048172 Y97.111850 Z-0.125000 I-295.474142 J-56.454268
G02 X96.553678 Y101.426552 Z-0.125000 I26.522549 J5.225352
G02 X96.828724 Y103.622410 Z-0.125000 I7.015170 J0.236457
G02 X97.385793 Y104.792345 Z-0.125000 I3.869552 J-1.124910
G01 X97.800534 Y104.928395 Z-0.125000
G02 X98.282189 Y104.581604 Z-0.125000 I-0.333837 J-0.971540
G02 X99.573676 Y102.679200 Z-0.125000 I-15.930127 J-12.204086
G03 X100.910256 Y101.656744 Z-0.125000 I1.953110 J1.168320
G03 X103.287620 Y101.634020 Z-0.125000 I1.230587 J4.372767
G02 X108.677923 Y102.080028 Z-0.125000 I3.973903 J-15.231540
G02 X112.541000 Y100.798010 Z-0.125000 I-0.802113 J-8.878259
G03 X113.218759 Y100.455573 Z-0.125000 I2.399004 J3.906223
G01 X113.541500 Y100.392680 Z-0.125000
G01 X114.062694 Y100.639115 Z-0.125000
G03 X116.780880 Y104.338060 Z-0.125000 I-33.041198 J27.128672
G02 X117.969313 Y105.987036 Z-0.125000 I19.124777 J-12.530667
G01 X118.244450 Y106.189380 Z-0.125000
G01 X118.891046 Y106.098238 Z-0.125000
G02 X119.970630 Y104.886710 Z-0.125000 I-2.504041 J-3.318100
G02 X120.355615 Y103.829739 Z-0.125000 I-2.677146 J-1.573706
G02 X120.559350 Y101.398040 Z-0.125000 I-14.410036 J-2.431699
G03 X120.660746 Y99.014345 Z-0.125000 I28.069478 J0.000000
G01 X120.771020 Y98.915040 Z-0.125000
G03 X120.979865 Y98.939521 Z-0.125000 I-0.018178 J1.058145
G03 X122.041020 Y99.193460 Z-0.125000 I-6.261808 J28.510820
G03 X122.935876 Y99.624548 Z-0.125000 I-0.641844 J2.476663
G01 X123.233060 Y100.088960 Z-0.125000
G03 X123.360107 Y103.337121 Z-0.125000 I-9.235784 J1.987809
G03 X122.368530 Y106.511390 Z-0.125000 I-9.799369 J-1.319114
G03 X119.792768 Y109.824105 Z-0.125000 I-9.940042 J-5.071027
G03 X118.433750 Y109.967700 Z-0.125000 I-0.781046 J-0.889169
G01 X118.170341 Y109.738663 Z-0.125000
G03 X116.861180 Y107.897130 Z-0.125000 I28.533137 J-21.670553
G02 X113.375929 Y103.468170 Z-0.125000 I-29.280747 J19.455906
G01 X112.547290 Y103.238160 Z-0.125000
G03 X107.359975 Y104.178401 Z-0.125000 I-7.141152 J-24.618437
G03 X104.083490 Y103.885180 Z-0.125000 I-0.760760 J-9.951705
G02 X101.967915 Y104.007209 Z-0.125000 I-0.868887 J3.335913
G02 X100.536670 Y105.261020 Z-0.125000 I1.005136 J2.591178
G03 X98.110956 Y109.317224 Z-0.125000 I-56.073088 J-30.779723
G01 X97.697264 Y109.633720 Z-0.125000
G01 X97.128498 Y109.406645 Z-0.125000
G03 X95.193520 Y105.049350 Z-0.125000 I25.553951 J-13.956231
G03 X94.332776 Y100.765501 Z-0.125000 I15.030001 J-5.248343
G03 X94.663575 Y96.318100 Z-0.125000 I16.553710 J-1.004732
G01 X94.876935 Y95.312680 Z-0.125000
G01 X96.129394 Y95.312680 Z-0.125000
G03 X97.355940 Y95.338568 Z-0.125000 I-0.000000 J29.069487
G01 X97.381820 Y95.365580 Z-0.125000
G01 X97.381820 Y95.365600 Z-0.125000
G00 Z5.000000

(End cutting path id: path14520)


(Start cutting path id: path14520)
(ZZZanette)
(Change tool to Default tool)

G00 Z5.000000
G00 X96.535190 Y94.476970

G01 Z-0.125000 F100.0(Penetrate)
G01 X96.530933 Y94.550973 Z-0.125000 F400.000000
G03 X93.889357 Y94.565570 Z-0.125000 I-1.581906 J-47.245368
G03 X90.098541 Y94.366983 Z-0.125000 I1.423737 J-63.458382
G01 X90.079357 Y94.251520 Z-0.125000
G03 X91.381778 Y94.003316 Z-0.125000 I1.197913 J2.744650
G03 X96.535190 Y94.477000 Z-0.125000 I-1.591949 J45.589400
G01 X96.535190 Y94.476970 Z-0.125000
G00 Z5.000000

(End cutting path id: path14520)


(Start cutting path id: path14520)
(ZZZanette)
(Change tool to Default tool)

G00 Z5.000000
G00 X97.670330 Y93.400280

G01 Z-0.125000 F100.0(Penetrate)
G01 X97.616730 Y93.731094 Z-0.125000 F400.000000
G03 X96.693898 Y93.887580 Z-0.125000 I-0.718982 J-1.440680
G03 X95.802574 Y93.753678 Z-0.125000 I2.561627 J-20.085024
G01 X95.731137 Y93.721040 Z-0.125000
G01 X95.705460 Y93.656828 Z-0.125000
G03 X95.805467 Y93.121270 Z-0.125000 I4.417904 J0.547856
G01 X96.080347 Y92.847176 Z-0.125000
G01 X96.715351 Y92.895670 Z-0.125000
G03 X97.466364 Y93.249958 Z-0.125000 I-3.530006 J8.455969
G01 X97.670328 Y93.400280 Z-0.125000
G01 X97.670330 Y93.400280 Z-0.125000
G00 Z5.000000

(End cutting path id: path14520)


(Start cutting path id: path14520)
(ZZZanette)
(Change tool to Default tool)

G00 Z5.000000
G00 X98.980559 Y89.227270

G01 Z-0.125000 F100.0(Penetrate)
G02 X98.708342 Y90.129295 Z-0.125000 I48.528093 J15.137112 F400.000000
G02 X98.455745 Y91.026430 Z-0.125000 I47.738396 J13.925326
G01 X97.947604 Y91.632708 Z-0.125000
G01 X97.270568 Y91.585480 Z-0.125000
G01 X96.750839 Y91.244940 Z-0.125000
G01 X97.205383 Y90.580060 Z-0.125000
G03 X98.834391 Y88.496658 Z-0.125000 I17.085259 J11.680376
G01 X99.211133 Y88.327680 Z-0.125000
G01 X99.229310 Y88.351103 Z-0.125000
G03 X98.980559 Y89.227270 Z-0.125000 I-17.142063 J-4.393377
G01 X98.980559 Y89.227270 Z-0.125000
G00 Z5.000000

(End cutting path id: path14520)


(Start cutting path id: path14520)
(ZZZanette)
(Change tool to Default tool)

G00 Z5.000000
G00 X103.680100 Y86.966470

G01 Z-0.125000 F100.0(Penetrate)
G02 X102.991030 Y87.648705 Z-0.125000 I0.827127 J1.524518 F400.000000
G02 X101.842520 Y90.274300 Z-0.125000 I13.243548 J7.357099
G02 X101.526275 Y91.678703 Z-0.125000 I7.123818 J2.341956
G01 X101.609140 Y92.126380 Z-0.125000
G01 X102.234583 Y92.447519 Z-0.125000
G02 X103.093070 Y91.931330 Z-0.125000 I-0.163501 J-1.243903
G03 X104.676740 Y91.129586 Z-0.125000 I1.555527 J1.107636
G03 X108.025740 Y92.004030 Z-0.125000 I-0.107008 J7.260157
G02 X109.194607 Y92.453216 Z-0.125000 I2.313356 J-4.274387
G01 X109.450990 Y92.349360 Z-0.125000
G02 X109.643869 Y90.568814 Z-0.125000 I-1.721353 J-1.087187
G02 X107.855850 Y87.945500 Z-0.125000 I-6.014873 J2.178661
G02 X105.486759 Y86.724023 Z-0.125000 I-3.619568 J4.112063
G02 X103.680100 Y86.966480 Z-0.125000 I-0.584838 J2.494455
G01 X103.680100 Y86.966470 Z-0.125000
G00 Z5.000000

(End cutting path id: path14520)


(Start cutting path id: path14520)
(ZZZanette)
(Change tool to Default tool)

G00 Z5.000000
G00 X106.895920 Y87.977830

G01 Z-0.125000 F100.0(Penetrate)
G03 X108.064464 Y89.145169 Z-0.125000 I-2.290878 J3.461789 F400.000000
G03 X108.775830 Y90.812240 Z-0.125000 I-4.165677 J2.762872
G01 X108.974540 Y91.696670 Z-0.125000
G01 X107.966640 Y91.185920 Z-0.125000
G02 X104.385473 Y90.339333 Z-0.125000 I-3.543957 J6.993695
G02 X102.782210 Y91.210520 Z-0.125000 I0.009149 J1.927690
G03 X102.362562 Y91.653156 Z-0.125000 I-1.435071 J-0.940298
G01 X102.260034 Y91.606501 Z-0.125000
G01 X102.286909 Y91.275952 Z-0.125000
G03 X102.678380 Y89.968100 Z-0.125000 I14.652210 J3.673234
G03 X104.058704 Y87.748656 Z-0.125000 I5.644553 J1.971528
G03 X105.266890 Y87.334330 Z-0.125000 I1.018367 J1.000872
G03 X106.054893 Y87.539516 Z-0.125000 I-0.446105 J3.328961
G03 X106.895920 Y87.977820 Z-0.125000 I-1.675509 J4.241049
G01 X106.895920 Y87.977830 Z-0.125000
G00 Z5.000000

(End cutting path id: path14520)


(Start cutting path id: path14520)
(ZZZanette)
(Change tool to Default tool)

G00 Z5.000000
G00 X116.537680 Y96.381610

G01 Z-0.125000 F100.0(Penetrate)
G03 X121.856427 Y97.463935 Z-0.125000 I-30.415297 J163.076285 F400.000000
G03 X125.533520 Y98.365990 Z-0.125000 I-17.387464 J78.822987
G03 X126.666547 Y98.744251 Z-0.125000 I-2.680537 J9.915199
G03 X127.121020 Y99.000800 Z-0.125000 I-0.727845 J1.820190
G01 X127.132576 Y99.184766 Z-0.125000
G01 X126.785910 Y99.327620 Z-0.125000
G03 X125.808926 Y99.259737 Z-0.125000 I-0.052818 J-6.304247
G03 X122.464350 Y98.686730 Z-0.125000 I11.026466 J-74.407664
G03 X113.927317 Y96.488377 Z-0.125000 I14.093883 J-72.407299
G01 X113.997680 Y95.957570 Z-0.125000
G01 X114.207831 Y95.969582 Z-0.125000
G03 X116.537680 Y96.381610 Z-0.125000 I-20.861165 J124.754467
G01 X116.537680 Y96.381610 Z-0.125000
G00 Z5.000000

(End cutting path id: path14520)


(Start cutting path id: path14520)
(ZZZanette)
(Change tool to Default tool)

G00 Z5.000000
G00 X120.981060 Y93.566430

G01 Z-0.125000 F100.0(Penetrate)
G03 X121.539837 Y94.791479 Z-0.125000 I-41.007517 J19.444571 F400.000000
G03 X121.955250 Y95.788930 Z-0.125000 I-26.783969 J11.740068
G01 X122.352340 Y96.794350 Z-0.125000
G01 X121.829300 Y96.794350 Z-0.125000
G03 X121.312011 Y96.750629 Z-0.125000 I-0.000000 J-3.082015
G03 X120.390160 Y96.549330 Z-0.125000 I1.709046 J-10.038074
G03 X119.649025 Y96.095438 Z-0.125000 I0.395049 J-1.477079
G03 X118.722270 Y94.697250 Z-0.125000 I4.232834 J-3.811864
G03 X118.028629 Y93.098368 Z-0.125000 I27.946730 J-13.073994
G01 X118.044400 Y93.005420 Z-0.125000
G01 X118.510667 Y92.708329 Z-0.125000
G03 X120.269990 Y92.363640 Z-0.125000 I2.850246 J9.885696
G01 X120.368316 Y92.412899 Z-0.125000
G03 X120.981060 Y93.566430 Z-0.125000 I-12.354885 J7.302302
G01 X120.981060 Y93.566430 Z-0.125000
G00 Z5.000000

(End cutting path id: path14520)


(Start cutting path id: path14520)
(ZZZanette)
(Change tool to Default tool)

G00 Z5.000000
G00 X124.273980 Y90.114250

G01 Z-0.125000 F100.0(Penetrate)
G03 X122.595996 Y91.211396 Z-0.125000 I-2.618724 J-2.173365 F400.000000
G03 X113.151020 Y93.313690 Z-0.125000 I-21.913553 J-76.183129
G01 X113.075616 Y93.028899 Z-0.125000
G03 X119.395190 Y90.965340 Z-0.125000 I26.540170 J70.569770
G02 X122.039805 Y90.224543 Z-0.125000 I-229.840166 J-825.611344
G02 X122.676020 Y90.040670 Z-0.125000 I-13.553900 J-48.090086
G03 X123.317476 Y89.892121 Z-0.125000 I1.548336 J5.226718
G03 X123.919020 Y89.830960 Z-0.125000 I0.764753 J4.532847
G01 X124.256349 Y89.942383 Z-0.125000
G01 X124.273980 Y90.114250 Z-0.125000
G01 X124.273980 Y90.114250 Z-0.125000
G00 Z5.000000

(End cutting path id: path14520)


(Start cutting path id: path14520)
(ZZZanette)
(Change tool to Default tool)

G00 Z5.000000
G00 X137.916020 Y82.059740

G01 Z-0.125000 F100.0(Penetrate)
G02 X135.502799 Y84.419993 Z-0.125000 I1.902492 J4.359003 F400.000000
G02 X134.689770 Y89.025890 Z-0.125000 I8.285380 J3.837234
G02 X135.954737 Y93.060738 Z-0.125000 I9.674507 J-0.817344
G02 X137.958960 Y94.691850 Z-0.125000 I3.140568 J-1.812066
G02 X140.165720 Y94.956060 Z-0.125000 I1.756352 J-5.321704
G02 X142.713580 Y94.308480 Z-0.125000 I-0.630173 J-7.815355
G02 X143.797055 Y93.115831 Z-0.125000 I-0.808087 J-1.822587
G02 X144.541750 Y88.818900 Z-0.125000 I-13.855790 J-4.614325
G02 X144.211907 Y84.335248 Z-0.125000 I-23.651268 J-0.514036
G02 X143.544350 Y82.957030 Z-0.125000 I-2.708199 J0.460972
G02 X142.946884 Y82.417611 Z-0.125000 I-2.915869 J2.629059
G02 X142.314900 Y82.057450 Z-0.125000 I-1.892900 J2.586958
G02 X140.097997 Y81.603726 Z-0.125000 I-2.213788 J5.173830
G02 X137.916020 Y82.059450 Z-0.125000 I0.003026 J5.465929
G01 X137.916020 Y82.059740 Z-0.125000
G00 Z5.000000

(End cutting path id: path14520)


(Start cutting path id: path14520)
(ZZZanette)
(Change tool to Default tool)

G00 Z5.000000
G00 X136.915790 Y79.974800

G01 Z-0.125000 F100.0(Penetrate)
G02 X134.525610 Y81.696962 Z-0.125000 I1.444524 J4.524586 F400.000000
G02 X132.799183 Y85.260473 Z-0.125000 I8.930873 J6.526735
G02 X132.325967 Y89.290308 Z-0.125000 I12.717734 J3.536121
G02 X133.275650 Y93.066640 Z-0.125000 I9.378820 J-0.351033
G02 X135.148925 Y95.588941 Z-0.125000 I7.733389 J-3.786694
G02 X137.308640 Y96.812680 Z-0.125000 I3.658050 J-3.938254
G02 X140.520513 Y97.242512 Z-0.125000 I3.033188 J-10.450056
G02 X142.972640 Y96.719680 Z-0.125000 I-0.106974 J-6.513469
G01 X143.795930 Y96.367960 Z-0.125000
G01 X143.684040 Y97.601910 Z-0.125000
G03 X143.112002 Y99.755260 Z-0.125000 I-6.587750 J-0.597380
G03 X142.126710 Y101.007700 Z-0.125000 I-3.077288 J-1.407113
G03 X140.112534 Y101.395419 Z-0.125000 I-1.382799 J-1.757935
G03 X136.744580 Y99.423950 Z-0.125000 I2.285503 J-7.766986
G02 X135.735576 Y98.608701 Z-0.125000 I-4.855809 J4.977834
G01 X135.334650 Y98.487710 Z-0.125000
G02 X134.264814 Y98.964009 Z-0.125000 I-0.000000 J1.439653
G02 X133.788520 Y100.204730 Z-0.125000 I1.377861 J1.240721
G02 X134.095859 Y101.058441 Z-0.125000 I1.339368 J0.000000
G02 X135.675150 Y102.485430 Z-0.125000 I5.679222 J-4.697946
G02 X138.135043 Y103.782106 Z-0.125000 I7.395746 J-11.048656
G02 X140.248320 Y104.313850 Z-0.125000 I3.031199 J-7.581497
G02 X143.853226 Y103.047436 Z-0.125000 I0.493260 J-4.359886
G02 X146.356070 Y98.170210 Z-0.125000 I-6.405140 J-6.367727
G02 X146.752569 Y94.882987 Z-0.125000 I-35.703722 J-5.974041
G02 X147.091430 Y88.289820 Z-0.125000 I-143.516070 J-10.681418
G01 X147.239890 Y83.066100 Z-0.125000
G01 X147.840050 Y82.594010 Z-0.125000
G02 X148.240123 Y82.040732 Z-0.125000 I-0.768467 J-0.976961
G02 X148.324370 Y81.258230 Z-0.125000 I-1.552642 J-0.562949
G02 X147.702587 Y80.113448 Z-0.125000 I-1.812295 J0.243090
G02 X146.448790 Y79.649370 Z-0.125000 I-1.253797 J1.461647
G02 X145.674677 Y79.807229 Z-0.125000 I0.000000 J1.976983
G02 X144.987430 Y80.271230 Z-0.125000 I0.852834 J2.004114
G01 X144.365580 Y80.893090 Z-0.125000
G01 X143.151630 Y80.333050 Z-0.125000
G02 X140.103644 Y79.571589 Z-0.125000 I-3.531447 J7.654730
G02 X136.915790 Y79.974830 Z-0.125000 I-0.505753 J8.804262
G01 X136.915790 Y79.974800 Z-0.125000
G00 Z5.000000

(End cutting path id: path14520)


(Start cutting path id: path14520)
(ZZZanette)
(Change tool to Default tool)

G00 Z5.000000
G00 X142.412150 Y80.722520

G01 Z-0.125000 F100.0(Penetrate)
G03 X143.661842 Y81.230285 Z-0.125000 I-3.584083 J10.612751 F400.000000
G01 X143.960840 Y81.463350 Z-0.125000
G01 X144.504612 Y81.636030 Z-0.125000
G01 X145.099420 Y81.156670 Z-0.125000
G03 X146.293474 Y80.282057 Z-0.125000 I1.476676 J0.763623
G03 X147.429020 Y80.754780 Z-0.125000 I0.195181 J1.131379
G03 X147.602122 Y81.502367 Z-0.125000 I-0.839954 J0.588324
G03 X147.189840 Y82.276200 Z-0.125000 I-1.322644 J-0.207933
G01 X146.621150 Y82.803510 Z-0.125000
G01 X146.456580 Y88.158520 Z-0.125000
G03 X145.240669 Y99.901889 Z-0.125000 I-81.512717 J-2.505212
G03 X143.899340 Y102.569660 Z-0.125000 I-5.136419 J-0.911452
G03 X142.617246 Y103.453424 Z-0.125000 I-2.702734 J-2.549048
G03 X140.985190 Y103.775660 Z-0.125000 I-1.621404 J-3.917935
G03 X137.860098 Y103.110279 Z-0.125000 I0.019300 J-7.762147
G03 X135.073620 Y101.156510 Z-0.125000 I3.567762 J-8.052293
G03 X134.600226 Y100.365616 Z-0.125000 I1.487094 J-1.427231
G01 X134.646860 Y99.841710 Z-0.125000
G03 X134.988234 Y99.331160 Z-0.125000 I2.767996 J1.481388
G01 X135.178820 Y99.193680 Z-0.125000
G01 X135.389785 Y99.218582 Z-0.125000
G03 X136.452250 Y100.067820 Z-0.125000 I-5.296886 J7.716064
G02 X138.804567 Y101.644432 Z-0.125000 I6.169436 J-6.661705
G02 X140.808020 Y102.086020 Z-0.125000 I2.003453 J-4.323962
G02 X141.945662 Y101.883806 Z-0.125000 I-0.000000 J-3.301254
G02 X142.737770 Y101.377650 Z-0.125000 I-0.753042 J-2.051355
G02 X143.772298 Y99.805398 Z-0.125000 I-3.293626 J-3.293658
G02 X144.317980 Y97.404510 Z-0.125000 I-7.407064 J-2.945960
G02 X144.363359 Y96.105262 Z-0.125000 I-19.347850 J-1.326176
G01 X144.214006 Y95.824334 Z-0.125000
G01 X143.884860 Y95.766488 Z-0.125000
G02 X142.466850 Y96.159350 Z-0.125000 I6.821842 J27.378512
G03 X136.624258 Y95.483078 Z-0.125000 I-2.146678 J-7.030380
G03 X133.221910 Y90.781960 Z-0.125000 I3.597967 J-6.185715
G03 X133.750140 Y83.907924 Z-0.125000 I11.966270 J-2.537774
G03 X137.073410 Y80.622600 Z-0.125000 I5.255017 J1.992223
G03 X139.499392 Y80.215932 Z-0.125000 I2.300744 J6.285676
G03 X142.412150 Y80.722500 Z-0.125000 I-0.180918 J9.667726
G01 X142.412150 Y80.722520 Z-0.125000
G00 Z5.000000

(End cutting path id: path14520)


(Start cutting path id: path14520)
(ZZZanette)
(Change tool to Default tool)

G00 Z5.000000
G00 X142.306410 Y82.763880

G01 Z-0.125000 F100.0(Penetrate)
G03 X143.265524 Y83.987347 Z-0.125000 I-1.069483 J1.826076 F400.000000
G03 X143.909290 Y88.159750 Z-0.125000 I-14.960640 J4.444162
G03 X143.861549 Y91.962213 Z-0.125000 I-63.433981 J1.105101
G03 X143.720240 Y92.601130 Z-0.125000 I-1.876017 J-0.079833
G03 X142.827629 Y93.529158 Z-0.125000 I-1.631207 J-0.675668
G03 X140.261500 Y94.194090 Z-0.125000 I-3.130477 J-6.797128
G03 X138.778930 Y94.146943 Z-0.125000 I-0.522468 J-6.904377
G03 X137.864130 Y93.858540 Z-0.125000 I0.401753 J-2.869397
G03 X135.972364 Y91.797543 Z-0.125000 I1.821695 J-3.570827
G03 X135.384880 Y87.760790 Z-0.125000 I7.895547 J-3.210194
G03 X136.123884 Y84.868750 Z-0.125000 I9.743707 J0.949374
G03 X137.340110 Y83.177510 Z-0.125000 I4.385623 J1.870911
G03 X139.690392 Y82.169649 Z-0.125000 I2.685620 J3.018432
G03 X142.306410 Y82.763880 Z-0.125000 I0.369031 J4.430832
G01 X142.306410 Y82.763880 Z-0.125000
G00 Z5.000000

(End cutting path id: path14520)


(Start cutting path id: path14520)
(ZZZanette)
(Change tool to Default tool)

G00 Z5.000000
G00 X152.338170 Y79.707940

G01 Z-0.125000 F100.0(Penetrate)
G01 X151.920462 Y80.480444 Z-0.125000 F400.000000
G02 X151.700050 Y91.978930 Z-0.125000 I175.165205 J9.109057
G01 X151.840630 Y102.297680 Z-0.125000
G01 X149.852490 Y102.318780 Z-0.125000
G02 X147.219911 Y102.770892 Z-0.125000 I0.089110 J8.409483
G01 X146.742400 Y103.382490 Z-0.125000
G02 X146.794712 Y104.084544 Z-0.125000 I2.216294 J0.187834
G01 X146.980130 Y104.383180 Z-0.125000
G01 X147.323894 Y104.513801 Z-0.125000
G02 X152.750750 Y104.576730 Z-0.125000 I4.147725 J-123.660111
G01 X158.220030 Y104.520230 Z-0.125000
G01 X158.538500 Y103.952610 Z-0.125000
G01 X158.658776 Y103.407310 Z-0.125000
G01 X158.460800 Y102.947200 Z-0.125000
G01 X157.989059 Y102.679625 Z-0.125000
G02 X156.263660 Y102.509400 Z-0.125000 I-1.725399 J8.659223
G01 X154.462730 Y102.509400 Z-0.125000
G01 X154.605090 Y91.362800 Z-0.125000
G02 X154.575039 Y80.281370 Z-0.125000 I-357.863524 J-4.570288
G01 X154.395190 Y79.826970 Z-0.125000
G02 X153.457264 Y79.377939 Z-0.125000 I-1.017160 J0.920547
G02 X152.338190 Y79.707980 Z-0.125000 I-0.099741 J1.724058
G01 X152.338170 Y79.707940 Z-0.125000
G00 Z5.000000

(End cutting path id: path14520)


(Start cutting path id: path14520)
(ZZZanette)
(Change tool to Default tool)

G00 Z5.000000
G00 X154.035710 Y80.548930

G01 Z-0.125000 F100.0(Penetrate)
G03 X154.139960 Y81.045028 Z-0.125000 I-1.155592 J0.501839 F400.000000
G03 X154.066810 Y87.375180 Z-0.125000 I-196.461174 J0.895232
G02 X153.944392 Y93.725596 Z-0.125000 I378.950746 J10.481501
G02 X153.946890 Y98.381850 Z-0.125000 I203.607267 J2.218883
G01 X154.002690 Y103.038520 Z-0.125000
G01 X155.907690 Y103.144350 Z-0.125000
G03 X157.667887 Y103.387164 Z-0.125000 I-0.604476 J10.883317
G01 X157.812690 Y103.567680 Z-0.125000
G01 X157.658801 Y103.732951 Z-0.125000
G03 X152.573940 Y103.941800 Z-0.125000 I-5.994279 J-83.937878
G03 X147.540109 Y103.791296 Z-0.125000 I-0.668325 J-61.904170
G01 X147.335190 Y103.571380 Z-0.125000
G03 X147.398581 Y103.197941 Z-0.125000 I1.131678 J0.000000
G01 X147.493940 Y103.117420 Z-0.125000
G03 X147.653608 Y103.098843 Z-0.125000 I0.257920 J1.521378
G03 X149.981020 Y102.958670 Z-0.125000 I20.845549 J326.723442
G01 X152.309350 Y102.826850 Z-0.125000
G01 X152.309350 Y91.926020 Z-0.125000
G03 X152.802839 Y80.566177 Z-0.125000 I130.995424 J0.000000
G01 X153.341160 Y80.072680 Z-0.125000
G01 X153.746500 Y80.198302 Z-0.125000
G01 X154.035710 Y80.548930 Z-0.125000
G01 X154.035710 Y80.548930 Z-0.125000
G00 Z5.000000

(End cutting path id: path14520)


(Start cutting path id: path14520)
(ZZZanette)
(Change tool to Default tool)

G00 Z5.000000
G00 X164.703190 Y79.790740

G01 Z-0.125000 F100.0(Penetrate)
G02 X162.874066 Y80.930456 Z-0.125000 I1.813546 J4.948183 F400.000000
G02 X161.300390 Y83.045410 Z-0.125000 I5.450225 J5.698295
G02 X160.166101 Y86.076012 Z-0.125000 I12.713660 J6.486023
G02 X159.665430 Y89.597680 Z-0.125000 I16.733138 J4.175350
G02 X160.057802 Y97.289874 Z-0.125000 I43.355735 J1.644567
G02 X161.303750 Y101.236540 Z-0.125000 I12.404705 J-1.746116
G02 X163.181426 Y103.371092 Z-0.125000 I5.123570 J-2.613856
G02 X165.864760 Y104.354330 Z-0.125000 I3.280043 J-4.798364
G02 X169.129949 Y102.864905 Z-0.125000 I0.363912 J-3.525980
G02 X172.434420 Y94.995180 Z-0.125000 I-16.410401 J-11.519302
G02 X172.921568 Y90.557720 Z-0.125000 I-29.805665 J-5.517557
G02 X172.747260 Y86.221440 Z-0.125000 I-28.629731 J-1.020800
G02 X171.447555 Y81.808613 Z-0.125000 I-13.470440 J1.569619
G02 X169.706670 Y80.035660 Z-0.125000 I-3.550741 J1.745344
G02 X167.311519 Y79.393338 Z-0.125000 I-2.681787 J5.213311
G02 X164.703190 Y79.790740 Z-0.125000 I-0.324483 J6.628796
G01 X164.703190 Y79.790740 Z-0.125000
G00 Z5.000000

(End cutting path id: path14520)


(Start cutting path id: path14520)
(ZZZanette)
(Change tool to Default tool)

G00 Z5.000000
G00 X165.202940 Y82.156300

G01 Z-0.125000 F100.0(Penetrate)
G02 X164.444411 Y82.684420 Z-0.125000 I1.152879 J2.464648 F400.000000
G02 X163.458560 Y83.878060 Z-0.125000 I5.362280 J5.432752
G02 X162.427387 Y86.071128 Z-0.125000 I6.776839 J4.525408
G02 X161.706870 Y89.742180 Z-0.125000 I18.608076 J5.558438
G02 X163.250631 Y100.270710 Z-0.125000 I22.014277 J2.149568
G02 X166.650110 Y101.818940 Z-0.125000 I2.522539 J-1.032522
G02 X167.967378 Y100.885283 Z-0.125000 I-0.911269 J-2.681755
G02 X169.421860 Y98.285410 Z-0.125000 I-7.586680 J-5.951107
G02 X170.318556 Y94.767876 Z-0.125000 I-16.183197 J-5.998510
G02 X170.714550 Y89.386020 Z-0.125000 I-37.745305 J-5.482774
G02 X170.176756 Y84.285760 Z-0.125000 I-23.856710 J-0.062927
G02 X169.253620 Y82.623280 Z-0.125000 I-3.205644 J0.692480
G02 X168.425359 Y82.083482 Z-0.125000 I-1.801096 J1.858248
G02 X167.287120 Y81.825510 Z-0.125000 I-1.355805 J3.342071
G02 X166.092814 Y81.883511 Z-0.125000 I-0.331953 J5.489759
G02 X165.202940 Y82.156300 Z-0.125000 I0.522896 J3.293595
G01 X165.202940 Y82.156300 Z-0.125000
G00 Z5.000000

(End cutting path id: path14520)


(Start cutting path id: path14520)
(ZZZanette)
(Change tool to Default tool)

G00 Z5.000000
G00 X168.846330 Y83.061360

G01 Z-0.125000 F100.0(Penetrate)
G03 X169.605420 Y84.438480 Z-0.125000 I-1.749246 J1.861982 F400.000000
G03 X170.089350 Y89.491850 Z-0.125000 I-26.142564 J5.053370
G03 X169.929803 Y93.283268 Z-0.125000 I-45.128616 J-0.000000
G03 X169.589620 Y95.418520 Z-0.125000 I-14.595232 J-1.230549
G03 X168.215072 Y99.376650 Z-0.125000 I-19.947418 J-4.709444
G03 X167.066540 Y100.824980 Z-0.125000 I-3.614679 J-1.686896
G03 X165.045076 Y100.626229 Z-0.125000 I-0.907119 J-1.153207
G03 X162.588620 Y95.596930 Z-0.125000 I8.461423 J-7.247356
G03 X162.196998 Y91.983203 Z-0.125000 I19.286659 J-3.918191
G03 X162.477590 Y88.420240 Z-0.125000 I19.024044 J-0.294341
G03 X163.266030 Y85.626405 Z-0.125000 I13.987237 J2.439130
G03 X164.284700 Y83.862260 Z-0.125000 I6.499776 J2.576985
G03 X166.702967 Y82.421299 Z-0.125000 I3.102710 J2.457380
G03 X168.846330 Y83.061360 Z-0.125000 I0.432177 J2.461529
G01 X168.846330 Y83.061360 Z-0.125000
G00 Z5.000000

(End cutting path id: path14520)


(Start cutting path id: path14520)
(ZZZanette)
(Change tool to Default tool)

G00 Z5.000000
G00 X169.132650 Y80.548930

G01 Z-0.125000 F100.0(Penetrate)
G03 X171.037994 Y82.648479 Z-0.125000 I-1.823534 J3.569187 F400.000000
G03 X172.254420 Y88.469730 Z-0.125000 I-16.405866 J6.465937
G03 X170.395840 Y100.690023 Z-0.125000 I-33.133377 J1.212238
G03 X166.896950 Y103.690750 Z-0.125000 I-4.349000 J-1.530754
G03 X164.982828 Y103.531823 Z-0.125000 I-0.668007 J-3.560847
G03 X162.910180 Y102.230400 Z-0.125000 I2.023140 J-5.523216
G03 X161.391986 Y99.608014 Z-0.125000 I3.874673 J-3.993851
G03 X160.316580 Y92.031850 Z-0.125000 I34.391560 J-8.746149
G03 X160.367850 Y88.242759 Z-0.125000 I40.733230 J-1.343737
G03 X160.645000 Y86.568880 Z-0.125000 I8.153291 J0.490087
G03 X163.525930 Y81.510736 Z-0.125000 I11.360461 J3.120988
G03 X166.911060 Y80.072680 Z-0.125000 I3.385130 J3.265207
G03 X168.168416 Y80.205941 Z-0.125000 I-0.000000 J5.998381
G03 X169.132650 Y80.548930 Z-0.125000 I-0.823824 J3.842845
G01 X169.132650 Y80.548930 Z-0.125000
G00 Z5.000000

(End cutting path id: path14520)


(Start cutting path id: path14520)
(ZZZanette)
(Change tool to Default tool)

G00 Z5.000000
G00 X93.664718 Y90.559980

G01 Z-0.125000 F100.0(Penetrate)
G03 X98.330238 Y92.813841 Z-0.125000 I-56.912633 J123.765635 F400.000000
G01 X98.349406 Y92.934020 Z-0.125000
G01 X98.275383 Y92.949016 Z-0.125000
G03 X96.616010 Y92.230050 Z-0.125000 I14.740740 J-36.296022
G02 X94.942532 Y91.472628 Z-0.125000 I-55.579927 J120.572977
G02 X93.334563 Y90.772130 Z-0.125000 I-49.113079 J110.541679
G03 X90.875947 Y89.547069 Z-0.125000 I9.200736 J-21.544938
G01 X90.918869 Y89.386020 Z-0.125000
G01 X91.103469 Y89.423827 Z-0.125000
G03 X93.664718 Y90.559980 Z-0.125000 I-40.814067 J95.462820
G01 X93.664718 Y90.559980 Z-0.125000
G00 Z5.000000

(End cutting path id: path14520)


(Start cutting path id: path14520)
(ZZZanette)
(Change tool to Default tool)

G00 Z5.000000
G00 X84.283625 Y81.441250

G01 Z-0.125000 F100.0(Penetrate)
G02 X85.689987 Y81.779989 Z-0.125000 I1.429472 J-2.846013 F400.000000
G01 X86.199012 Y81.455150 Z-0.125000
G03 X86.475824 Y81.060151 Z-0.125000 I1.201244 J0.547329
G01 X86.617808 Y81.044310 Z-0.125000
G01 X86.734564 Y81.041227 Z-0.125000
G01 X86.798524 Y80.919060 Z-0.125000
G01 X86.900303 Y80.792756 Z-0.125000
G03 X87.585622 Y80.747820 Z-0.125000 I0.492582 J2.264004
G03 X88.272074 Y80.967827 Z-0.125000 I-0.133310 J1.596864
G03 X88.696872 Y81.409460 Z-0.125000 I-0.592332 J0.994870
G01 X88.759812 Y81.953344 Z-0.125000
G03 X88.394670 Y82.511050 Z-0.125000 I-1.047315 J-0.287313
G01 X87.768314 Y83.016690 Z-0.125000
G01 X87.516836 Y89.045110 Z-0.125000
G03 X86.726900 Y98.649425 Z-0.125000 I-119.277273 J-4.975683
G03 X86.016585 Y101.237210 Z-0.125000 I-9.187878 J-1.130579
G03 X84.518046 Y103.220891 Z-0.125000 I-4.917209 J-2.156761
G03 X82.562402 Y104.089250 Z-0.125000 I-2.532545 J-3.067233
G03 X79.452188 Y103.738772 Z-0.125000 I-0.890380 J-6.074154
G03 X76.211076 Y101.626000 Z-0.125000 I3.391917 J-8.745805
G03 X75.717646 Y100.615423 Z-0.125000 I1.222797 J-1.222801
G01 X75.994179 Y99.871970 Z-0.125000
G01 X76.412594 Y99.792754 Z-0.125000
G03 X77.528762 Y100.451960 Z-0.125000 I-1.337840 J3.539785
G02 X81.234227 Y102.407389 Z-0.125000 I6.224321 J-7.306280
G02 X83.411857 Y102.051950 Z-0.125000 I0.698568 J-2.568601
G02 X84.682664 Y100.587958 Z-0.125000 I-2.043026 J-3.056985
G02 X85.456411 Y97.798760 Z-0.125000 I-7.387641 J-3.551316
G02 X85.467307 Y96.614528 Z-0.125000 I-7.034450 J-0.656889
G01 X85.282941 Y96.284195 Z-0.125000
G01 X84.904481 Y96.195864 Z-0.125000
G02 X83.667376 Y96.501470 Z-0.125000 I1.460338 J8.568247
G03 X80.736883 Y96.932196 Z-0.125000 I-2.722747 J-8.340186
G03 X78.167548 Y96.371200 Z-0.125000 I0.163770 J-6.914273
G03 X76.332224 Y95.095504 Z-0.125000 I2.210327 J-5.138036
G03 X74.767475 Y92.809750 Z-0.125000 I6.213689 J-5.932143
G03 X74.391325 Y91.566860 Z-0.125000 I4.083086 J-1.914076
G03 X74.204357 Y89.068510 Z-0.125000 I16.598571 J-2.498350
G03 X75.155241 Y84.071949 Z-0.125000 I13.603034 J0.000000
G03 X77.200290 Y81.482300 Z-0.125000 I5.325232 J2.103030
G03 X80.276931 Y80.503800 Z-0.125000 I3.108092 J4.446494
G03 X84.283625 Y81.441200 Z-0.125000 I0.051094 J8.813148
G01 X84.283625 Y81.441250 Z-0.125000
G00 Z5.000000

(End cutting path id: path14520)


(Start cutting path id: path14520)
(ZZZanette)
(Change tool to Default tool)

G00 Z5.000000
G00 X82.671024 Y82.846570

G01 Z-0.125000 F100.0(Penetrate)
G03 X83.857151 Y83.479113 Z-0.125000 I-0.801658 J2.931613 F400.000000
G03 X84.685910 Y84.588650 Z-0.125000 I-2.109778 J2.440167
G03 X84.893487 Y85.432607 Z-0.125000 I-2.163275 J0.979577
G03 X84.946234 Y89.139490 Z-0.125000 I-43.138342 J2.467658
G03 X84.753603 Y92.856390 Z-0.125000 I-80.543985 J-2.310813
G03 X84.636470 Y93.268840 Z-0.125000 I-1.066428 J-0.080000
G03 X83.836140 Y93.989505 Z-0.125000 I-1.359848 J-0.705438
G03 X81.247833 Y94.598330 Z-0.125000 I-3.410414 J-8.692476
G03 X78.743300 Y93.894129 Z-0.125000 I-0.323185 J-3.656438
G03 X76.847060 Y91.346690 Z-0.125000 I3.250210 J-4.398835
G03 X76.435832 Y88.426077 Z-0.125000 I6.802129 J-2.447010
G03 X77.241144 Y85.344530 Z-0.125000 I8.411821 J0.552290
G03 X78.396222 Y83.661996 Z-0.125000 I5.928294 J2.832083
G03 X79.534928 Y82.919350 Z-0.125000 I2.118034 J2.003286
G03 X81.020982 Y82.644488 Z-0.125000 I1.596308 J4.475869
G03 X82.671024 Y82.846550 Z-0.125000 I0.133415 J5.748691
G01 X82.671024 Y82.846570 Z-0.125000
G00 Z5.000000

(End cutting path id: path14520)


(Start cutting path id: path14520)
(ZZZanette)
(Change tool to Default tool)

G00 Z5.000000
G00 X79.284357 Y82.280210

G01 Z-0.125000 F100.0(Penetrate)
G02 X76.284157 Y85.303909 Z-0.125000 I1.724116 J4.711008 F400.000000
G02 X76.100144 Y91.195720 Z-0.125000 I9.047496 J3.231351
G02 X77.267320 Y93.602159 Z-0.125000 I7.551117 J-2.176185
G02 X78.696580 Y94.812750 Z-0.125000 I3.131003 J-2.247547
G02 X79.836355 Y95.167879 Z-0.125000 I1.704343 J-3.463436
G02 X81.342413 Y95.203930 Z-0.125000 I0.899016 J-6.080659
G02 X83.865480 Y94.611831 Z-0.125000 I-0.975417 J-9.828206
G02 X84.966837 Y93.831060 Z-0.125000 I-0.949361 J-2.506343
G02 X85.261990 Y93.166037 Z-0.125000 I-1.000966 J-0.842262
G02 X85.593196 Y89.250610 Z-0.125000 I-37.804215 J-5.169581
G02 X85.508180 Y85.304279 Z-0.125000 I-36.268197 J-1.192751
G02 X85.207999 Y84.188960 Z-0.125000 I-3.098054 J0.235765
G02 X83.880540 Y82.755191 Z-0.125000 I-3.005691 J1.451428
G02 X81.529765 Y82.049440 Z-0.125000 I-2.648116 J4.552611
G02 X80.147455 Y82.081199 Z-0.125000 I-0.491647 J8.699308
G02 X79.284357 Y82.280210 Z-0.125000 I0.365384 J3.555764
G01 X79.284357 Y82.280210 Z-0.125000
G00 Z5.000000

(End cutting path id: path14520)


(Start cutting path id: path14520)
(ZZZanette)
(Change tool to Default tool)

G00 Z5.000000
G00 X79.284357 Y80.055390

G01 Z-0.125000 F100.0(Penetrate)
G02 X76.032215 Y81.722250 Z-0.125000 I0.677034 J5.326925 F400.000000
G02 X73.807154 Y85.935300 Z-0.125000 I6.678893 J6.221452
G02 X73.503272 Y90.355454 Z-0.125000 I14.160357 J3.194036
G02 X74.467617 Y93.726630 Z-0.125000 I9.059285 J-0.767946
G02 X76.116240 Y95.841686 Z-0.125000 I6.339982 J-3.241773
G02 X78.337519 Y97.115790 Z-0.125000 I4.277828 J-4.884638
G02 X80.969890 Y97.551587 Z-0.125000 I2.681904 J-8.031531
G02 X83.788285 Y97.147690 Z-0.125000 I0.056403 J-9.641753
G01 X84.905549 Y96.813620 Z-0.125000
G01 X84.768971 Y97.915250 Z-0.125000
G03 X84.179267 Y100.083146 Z-0.125000 I-7.863901 J-0.974961
G03 X83.287709 Y101.343650 Z-0.125000 I-3.435286 J-1.484235
G03 X81.431674 Y101.811824 Z-0.125000 I-1.356186 J-1.463348
G03 X78.085220 Y99.997320 Z-0.125000 I1.976883 J-7.639077
G02 X76.335461 Y99.115435 Z-0.125000 I-2.445961 J2.676257
G01 X75.383885 Y99.468760 Z-0.125000
G02 X75.066938 Y100.707524 Z-0.125000 I1.243392 J0.978060
G02 X75.831555 Y102.148110 Z-0.125000 I2.538477 J-0.424133
G02 X78.421244 Y103.853810 Z-0.125000 I6.035399 J-6.344523
G02 X81.520684 Y104.583210 Z-0.125000 I3.633002 J-8.487795
G02 X83.795792 Y104.338151 Z-0.125000 I0.402266 J-6.948883
G02 X85.199557 Y103.555680 Z-0.125000 I-0.924359 J-3.308737
G02 X86.931714 Y100.457679 Z-0.125000 I-3.867310 J-4.195536
G02 X88.080626 Y88.856880 Z-0.125000 I-60.403259 J-11.839470
G03 X88.464667 Y83.932613 Z-0.125000 I33.425267 J0.129709
G03 X89.000018 Y82.846300 Z-0.125000 I1.986349 J0.303831
G02 X89.395701 Y82.200830 Z-0.125000 I-1.286769 J-1.232824
G01 X89.422291 Y81.636720 Z-0.125000
G02 X88.704472 Y80.496867 Z-0.125000 I-2.076846 J0.511939
G02 X87.521349 Y80.072710 Z-0.125000 I-1.183123 J1.437995
G02 X86.486280 Y80.267866 Z-0.125000 I-0.000000 J2.842479
G02 X85.926978 Y80.696090 Z-0.125000 I0.462923 J1.183984
G01 X85.466095 Y81.319470 Z-0.125000
G01 X84.703561 Y80.936400 Z-0.125000
G02 X82.137593 Y80.104979 Z-0.125000 I-3.993413 J7.949331
G02 X79.284357 Y80.055420 Z-0.125000 I-1.597761 J9.828425
G01 X79.284357 Y80.055390 Z-0.125000
G00 Z5.000000

(End cutting path id: path14520)


(Start cutting path id: path14520)
(ZZZanette)
(Change tool to Default tool)

G00 Z5.000000
G00 X66.064784 Y80.972270

G01 Z-0.125000 F100.0(Penetrate)
G03 X66.241874 Y81.460532 Z-0.125000 I-3.334251 J1.485564 F400.000000
G03 X66.771171 Y83.459350 Z-0.125000 I-55.649324 J15.805696
G02 X67.284211 Y85.465285 Z-0.125000 I106.955059 J-26.286365
G02 X68.543390 Y90.126850 Z-0.125000 I579.001413 J-153.898639
G03 X69.806280 Y94.787559 Z-0.125000 I-718.234385 J197.117995
G03 X70.940859 Y99.089750 Z-0.125000 I-610.693146 J163.353426
G03 X71.631927 Y103.619222 Z-0.125000 I-21.579960 J5.609941
G01 X71.186927 Y104.161810 Z-0.125000
G01 X70.595338 Y103.877660 Z-0.125000
G03 X69.741595 Y101.676790 Z-0.125000 I6.535347 J-3.801162
G02 X66.034744 Y86.550327 Z-0.125000 I-281.492357 J60.964344
G02 X65.189233 Y85.057430 Z-0.125000 I-3.371256 J0.923452
G01 X64.868687 Y85.131258 Z-0.125000
G02 X62.033997 Y94.889350 Z-0.125000 I173.919203 J55.813677
G03 X59.303032 Y104.092025 Z-0.125000 I-138.323987 J-36.042158
G01 X58.855682 Y104.414350 Z-0.125000
G01 X58.550927 Y104.298612 Z-0.125000
G01 X58.435190 Y104.041140 Z-0.125000
G03 X58.634099 Y102.342695 Z-0.125000 I7.350812 J-0.000000
G03 X61.132552 Y92.312584 Z-0.125000 I458.618181 J108.913369
G03 X63.867403 Y82.283785 Z-0.125000 I451.677366 J117.785034
G03 X64.429775 Y81.053340 Z-0.125000 I4.315326 J1.228572
G03 X65.344354 Y80.529502 Z-0.125000 I0.972145 J0.636977
G01 X66.064784 Y80.972240 Z-0.125000
G01 X66.064784 Y80.972270 Z-0.125000
G00 Z5.000000

(End cutting path id: path14520)


(Start cutting path id: path14520)
(ZZZanette)
(Change tool to Default tool)

G00 Z5.000000
G00 X64.207372 Y80.337270

G01 Z-0.125000 F100.0(Penetrate)
G02 X63.823949 Y80.849699 Z-0.125000 I2.276775 J2.103250 F400.000000
G02 X63.416247 Y81.660180 Z-0.125000 I5.346701 J3.197373
G02 X62.343475 Y84.824322 Z-0.125000 I23.288743 J9.659752
G02 X58.788369 Y99.016850 Z-0.125000 I467.179995 J124.566093
G02 X58.194420 Y104.398988 Z-0.125000 I21.946264 J5.145735
G01 X58.851639 Y105.049350 Z-0.125000
G01 X59.640867 Y104.537820 Z-0.125000
G02 X61.711819 Y98.656030 Z-0.125000 I-34.694386 J-15.521218
G03 X62.672434 Y94.995393 Z-0.125000 I8473.500298 J2221.651081
G03 X63.090290 Y93.407680 Z-0.125000 I1594.505138 J418.793317
G02 X63.506535 Y91.819558 Z-0.125000 I-525.349485 J-138.542043
G02 X64.219889 Y89.071160 Z-0.125000 I-1573.936226 J-409.986206
G03 X64.951011 Y87.046184 Z-0.125000 I11.173167 J2.889620
G01 X65.166301 Y87.060320 Z-0.125000
G03 X66.859457 Y92.836212 Z-0.125000 I-121.473655 J38.745129
G03 X69.099690 Y101.754730 Z-0.125000 I-287.474060 J76.950928
G02 X70.123084 Y104.312727 Z-0.125000 I8.978589 J-2.108405
G01 X70.885590 Y104.799300 Z-0.125000
G02 X72.160409 Y104.463073 Z-0.125000 I0.181859 J-1.895353
G02 X72.616862 Y103.585660 Z-0.125000 I-0.615074 J-0.877413
G02 X72.460223 Y102.332172 Z-0.125000 I-5.093782 J-0.000000
G02 X68.904250 Y88.962680 Z-0.125000 I-592.162689 J150.343822
G03 X68.011389 Y85.676703 Z-0.125000 I274.720556 J-76.410970
G03 X67.444120 Y83.459350 Z-0.125000 I124.529415 J-33.039802
G02 X66.210470 Y80.303959 Z-0.125000 I-12.580740 J3.099784
G01 X65.460515 Y79.861020 Z-0.125000
G02 X64.707805 Y79.999228 Z-0.125000 I0.000000 J2.118809
G02 X64.207377 Y80.337270 Z-0.125000 I0.468695 J1.233274
G01 X64.207372 Y80.337270 Z-0.125000
G00 Z5.000000

(End cutting path id: path14520)


(Start cutting path id: path14520)
(ZZZanette)
(Change tool to Default tool)

G00 Z5.000000
G00 X56.116639 Y80.825310

G01 Z-0.125000 F100.0(Penetrate)
G01 X56.265512 Y81.131925 Z-0.125000 F400.000000
G03 X56.281852 Y81.595620 Z-0.125000 I-1.295146 J0.277775
G01 X56.017286 Y81.864960 Z-0.125000
G03 X52.572016 Y82.189350 Z-0.125000 I-4.221502 J-26.377710
G02 X48.974347 Y82.394861 Z-0.125000 I1.870392 J64.336168
G01 X48.707678 Y82.518860 Z-0.125000
G01 X48.590787 Y82.787680 Z-0.125000
G02 X48.326683 Y93.419690 Z-0.125000 I526.115672 J18.388260
G01 X48.169357 Y104.096850 Z-0.125000
G01 X47.640190 Y104.096850 Z-0.125000
G01 X47.290907 Y103.894417 Z-0.125000
G03 X46.973207 Y102.932680 Z-0.125000 I2.198549 J-1.259611
G03 X46.896284 Y101.764863 Z-0.125000 I11.167169 J-1.322012
G03 X46.814457 Y91.356430 Z-0.125000 I889.376293 J-12.196467
G03 X46.923142 Y81.016053 Z-0.125000 I412.970453 J-0.830124
G01 X47.058107 Y80.779180 Z-0.125000
G03 X49.309076 Y80.088498 Z-0.125000 I2.421992 J3.880044
G03 X55.412474 Y80.466540 Z-0.125000 I1.153657 J30.832423
G03 X55.844996 Y80.608038 Z-0.125000 I-0.236432 J1.454512
G01 X56.116639 Y80.825310 Z-0.125000
G01 X56.116639 Y80.825310 Z-0.125000
G00 Z5.000000

(End cutting path id: path14520)


(Start cutting path id: path14520)
(ZZZanette)
(Change tool to Default tool)

G00 Z5.000000
G00 X47.397610 Y80.010500

G01 Z-0.125000 F100.0(Penetrate)
G02 X46.882867 Y80.180756 Z-0.125000 I0.247405 J1.611240 F400.000000
G02 X46.472798 Y80.499580 Z-0.125000 I0.699968 J1.323421
G01 X46.285158 Y80.970110 Z-0.125000
G02 X46.191779 Y92.526820 Z-0.125000 I378.060827 J8.833475
G02 X46.875872 Y104.237942 Z-0.125000 I114.727239 J-0.826129
G01 X47.545155 Y104.837680 Z-0.125000
G01 X48.283142 Y104.210632 Z-0.125000
G02 X48.910190 Y96.495200 Z-0.125000 I-47.153243 J-7.715432
G03 X48.960539 Y88.819164 Z-0.125000 I585.155937 J-0.000000
G03 X49.048837 Y85.926980 Z-0.125000 I83.134604 J1.090648
G01 X49.187487 Y83.036020 Z-0.125000
G01 X51.324254 Y83.022920 Z-0.125000
G02 X56.223622 Y82.723885 Z-0.125000 I-0.274012 J-44.774398
G01 X56.752165 Y82.391570 Z-0.125000
G02 X57.009703 Y81.289356 Z-0.125000 I-1.456924 J-0.921613
G02 X56.530190 Y80.284340 Z-0.125000 I-1.659316 J0.174792
G01 X56.029100 Y80.050806 Z-0.125000
G02 X52.032274 Y79.892720 Z-0.125000 I-3.667695 J42.124890
G02 X47.960572 Y79.960257 Z-0.125000 I1.792146 J230.818241
G02 X47.397610 Y80.010490 Z-0.125000 I0.112977 J4.445809
G01 X47.397610 Y80.010500 Z-0.125000
G00 Z5.000000

(End cutting path id: path14520)


(Start cutting path id: path14520)
(ZZZanette)
(Change tool to Default tool)

G00 Z5.000000
G00 X40.208609 Y81.395600

G01 Z-0.125000 F100.0(Penetrate)
G02 X41.716523 Y81.739663 Z-0.125000 I1.414632 J-2.723491 F400.000000
G01 X42.398661 Y81.329000 Z-0.125000
G03 X42.877127 Y80.890595 Z-0.125000 I0.919655 J0.523395
G03 X43.664729 Y80.748250 Z-0.125000 I0.671062 J1.462929
G03 X44.427547 Y80.990610 Z-0.125000 I-0.124324 J1.712952
G01 X44.774496 Y81.417710 Z-0.125000
G01 X44.793512 Y81.967310 Z-0.125000
G01 X44.501690 Y82.413980 Z-0.125000
G02 X43.968950 Y83.295381 Z-0.125000 I0.954305 J1.178506
G02 X43.616477 Y86.844580 Z-0.125000 I17.834528 J3.563258
G03 X43.369474 Y94.324236 Z-0.125000 I-116.056281 J-0.088650
G03 X42.855662 Y98.487640 Z-0.125000 I-36.400308 J-2.378814
G03 X40.436186 Y103.011094 Z-0.125000 I-8.250226 J-1.504044
G03 X37.145874 Y104.011050 Z-0.125000 I-2.620311 J-2.708729
G03 X34.232913 Y103.046868 Z-0.125000 I1.941970 J-10.749399
G03 X32.178537 Y101.546510 Z-0.125000 I3.337126 J-6.726048
G03 X31.706026 Y100.787643 Z-0.125000 I1.519227 J-1.472490
G01 X31.726970 Y100.286170 Z-0.125000
G01 X32.396335 Y99.902926 Z-0.125000
G03 X33.681740 Y100.488800 Z-0.125000 I-0.228501 J2.204354
G02 X36.793491 Y102.335706 Z-0.125000 I5.756853 J-6.154544
G02 X38.837315 Y102.312928 Z-0.125000 I0.988705 J-2.990840
G02 X40.394790 Y101.036281 Z-0.125000 I-0.997064 J-2.804754
G02 X41.444224 Y97.729310 Z-0.125000 I-6.480256 J-3.876443
G02 X41.464212 Y96.496388 Z-0.125000 I-10.377979 J-0.784873
G01 X41.307028 Y96.201386 Z-0.125000
G01 X40.977278 Y96.135831 Z-0.125000
G02 X39.782220 Y96.505420 Z-0.125000 I2.602306 J10.531392
G03 X38.835691 Y96.739862 Z-0.125000 I-1.489591 J-3.986057
G03 X37.056858 Y96.856100 Z-0.125000 I-1.814880 J-14.104644
G03 X35.295262 Y96.692962 Z-0.125000 I-0.024471 J-9.328372
G03 X34.046215 Y96.285600 Z-0.125000 I0.958674 J-5.058052
G03 X31.005513 Y93.104623 Z-0.125000 I2.644994 J-5.572149
G03 X30.247629 Y87.253380 Z-0.125000 I10.221157 J-4.298603
G03 X31.643788 Y83.205437 Z-0.125000 I11.129666 J1.573943
G03 X33.717189 Y81.246320 Z-0.125000 I4.319747 J2.495003
G03 X34.876985 Y80.875149 Z-0.125000 I1.749456 J3.468921
G03 X36.961156 Y80.748190 Z-0.125000 I1.733735 J11.290737
G03 X39.043013 Y80.985972 Z-0.125000 I-0.387164 J12.622307
G03 X40.208609 Y81.395560 Z-0.125000 I-0.858591 J4.306663
G01 X40.208609 Y81.395600 Z-0.125000
G00 Z5.000000

(End cutting path id: path14520)


(Start cutting path id: path14520)
(ZZZanette)
(Change tool to Default tool)

G00 Z5.000000
G00 X39.563269 Y83.190710

G01 Z-0.125000 F100.0(Penetrate)
G03 X40.449419 Y84.499934 Z-0.125000 I-1.440699 J1.929646 F400.000000
G03 X41.037991 Y88.721540 Z-0.125000 I-16.914623 J4.510053
G03 X40.903196 Y92.616683 Z-0.125000 I-38.170874 J0.628968
G03 X40.648018 Y93.262900 Z-0.125000 I-1.208669 J-0.103789
G03 X39.623136 Y94.034724 Z-0.125000 I-1.970122 J-1.549701
G03 X37.376446 Y94.594970 Z-0.125000 I-3.078785 J-7.561544
G03 X34.634428 Y93.734218 Z-0.125000 I-0.370604 J-3.617274
G03 X32.679983 Y90.554640 Z-0.125000 I3.999342 J-4.648818
G03 X32.473021 Y89.108813 Z-0.125000 I7.118711 J-1.756730
G03 X32.560404 Y87.737070 Z-0.125000 I6.488018 J-0.275353
G03 X33.542306 Y84.605919 Z-0.125000 I12.083980 J2.069900
G03 X34.596982 Y83.389830 Z-0.125000 I2.671531 J1.251547
G03 X37.355144 Y82.506138 Z-0.125000 I2.975669 J4.541394
G03 X39.563269 Y83.190710 Z-0.125000 I0.138581 J3.456501
G01 X39.563269 Y83.190710 Z-0.125000
G00 Z5.000000

(End cutting path id: path14520)


(Start cutting path id: path14520)
(ZZZanette)
(Change tool to Default tool)

G00 Z5.000000
G00 X35.481595 Y82.280560

G01 Z-0.125000 F100.0(Penetrate)
G02 X34.083917 Y83.130261 Z-0.125000 I1.506614 J4.052613 F400.000000
G02 X32.909104 Y84.613210 Z-0.125000 I3.885387 J4.284884
G02 X31.944178 Y91.564952 Z-0.125000 I8.538622 J4.728029
G02 X35.363525 Y95.102730 Z-0.125000 I4.670526 J-1.092845
G02 X39.161758 Y95.169311 Z-0.125000 I2.031495 J-7.518422
G02 X41.186342 Y93.746460 Z-0.125000 I-0.749681 J-3.218547
G02 X41.354706 Y93.264165 Z-0.125000 I-0.907222 J-0.587236
G02 X41.623016 Y89.270870 Z-0.125000 I-66.027070 J-6.442031
G02 X41.583322 Y85.276103 Z-0.125000 I-42.617085 J-1.574114
G02 X41.338086 Y84.259170 Z-0.125000 I-2.919357 J0.165974
G02 X40.037091 Y82.770399 Z-0.125000 I-3.042299 J1.345743
G02 X37.744547 Y82.051570 Z-0.125000 I-2.571429 J4.185803
G02 X36.332946 Y82.082675 Z-0.125000 I-0.508924 J8.950019
G02 X35.481595 Y82.280560 Z-0.125000 I0.346042 J3.419076
G01 X35.481595 Y82.280560 Z-0.125000
G00 Z5.000000

(End cutting path id: path14520)


(Start cutting path id: path14520)
(ZZZanette)
(Change tool to Default tool)

G00 Z5.000000
G00 X35.135020 Y80.074870

G01 Z-0.125000 F100.0(Penetrate)
G02 X31.966619 Y81.866879 Z-0.125000 I0.892951 J5.275785 F400.000000
G02 X29.750733 Y86.351820 Z-0.125000 I7.670504 J6.579661
G02 X29.808764 Y91.617013 Z-0.125000 I11.812039 J2.502728
G02 X31.911509 Y95.545730 Z-0.125000 I8.417953 J-1.978414
G02 X33.966879 Y96.913350 Z-0.125000 I3.926511 J-3.672779
G02 X37.056858 Y97.455830 Z-0.125000 I3.021561 J-8.139351
G02 X38.841873 Y97.348103 Z-0.125000 I-0.138556 J-17.138395
G02 X39.861441 Y97.138710 Z-0.125000 I-0.649242 J-5.748177
G01 X40.866858 Y96.835780 Z-0.125000
G01 X40.866858 Y97.517480 Z-0.125000
G03 X40.499304 Y99.543268 Z-0.125000 I-5.766377 J-0.000000
G03 X39.513512 Y101.124210 Z-0.125000 I-4.420980 J-1.658875
G03 X38.728288 Y101.694147 Z-0.125000 I-1.900301 J-1.792232
G03 X37.924411 Y101.874350 Z-0.125000 I-0.803877 J-1.702926
G03 X36.309521 Y101.492485 Z-0.125000 I0.000000 J-3.605584
G03 X33.947043 Y99.881930 Z-0.125000 I4.794340 J-9.570684
G02 X32.823917 Y99.023792 Z-0.125000 I-5.922229 J6.586938
G01 X32.440823 Y98.911020 Z-0.125000
G02 X31.390505 Y99.382994 Z-0.125000 I-0.000000 J1.404661
G02 X30.918525 Y100.625320 Z-0.125000 I1.399009 J1.242326
G02 X31.415041 Y101.764216 Z-0.125000 I1.554443 J-0.000000
G02 X34.248237 Y103.718300 Z-0.125000 I8.118271 J-8.739608
G02 X35.871372 Y104.317383 Z-0.125000 I3.641863 J-7.368764
G02 X37.672107 Y104.585770 Z-0.125000 I2.235354 J-8.822865
G02 X39.484315 Y104.510781 Z-0.125000 I0.486716 J-10.172583
G02 X40.392569 Y104.228680 Z-0.125000 I-0.364488 J-2.776668
G02 X42.432690 Y101.642018 Z-0.125000 I-1.790807 J-3.510285
G02 X44.221776 Y88.346210 Z-0.125000 I-63.530257 J-15.316914
G01 X44.372089 Y83.488350 Z-0.125000
G01 X44.973307 Y82.931160 Z-0.125000
G02 X45.386780 Y82.309393 Z-0.125000 I-1.083013 J-1.168564
G02 X45.452237 Y81.620410 Z-0.125000 I-1.285590 J-0.469738
G02 X44.821781 Y80.518492 Z-0.125000 I-1.784271 J0.289546
G02 X43.585719 Y80.072680 Z-0.125000 I-1.236062 J1.490651
G02 X42.100493 Y80.459648 Z-0.125000 I0.000000 J3.043715
G01 X41.713525 Y81.119310 Z-0.125000
G01 X41.627025 Y81.184524 Z-0.125000
G03 X40.547588 Y80.785480 Z-0.125000 I2.104932 J-7.353456
G02 X39.355205 Y80.341470 Z-0.125000 I-3.637471 J7.945306
G02 X38.060505 Y80.060610 Z-0.125000 I-2.650893 J9.095449
G02 X36.529855 Y79.954251 Z-0.125000 I-1.480098 J10.233328
G02 X35.135020 Y80.074910 Z-0.125000 I0.042091 J8.609118
G01 X35.135020 Y80.074870 Z-0.125000
G00 Z5.000000

(End cutting path id: path14520)


(Start cutting path id: path14520)
(ZZZanette)
(Change tool to Default tool)

G00 Z5.000000
G00 X25.352636 Y81.131780

G01 Z-0.125000 F100.0(Penetrate)
G03 X27.255113 Y83.436664 Z-0.125000 I-2.110152 J3.679348 F400.000000
G03 X27.556052 Y87.564450 Z-0.125000 I-7.695262 J2.635892
G03 X26.615648 Y90.039284 Z-0.125000 I-7.321626 J-1.366032
G03 X24.000888 Y93.471010 Z-0.125000 I-16.946201 J-10.199940
G02 X20.971577 Y97.434001 Z-0.125000 I16.808416 J15.987656
G02 X20.446817 Y99.334350 Z-0.125000 I3.098754 J1.878314
G02 X21.376079 Y101.804073 Z-0.125000 I3.808154 J-0.023179
G02 X23.378746 Y102.720230 Z-0.125000 I2.005226 J-1.736374
G02 X24.113126 Y102.517297 Z-0.125000 I0.001565 J-1.424602
G02 X25.318380 Y101.556850 Z-0.125000 I-2.999617 J-5.000637
G03 X26.757323 Y100.555837 Z-0.125000 I3.219840 J3.093741
G01 X27.196515 Y100.740010 Z-0.125000
G03 X26.939626 Y102.114408 Z-0.125000 I-1.246327 J0.478256
G03 X24.527176 Y103.687250 Z-0.125000 I-4.197605 J-3.801805
G03 X22.700539 Y103.811925 Z-0.125000 I-1.154892 J-3.476996
G03 X20.655533 Y102.965160 Z-0.125000 I0.981751 J-5.263816
G03 X19.340521 Y101.472845 Z-0.125000 I2.292759 J-3.345899
G03 X18.855591 Y99.461800 Z-0.125000 I3.902514 J-2.005016
G03 X19.480860 Y97.054229 Z-0.125000 I4.974270 J0.006886
G03 X22.306750 Y93.245490 Z-0.125000 I15.808958 J8.776737
G02 X24.627189 Y90.687510 Z-0.125000 I-37.460539 J-36.313324
G02 X25.175048 Y89.865170 Z-0.125000 I-3.256354 J-2.763114
G02 X26.324529 Y86.036738 Z-0.125000 I-9.941209 J-5.071615
G02 X25.869145 Y83.672990 Z-0.125000 I-4.022168 J-0.450855
G02 X22.358905 Y81.747326 Z-0.125000 I-3.235114 J1.735009
G02 X19.482543 Y84.152990 Z-0.125000 I0.241327 J3.210956
G03 X18.988785 Y85.695340 Z-0.125000 I-13.749847 J-3.551576
G01 X18.854379 Y85.787680 Z-0.125000
G01 X18.305175 Y85.489366 Z-0.125000
G03 X18.006858 Y84.481640 Z-0.125000 I1.552912 J-1.007726
G03 X18.679265 Y82.389563 Z-0.125000 I3.590769 J0.000000
G03 X20.652692 Y80.790810 Z-0.125000 I3.898321 J2.794577
G03 X21.307720 Y80.607207 Z-0.125000 I0.980548 J2.237984
G03 X22.769358 Y80.506290 Z-0.125000 I1.509752 J11.231265
G03 X24.204933 Y80.674635 Z-0.125000 I0.023742 J6.002683
G03 X25.352636 Y81.131780 Z-0.125000 I-1.029234 J4.253264
G01 X25.352636 Y81.131780 Z-0.125000
G00 Z5.000000

(End cutting path id: path14520)


(Start cutting path id: path14520)
(ZZZanette)
(Change tool to Default tool)

G00 Z5.000000
G00 X20.169790 Y80.309930

G01 Z-0.125000 F100.0(Penetrate)
G02 X17.426595 Y83.297887 Z-0.125000 I2.498006 J5.046599 F400.000000
G02 X17.924782 Y86.025610 Z-0.125000 I2.449269 J0.962025
G01 X19.004780 Y86.157545 Z-0.125000
G02 X20.089394 Y84.569660 Z-0.125000 I-1.448789 J-2.153973
G03 X20.398200 Y83.734807 Z-0.125000 I3.240481 J0.724091
G03 X20.789153 Y83.253730 Z-0.125000 I1.421826 J0.756068
G03 X22.753870 Y82.590780 Z-0.125000 I1.838864 J2.206863
G03 X24.816746 Y83.430350 Z-0.125000 I-0.145195 J3.310845
G03 X25.306474 Y84.096239 Z-0.125000 I-1.336919 J1.496266
G03 X25.573486 Y85.095020 Z-0.125000 I-2.857541 J1.299011
G03 X25.454337 Y87.151977 Z-0.125000 I-6.700277 J0.643816
G03 X24.652099 Y89.386020 Z-0.125000 I-8.734889 J-1.875609
G03 X24.063356 Y90.270209 Z-0.125000 I-4.317941 J-2.237026
G03 X21.817570 Y92.772680 Z-0.125000 I-37.362494 J-31.271174
G02 X18.888233 Y96.784635 Z-0.125000 I13.278773 J12.770930
G02 X18.218525 Y99.432550 Z-0.125000 I4.899854 J2.647915
G02 X18.403808 Y101.102673 Z-0.125000 I7.619787 J-0.000000
G02 X18.818232 Y102.102110 Z-0.125000 I3.082121 J-0.692383
G02 X19.528834 Y102.927656 Z-0.125000 I3.171396 J-2.011225
G02 X20.670315 Y103.708730 Z-0.125000 I3.967854 J-4.574091
G02 X23.904921 Y104.318130 Z-0.125000 I2.604380 J-4.934562
G02 X26.632275 Y103.030980 Z-0.125000 I-0.529073 J-4.654141
G02 X27.539753 Y101.869823 Z-0.125000 I-3.704849 J-3.830635
G02 X27.743525 Y101.110950 Z-0.125000 I-1.311181 J-0.758873
G01 X26.922798 Y100.231488 Z-0.125000
G02 X25.009924 Y100.921850 Z-0.125000 I-0.173874 J2.513529
G03 X23.254398 Y101.851204 Z-0.125000 I-2.525326 J-2.647529
G03 X22.065559 Y101.555530 Z-0.125000 I-0.292810 J-1.360543
G03 X21.563162 Y100.945956 Z-0.125000 I1.404997 J-1.669783
G03 X21.180316 Y99.962920 Z-0.125000 I3.402091 J-1.891024
G03 X21.133343 Y98.923702 Z-0.125000 I2.674286 J-0.641549
G03 X21.510151 Y97.705840 Z-0.125000 I4.086706 J0.597208
G03 X22.213834 Y96.593852 Z-0.125000 I5.423830 J2.653640
G03 X24.337073 Y94.162340 Z-0.125000 I28.403848 J22.659954
G02 X26.995637 Y90.733844 Z-0.125000 I-15.307245 J-14.614735
G02 X28.067229 Y88.171480 Z-0.125000 I-7.362966 J-4.584480
G02 X27.815070 Y83.211022 Z-0.125000 I-8.557616 J-2.051622
G02 X25.312493 Y80.306020 Z-0.125000 I-4.949635 J1.733520
G02 X22.817896 Y79.689356 Z-0.125000 I-2.490552 J4.721012
G02 X20.169790 Y80.310020 Z-0.125000 I0.004531 J5.978826
G01 X20.169790 Y80.309930 Z-0.125000
G00 Z5.000000

(End cutting path id: path14520)


(Start cutting path id: path14520)
(ZZZanette)
(Change tool to Default tool)

G00 Z5.000000
G00 X80.360629 Y25.061920

G01 Z-0.125000 F100.0(Penetrate)
G02 X73.692078 Y27.126527 Z-0.125000 I3.254345 J22.313137 F400.000000
G02 X69.127995 Y30.566530 Z-0.125000 I6.651175 J13.572300
G02 X67.510058 Y33.033315 Z-0.125000 I7.125612 J6.437597
G02 X66.770301 Y35.758070 Z-0.125000 I8.008876 J3.637165
G02 X67.033791 Y38.554647 Z-0.125000 I7.106379 J0.741147
G02 X68.314957 Y40.900520 Z-0.125000 I6.196178 J-1.861175
G02 X73.665725 Y44.150707 Z-0.125000 I7.629159 J-6.530283
G02 X87.565760 Y45.385050 Z-0.125000 I11.319990 J-48.593424
G02 X91.970610 Y45.081767 Z-0.125000 I-6.710131 J-129.596619
G02 X92.619357 Y44.950610 Z-0.125000 I-0.249781 J-2.905544
G01 X92.606506 Y44.862819 Z-0.125000
G02 X90.079357 Y44.893410 Z-0.125000 I-0.821958 J36.497253
G03 X81.177652 Y45.008781 Z-0.125000 I-6.158863 J-131.728211
G03 X77.608010 Y44.633960 Z-0.125000 I0.445856 J-21.431493
G03 X72.037656 Y42.953026 Z-0.125000 I5.217884 J-27.361364
G03 X69.327919 Y41.155530 Z-0.125000 I3.369470 J-8.020720
G03 X67.403124 Y37.516357 Z-0.125000 I4.706357 J-4.817848
G03 X67.942021 Y33.358540 Z-0.125000 I6.877410 J-1.222446
G03 X69.940060 Y30.468477 Z-0.125000 I9.356992 J4.333236
G03 X73.264208 Y27.936400 Z-0.125000 I10.409200 J10.217317
G03 X76.783117 Y26.414831 Z-0.125000 I9.411008 J16.934846
G03 X81.034597 Y25.455750 Z-0.125000 I7.614698 J23.852288
G03 X89.050105 Y25.415218 Z-0.125000 I4.163161 J30.712730
G03 X101.095080 Y27.968650 Z-0.125000 I-9.089844 J72.564167
G03 X114.970096 Y33.534420 Z-0.125000 I-24.494677 J81.140791
G03 X125.651820 Y40.436190 Z-0.125000 I-27.766622 J54.690640
G03 X135.811713 Y55.655326 Z-0.125000 I-19.119775 J23.764663
G03 X135.675660 Y74.781020 Z-0.125000 I-31.987340 J9.335785
G03 X132.851273 Y81.226407 Z-0.125000 I-29.360570 J-9.024367
G03 X129.648840 Y85.119200 Z-0.125000 I-13.616208 J-7.937818
G03 X127.615548 Y86.252362 Z-0.125000 I-3.631871 J-4.126053
G03 X124.820820 Y86.586710 Z-0.125000 I-2.337309 J-7.689587
G03 X121.939547 Y86.021311 Z-0.125000 I0.612589 J-10.745942
G03 X117.512980 Y84.078740 Z-0.125000 I9.470197 J-27.594611
G02 X115.136952 Y82.948853 Z-0.125000 I-11.918631 J22.000360
G01 X114.733160 Y82.931890 Z-0.125000
G01 X114.514501 Y83.351425 Z-0.125000
G02 X115.337980 Y84.869600 Z-0.125000 I4.266155 J-1.331601
G03 X119.188016 Y89.934682 Z-0.125000 I-59.050042 J48.880492
G01 X119.146160 Y90.336540 Z-0.125000
G03 X117.514318 Y91.210955 Z-0.125000 I-2.440337 J-2.594292
G01 X116.636540 Y90.921510 Z-0.125000
G03 X115.708168 Y89.710176 Z-0.125000 I11.439667 J-9.728839
G03 X112.333370 Y84.673020 Z-0.125000 I195.245287 J-134.459690
G03 X109.064182 Y79.025348 Z-0.125000 I51.819043 J-33.765789
G03 X107.251670 Y74.717110 Z-0.125000 I28.261633 J-14.425294
G01 X107.374924 Y74.619876 Z-0.125000
G03 X109.235180 Y75.959290 Z-0.125000 I-9.422975 J15.048702
G02 X115.716111 Y80.092542 Z-0.125000 I20.263313 J-24.625166
G02 X122.975320 Y82.544210 Z-0.125000 I13.693880 J-28.573747
G02 X127.257289 Y81.867261 Z-0.125000 I1.245276 J-6.004184
G02 X130.795450 Y78.086490 Z-0.125000 I-4.332471 J-7.600404
G02 X132.351311 Y73.641220 Z-0.125000 I-18.439914 J-8.948953
G02 X133.089510 Y67.901170 Z-0.125000 I-30.193420 J-6.800516
G02 X130.718391 Y52.654047 Z-0.125000 I-41.138394 J-1.410393
G02 X123.849520 Y42.012840 Z-0.125000 I-26.119396 J9.322477
G02 X114.676753 Y35.951314 Z-0.125000 I-20.937859 J21.713545
G02 X98.792054 Y31.398880 Z-0.125000 I-26.575093 J62.738575
G02 X89.064766 Y30.363287 Z-0.125000 I-14.911118 J93.857726
G02 X82.550927 Y30.511650 Z-0.125000 I-2.299749 J42.098369
G02 X77.218179 Y32.906326 Z-0.125000 I0.923331 J9.191316
G02 X75.368524 Y37.122810 Z-0.125000 I3.881131 J4.216484
G02 X76.164078 Y39.345377 Z-0.125000 I3.502411 J0.000000
G02 X78.966915 Y41.505270 Z-0.125000 I6.081856 J-4.993737
G02 X80.789928 Y42.263283 Z-0.125000 I11.510021 J-25.110304
G02 X82.141857 Y42.694200 Z-0.125000 I5.003421 J-13.361205
G03 X83.516620 Y43.062356 Z-0.125000 I-64.081415 J242.043123
G03 X84.152690 Y43.238820 Z-0.125000 I-14.086692 J52.010382
G02 X84.793627 Y43.392184 Z-0.125000 I2.150221 J-7.570210
G02 X86.269357 Y43.652450 Z-0.125000 I7.805037 J-39.941293
G03 X87.750582 Y43.888468 Z-0.125000 I-62.920704 J399.650427
G03 X89.656024 Y44.198530 Z-0.125000 I-106.276579 J659.116899
G02 X91.564912 Y44.461572 Z-0.125000 I6.048899 J-36.838721
G02 X92.407690 Y44.505580 Z-0.125000 I0.794182 J-7.117262
G01 X92.756542 Y44.387104 Z-0.125000
G01 X92.733612 Y44.268068 Z-0.125000
G02 X91.921357 Y44.085392 Z-0.125000 I-2.383727 J8.701920
G02 X89.412541 Y43.685090 Z-0.125000 I-13.137958 J74.277773
G03 X81.460365 Y41.956229 Z-0.125000 I7.894940 J-55.467151
G03 X77.638403 Y40.212960 Z-0.125000 I4.222545 J-14.318841
G03 X76.245716 Y38.783304 Z-0.125000 I2.364784 J-3.696797
G03 X75.791857 Y37.152570 Z-0.125000 I2.702714 J-1.630734
G03 X77.557048 Y33.232635 Z-0.125000 I5.235068 J-0.000000
G03 X82.820024 Y30.931330 Z-0.125000 I6.194644 J6.998118
G03 X91.817664 Y30.885121 Z-0.125000 I4.742013 J47.331035
G03 X103.283980 Y32.769480 Z-0.125000 I-7.097759 J79.018266
G03 X113.087629 Y35.967038 Z-0.125000 I-15.268591 J63.440875
G03 X120.347690 Y39.871100 Z-0.125000 I-16.021611 J38.496559
G03 X126.886021 Y46.523669 Z-0.125000 I-13.000673 J19.316738
G03 X131.450420 Y57.001020 Z-0.125000 I-29.330785 J19.010694
G03 X132.654031 Y69.123229 Z-0.125000 I-40.145736 J10.106916
G03 X130.444590 Y77.638520 Z-0.125000 I-21.564570 J-1.051019
G03 X128.022590 Y81.019316 Z-0.125000 I-11.514654 J-5.691133
G03 X125.916820 Y82.176630 Z-0.125000 I-3.035264 J-3.028346
G03 X121.577543 Y81.953979 Z-0.125000 I-1.767063 J-7.957194
G03 X112.516020 Y77.720060 Z-0.125000 I13.630166 J-40.985357
G03 X111.488362 Y77.023357 Z-0.125000 I7.651250 J-12.392087
G03 X109.524990 Y75.500480 Z-0.125000 I34.762647 J-46.844891
G02 X107.547020 Y74.062131 Z-0.125000 I-14.734744 J18.183538
G01 X107.116040 Y73.934350 Z-0.125000
G01 X106.841105 Y74.105645 Z-0.125000
G01 X106.758090 Y74.663340 Z-0.125000
G02 X107.988685 Y78.291240 Z-0.125000 I11.432280 J-1.855203
G02 X113.950380 Y88.045100 Z-0.125000 I90.839869 J-48.823732
G01 X116.165660 Y91.255010 Z-0.125000
G01 X113.632600 Y92.172600 Z-0.125000
G02 X111.178787 Y93.172575 Z-0.125000 I11.448523 J31.603894
G01 X110.983190 Y93.376140 Z-0.125000
G01 X111.315169 Y93.902031 Z-0.125000
G02 X115.161850 Y93.619360 Z-0.125000 I0.854689 J-14.683885
G03 X117.174237 Y93.215501 Z-0.125000 I30.721798 J147.867874
G01 X117.333740 Y93.198810 Z-0.125000
G01 X117.452035 Y93.264843 Z-0.125000
G03 X118.210850 Y94.695000 Z-0.125000 I-16.568180 J9.707157
G03 X118.619498 Y95.943853 Z-0.125000 I-4.593668 J2.194421
G01 X118.473130 Y96.082520 Z-0.125000
G02 X113.999119 Y95.215602 Z-0.125000 I-10.995228 J44.766180
G02 X111.901340 Y95.143360 Z-0.125000 I-1.383539 J9.681502
G01 X111.486161 Y95.472929 Z-0.125000
G01 X111.686074 Y95.926008 Z-0.125000
G02 X113.215364 Y96.537033 Z-0.125000 I6.063120 J-12.955648
G02 X118.387240 Y98.178700 Z-0.125000 I56.735206 J-169.769963
G03 X119.552495 Y98.618467 Z-0.125000 I-2.614150 J8.690417
G01 X119.857530 Y98.852200 Z-0.125000
G01 X120.014455 Y99.198703 Z-0.125000
G03 X120.202110 Y101.018290 Z-0.125000 I-16.434388 J2.614358
G03 X120.105261 Y102.841087 Z-0.125000 I-9.056558 J0.432779
G03 X119.714590 Y104.160500 Z-0.125000 I-5.090631 J-0.789765
G03 X118.787719 Y105.515087 Z-0.125000 I-4.223123 J-1.895259
G01 X118.324220 Y105.570720 Z-0.125000
G01 X118.167599 Y105.425041 Z-0.125000
G03 X116.831040 Y103.506280 Z-0.125000 I53.297517 J-38.550568
G02 X114.304976 Y100.259135 Z-0.125000 I-24.256253 J16.263627
G01 X113.655360 Y99.969360 Z-0.125000
G02 X113.053091 Y100.061375 Z-0.125000 I-0.000000 J2.017030
G02 X112.023690 Y100.479860 Z-0.125000 I2.003306 J6.403108
G03 X108.076397 Y101.622068 Z-0.125000 I-4.986179 J-9.839743
G03 X103.841480 Y101.253890 Z-0.125000 I-1.111747 J-11.752157
G02 X100.734053 Y101.200395 Z-0.125000 I-1.658228 J6.044279
G02 X99.157079 Y102.367190 Z-0.125000 I0.577377 J2.429423
G03 X98.377845 Y103.637806 Z-0.125000 I-32.157801 J-18.847254
G03 X98.019270 Y104.141870 Z-0.125000 I-5.404413 J-3.464954
G01 X97.636008 Y104.629110 Z-0.125000
G01 X97.390755 Y103.939650 Z-0.125000
G03 X97.023166 Y101.850726 Z-0.125000 I5.990557 J-2.130967
G03 X97.352195 Y98.107640 Z-0.125000 I19.954407 J-0.131947
G03 X97.829523 Y95.731165 Z-0.125000 I73.348548 J13.496291
G01 X97.916982 Y95.514720 Z-0.125000
G01 X98.085788 Y95.391528 Z-0.125000
G03 X98.729729 Y95.312690 Z-0.125000 I0.643941 J2.590389
G02 X99.385902 Y95.219788 Z-0.125000 I0.000000 J-2.363756
G02 X99.828481 Y94.995190 Z-0.125000 I-0.367971 J-1.273459
G01 X99.984384 Y94.677690 Z-0.125000
G01 X99.828481 Y94.360190 Z-0.125000
G02 X99.387900 Y94.129757 Z-0.125000 I-0.868129 J1.123432
G02 X98.823069 Y94.042690 Z-0.125000 I-0.564831 J1.788582
G03 X98.316112 Y93.955168 Z-0.125000 I-0.000000 J-1.511988
G01 X98.228527 Y93.831030 Z-0.125000
G01 X98.309724 Y93.700556 Z-0.125000
G01 X98.658501 Y93.619360 Z-0.125000
G01 X99.135037 Y93.267892 Z-0.125000
G01 X98.981528 Y92.574470 Z-0.125000
G01 X98.830387 Y92.131360 Z-0.125000
G03 X99.167371 Y90.201110 Z-0.125000 I10.329985 J0.808871
G02 X99.560686 Y87.972950 Z-0.125000 I-11.772155 J-3.226814
G01 X99.367494 Y87.763250 Z-0.125000
G02 X98.295044 Y88.202832 Z-0.125000 I0.000000 J1.528019
G02 X96.635428 Y90.455190 Z-0.125000 I6.248774 J6.341927
G01 X96.311403 Y91.081780 Z-0.125000
G01 X95.417879 Y90.649320 Z-0.125000
G03 X94.528208 Y90.209448 Z-0.125000 I25.683014 J-53.065308
G03 X94.152205 Y90.010230 Z-0.125000 I4.884350 J-9.673131
G02 X93.770652 Y89.823425 Z-0.125000 I-2.000345 J3.602681
G02 X92.188777 Y89.171480 Z-0.125000 I-26.271217 J61.499197
G02 X89.529058 Y88.547696 Z-0.125000 I-3.425293 J8.622714
G01 X89.126860 Y88.917970 Z-0.125000
G01 X89.444245 Y89.484043 Z-0.125000
G02 X93.340545 Y91.494370 Z-0.125000 I15.796824 J-25.835535
G03 X95.320496 Y92.361952 Z-0.125000 I-46.655714 J109.168330
G01 X95.410217 Y92.423830 Z-0.125000
G01 X95.436896 Y92.513457 Z-0.125000
G03 X95.277420 Y93.058030 Z-0.125000 I-3.543456 J-0.742046
G01 X95.066137 Y93.613750 Z-0.125000
G01 X92.149415 Y93.572850 Z-0.125000
G02 X88.655232 Y93.898923 Z-0.125000 I-0.230509 J16.414670
G01 X88.280193 Y94.357680 Z-0.125000
G01 X88.611465 Y94.764609 Z-0.125000
G02 X91.878527 Y95.103070 Z-0.125000 I3.302824 J-15.943956
G03 X93.868805 Y95.177678 Z-0.125000 I-0.050511 J27.931512
G01 X94.142161 Y95.268220 Z-0.125000
G01 X94.262293 Y95.482231 Z-0.125000
G03 X94.162641 Y96.376230 Z-0.125000 I-3.482523 J0.064363
G02 X93.735491 Y99.964353 Z-0.125000 I14.416484 J3.535705
G02 X94.187991 Y103.550180 Z-0.125000 I14.849701 J-0.052439
G02 X95.023375 Y106.068261 Z-0.125000 I17.679558 J-4.467657
G02 X96.368489 Y108.807840 Z-0.125000 I22.290633 J-9.244533
G02 X97.345031 Y110.176075 Z-0.125000 I7.293940 J-4.173248
G01 X97.674914 Y110.297190 Z-0.125000
G01 X98.005143 Y110.100429 Z-0.125000
G02 X99.863241 Y107.377680 Z-0.125000 I-29.723194 J-22.279521
G03 X101.664927 Y104.545615 Z-0.125000 I117.549110 J72.792535
G03 X101.916190 Y104.235530 Z-0.125000 I1.636494 J1.069218
G01 X102.245210 Y104.106879 Z-0.125000
G03 X103.843460 Y104.316630 Z-0.125000 I-0.383600 J9.116951
G02 X107.814042 Y104.676449 Z-0.125000 I3.377188 J-15.179613
G02 X111.548190 Y104.022430 Z-0.125000 I-0.536538 J-14.050543
G03 X112.897987 Y103.694327 Z-0.125000 I3.009573 J9.440653
G01 X113.186340 Y103.744110 Z-0.125000
G01 X113.480597 Y104.006569 Z-0.125000
G03 X117.355370 Y109.530760 Z-0.125000 I-216.481670 J155.965379
G02 X117.957352 Y110.195888 Z-0.125000 I2.720795 J-1.857508
G01 X118.376020 Y110.388040 Z-0.125000
G02 X120.387900 Y109.842612 Z-0.125000 I0.406027 J-2.485567
G02 X122.829350 Y106.702020 Z-0.125000 I-5.848127 J-7.065518
G02 X123.614884 Y104.256964 Z-0.125000 I-8.861184 J-4.195585
G02 X123.799440 Y101.356080 Z-0.125000 I-12.358073 J-2.242541
G03 X123.914026 Y99.786458 Z-0.125000 I6.286083 J-0.330094
G01 X124.141960 Y99.650520 Z-0.125000
G02 X126.288610 Y100.040045 Z-0.125000 I2.722392 J-8.893139
G02 X127.950680 Y99.886730 Z-0.125000 I0.336962 J-5.432827
G01 X128.373479 Y99.345029 Z-0.125000
G01 X127.951470 Y98.563420 Z-0.125000
G02 X127.374073 Y98.276314 Z-0.125000 I-1.493429 J2.279272
G02 X125.270990 Y97.606670 Z-0.125000 I-10.730362 J30.062470
G03 X123.152602 Y96.978811 Z-0.125000 I20.667436 J-73.619356
G01 X123.038310 Y96.909680 Z-0.125000
G01 X122.961833 Y96.797972 Z-0.125000
G03 X122.232740 Y95.082560 Z-0.125000 I63.805156 J-28.131421
G02 X121.485895 Y93.373523 Z-0.125000 I-36.793639 J15.061016
G02 X121.191460 Y92.844350 Z-0.125000 I-3.800293 J1.768011
G01 X121.268493 Y92.445459 Z-0.125000
G03 X123.222150 Y91.427420 Z-0.125000 I4.905799 J7.030832
G02 X125.062262 Y90.272535 Z-0.125000 I-1.803364 J-4.916745
G01 X125.238640 Y89.474370 Z-0.125000
G01 X124.998153 Y89.278877 Z-0.125000
G02 X123.782390 Y89.238260 Z-0.125000 I-0.766505 J4.727660
G02 X122.478364 Y89.431922 Z-0.125000 I1.156545 J12.274784
G02 X121.134440 Y89.777570 Z-0.125000 I2.726185 J13.385254
G01 X119.804470 Y90.192700 Z-0.125000
G01 X118.719770 Y88.572290 Z-0.125000
G02 X115.321090 Y83.865985 Z-0.125000 I-67.867141 J45.430223
G02 X114.688740 Y83.388920 Z-0.125000 I-1.200455 J0.933583
G01 X114.670473 Y83.323488 Z-0.125000
G01 X114.782040 Y83.264420 Z-0.125000
G01 X115.119718 Y83.329972 Z-0.125000
G03 X115.946200 Y83.796940 Z-0.125000 I-2.310365 J5.053963
G02 X120.904325 Y86.285085 Z-0.125000 I11.659837 J-17.050449
G02 X125.427690 Y87.049090 Z-0.125000 I4.582995 J-13.361552
G02 X128.707598 Y86.166767 Z-0.125000 I0.027102 J-6.436706
G02 X131.896000 Y83.261020 Z-0.125000 I-5.246912 J-8.959452
G02 X136.392066 Y73.940312 Z-0.125000 I-24.415645 J-17.522217
G02 X137.743090 Y62.649070 Z-0.125000 I-34.912692 J-9.903833
G02 X137.461691 Y59.245184 Z-0.125000 I-38.585245 J1.476267
G02 X136.996520 Y56.789370 Z-0.125000 I-20.512284 J2.613395
G02 X133.833174 Y49.115501 Z-0.125000 I-28.168339 J7.122703
G02 X128.339040 Y42.158950 Z-0.125000 I-28.519629 J16.876338
G02 X123.477405 Y38.192228 Z-0.125000 I-26.044055 J26.957145
G02 X115.267680 Y33.205240 Z-0.125000 I-49.644537 J72.475243
G02 X103.006468 Y28.024224 Z-0.125000 I-34.399565 J64.309832
G02 X90.007022 Y25.157710 Z-0.125000 I-22.141210 J69.499814
G02 X84.489061 Y24.783053 Z-0.125000 I-5.992728 J47.439369
G02 X80.360631 Y25.061910 Z-0.125000 I-0.265763 J26.765161
G01 X80.360629 Y25.061920 Z-0.125000
G00 Z5.000000

(End cutting path id: path14520)


(Start cutting path id: path14579)
(ZZZanette)
(Change tool to Default tool)

G00 Z5.000000
G00 X141.863615 Y157.355350

G01 Z-0.125000 F100.0(Penetrate)
G02 X141.630413 Y157.935528 Z-0.125000 I3.039005 J1.558485 F400.000000
G02 X141.445505 Y158.753830 Z-0.125000 I5.890203 J1.761021
G02 X139.728461 Y157.522446 Z-0.125000 I-3.647776 J3.273649
G02 X137.509585 Y157.067004 Z-0.125000 I-2.218876 J5.177368
G02 X135.354420 Y157.431767 Z-0.125000 I0.000000 J6.549165
G02 X133.703405 Y158.393397 Z-0.125000 I1.646704 J4.725335
G02 X132.597773 Y159.897184 Z-0.125000 I2.931012 J3.313316
G02 X132.204005 Y161.738214 Z-0.125000 I4.106915 J1.841030
G02 X132.710505 Y163.959471 Z-0.125000 I5.123914 J-0.000000
G02 X134.035005 Y165.544385 Z-0.125000 I3.795193 J-1.825719
G02 X136.012560 Y166.463436 Z-0.125000 I3.402174 J-4.733470
G02 X139.354995 Y166.885196 Z-0.125000 I3.400167 J-13.490980
G01 X141.272505 Y166.885196 Z-0.125000
G01 X141.272505 Y167.779069 Z-0.125000
G03 X141.110761 Y168.800032 Z-0.125000 I-3.303142 J-0.000000
G03 X140.710225 Y169.509147 Z-0.125000 I-1.949982 J-0.633749
G03 X140.070085 Y169.959219 Z-0.125000 I-1.177231 J-0.994110
G03 X138.965725 Y170.157926 Z-0.125000 I-1.104360 J-2.969510
G03 X137.967067 Y170.009321 Z-0.125000 I0.000000 J-3.429907
G03 X137.307735 Y169.653320 Z-0.125000 I0.550031 J-1.807244
G03 X136.881050 Y169.072889 Z-0.125000 I1.024607 J-1.200254
G03 X136.716625 Y168.269258 Z-0.125000 I1.881671 J-0.803631
G01 X132.550025 Y168.269258 Z-0.125000
G02 X132.758950 Y169.556719 Z-0.125000 I4.071328 J0.000000
G02 X133.386225 Y170.777871 Z-0.125000 I4.278975 J-1.426318
G02 X134.352654 Y171.767726 Z-0.125000 I3.846384 J-2.788648
G02 X135.750665 Y172.580035 Z-0.125000 I3.934074 J-5.161506
G02 X137.316002 Y173.064559 Z-0.125000 I2.991208 J-6.892799
G02 X139.181985 Y173.243232 Z-0.125000 I1.865983 J-9.654422
G02 X141.907853 Y172.819479 Z-0.125000 I0.000000 J-8.979199
G02 X143.752275 Y171.787083 Z-0.125000 I-1.600340 J-5.022849
G02 X144.971515 Y170.122018 Z-0.125000 I-2.856288 J-3.370435
G02 X145.453525 Y167.721400 Z-0.125000 I-5.737047 J-2.400618
G01 X145.453525 Y160.959679 Z-0.125000
G03 X145.659359 Y158.787798 Z-0.125000 I12.410646 J0.080492
G03 X146.073465 Y157.600444 Z-0.125000 I4.054970 J0.748337
G01 X146.073465 Y157.355350 Z-0.125000
G01 X141.863615 Y157.355350 Z-0.125000
G00 Z5.000000

(End cutting path id: path14579)


(Start cutting path id: path14579)
(ZZZanette)
(Change tool to Default tool)

G00 Z5.000000
G00 X138.417875 Y160.253230

G01 Z-0.125000 F100.0(Penetrate)
G03 X139.314977 Y160.358209 Z-0.125000 I-0.000000 J3.885613 F400.000000
G03 X140.119115 Y160.656915 Z-0.125000 I-0.809187 J3.410138
G03 X140.811610 Y161.161362 Z-0.125000 I-1.486982 J2.768847
G03 X141.272505 Y161.767049 Z-0.125000 I-1.720031 J1.787052
G01 X141.272505 Y164.448669 Z-0.125000
G01 X139.715425 Y164.448669 Z-0.125000
G03 X137.251681 Y163.718927 Z-0.125000 I-0.000000 J-4.523898
G03 X136.385035 Y162.286072 Z-0.125000 I1.046367 J-1.611400
G01 X136.370635 Y162.040978 Z-0.125000
G03 X136.516778 Y161.326524 Z-0.125000 I1.819464 J-0.000000
G03 X136.918495 Y160.757836 Z-0.125000 I1.525376 J0.651286
G03 X137.523517 Y160.399691 Z-0.125000 I1.143284 J1.241262
G03 X138.417895 Y160.253230 Z-0.125000 I0.894378 J2.657579
G01 X138.417875 Y160.253230 Z-0.125000
G00 Z5.000000

(End cutting path id: path14579)


(Start cutting path id: path14577)
(ZZZanette)
(Change tool to Default tool)

G00 Z5.000000
G00 X131.209215 Y169.047793

G01 Z-0.125000 F100.0(Penetrate)
G03 X130.356918 Y169.138280 Z-0.125000 I-1.985837 J-14.645457 F400.000000
G03 X129.709815 Y169.163132 Z-0.125000 I-0.647103 J-8.412297
G03 X127.663947 Y168.666173 Z-0.125000 I0.000000 J-4.459673
G03 X126.610095 Y167.562810 Z-0.125000 I1.074509 J-2.081255
G01 X126.610095 Y157.355350 Z-0.125000
G01 X122.443495 Y157.355350 Z-0.125000
G01 X122.443495 Y172.954886 Z-0.125000
G01 X126.379415 Y172.954886 Z-0.125000
G01 X126.494755 Y171.095052 Z-0.125000
G02 X128.060471 Y172.700800 Z-0.125000 I4.003867 J-2.337835
G02 X129.969325 Y173.243232 Z-0.125000 I1.908854 J-3.087472
G02 X130.653927 Y173.194044 Z-0.125000 I0.000000 J-4.788746
G02 X131.266885 Y173.055807 Z-0.125000 I-0.573764 J-3.972219
G01 X131.209215 Y169.047793 Z-0.125000
G00 Z5.000000

(End cutting path id: path14577)


(Start cutting path id: path14561)
(ZZZanette)
(Change tool to Default tool)

G00 Z5.000000
G00 X136.212025 Y186.968517

G01 Z-0.125000 F100.0(Penetrate)
G01 X136.053435 Y186.132312 Z-0.125000 F400.000000
G02 X137.617346 Y185.242498 Z-0.125000 I-0.479002 J-2.661128
G02 X138.216035 Y183.638117 Z-0.125000 I-1.850383 J-1.604381
G02 X137.867730 Y182.234207 Z-0.125000 I-3.003512 J-0.000000
G02 X136.889635 Y181.129504 Z-0.125000 I-2.762771 J1.460783
G02 X135.488256 Y180.489345 Z-0.125000 I-2.416408 J3.435815
G02 X133.184385 Y180.206796 Z-0.125000 I-2.303871 J9.251483
G01 X133.083465 Y182.614487 Z-0.125000
G03 X134.303321 Y183.009371 Z-0.125000 I0.000000 J2.081598
G01 X134.698205 Y183.782290 Z-0.125000
G01 X134.557967 Y184.298821 Z-0.125000
G01 X134.208015 Y184.618494 Z-0.125000
G03 X133.716724 Y184.773094 Z-0.125000 I-0.877363 J-1.930191
G03 X132.650945 Y184.906840 Z-0.125000 I-1.679203 J-9.067707
G01 X133.097885 Y186.968517 Z-0.125000
G01 X136.212025 Y186.968517 Z-0.125000
G00 Z5.000000

(End cutting path id: path14561)


(Start cutting path id: path14561)
(ZZZanette)
(Change tool to Default tool)

G00 Z5.000000
G00 X134.698205 Y189.952901

G01 Z-0.125000 F100.0(Penetrate)
G03 X135.784129 Y190.131691 Z-0.125000 I0.000000 J3.387198 F400.000000
G03 X136.572455 Y190.587263 Z-0.125000 I-0.743262 J2.195999
G03 X137.103824 Y191.310437 Z-0.125000 I-1.386475 J1.575549
G03 X137.322155 Y192.274089 Z-0.125000 I-2.324972 J1.033320
G01 X141.229245 Y192.274089 Z-0.125000
G02 X141.000903 Y190.751948 Z-0.125000 I-5.521734 J0.050137
G02 X140.364215 Y189.361791 Z-0.125000 I-5.223802 J1.551608
G02 X139.369369 Y188.211724 Z-0.125000 I-4.639764 J3.008228
G02 X138.028605 Y187.314532 Z-0.125000 I-4.102394 J4.680205
G02 X136.513840 Y186.784232 Z-0.125000 I-2.974621 J6.068241
G02 X134.770295 Y186.593666 Z-0.125000 I-1.743545 J7.880812
G02 X131.688535 Y187.189416 Z-0.125000 I0.000000 J8.268704
G02 X129.493555 Y188.713012 Z-0.125000 I2.233171 J5.560140
G02 X128.126593 Y191.064535 Z-0.125000 I4.853732 J4.394594
G02 X127.561635 Y194.595277 Z-0.125000 I10.750320 J3.530742
G01 X127.561635 Y194.869206 Z-0.125000
G02 X128.112446 Y198.263462 Z-0.125000 I10.733594 J0.000000
G02 X129.479135 Y200.621715 Z-0.125000 I6.397799 J-2.132596
G02 X131.666852 Y202.166508 Z-0.125000 I4.434021 J-3.957899
G02 X134.741455 Y202.769895 Z-0.125000 I3.074604 J-7.531747
G02 X137.478848 Y202.296016 Z-0.125000 I0.000000 J-8.143302
G02 X139.427085 Y201.097486 Z-0.125000 I-1.855731 J-5.199248
G02 X140.715290 Y199.225924 Z-0.125000 I-3.617259 J-3.868896
G02 X141.229245 Y196.671370 Z-0.125000 I-6.452189 J-2.627106
G01 X137.322155 Y196.671370 Z-0.125000
G03 X137.099513 Y197.801656 Z-0.125000 I-3.389597 J-0.080608
G03 X136.572455 Y198.632125 Z-0.125000 I-2.308712 J-0.882742
G03 X135.760620 Y199.185349 Z-0.125000 I-1.664424 J-1.570198
G03 X134.669375 Y199.396243 Z-0.125000 I-1.091245 J-2.717809
G03 X133.368121 Y199.098082 Z-0.125000 I0.000000 J-2.988593
G03 X132.463525 Y198.329362 Z-0.125000 I1.028952 J-2.127429
G03 X131.972123 Y197.200141 Z-0.125000 I2.548832 J-1.780706
G03 X131.728235 Y194.898040 Z-0.125000 I10.743040 J-2.302101
G01 X131.728235 Y194.465521 Z-0.125000
G03 X131.973131 Y192.134903 Z-0.125000 I11.212410 J0.000000
G03 X132.463525 Y191.005365 Z-0.125000 I3.028264 J0.643512
G03 X133.355381 Y190.253291 Z-0.125000 I1.857105 J1.297424
G03 X134.698205 Y189.952901 Z-0.125000 I1.342824 J2.851197
G01 X134.698205 Y189.952901 Z-0.125000
G00 Z5.000000

(End cutting path id: path14561)


(Start cutting path id: path14559)
(ZZZanette)
(Change tool to Default tool)

G00 Z5.000000
G00 X121.391025 Y186.882013

G01 Z-0.125000 F100.0(Penetrate)
G02 X121.157825 Y187.462191 Z-0.125000 I3.038897 J1.558430 F400.000000
G02 X120.972925 Y188.280492 Z-0.125000 I5.889972 J1.760911
G02 X119.255881 Y187.049109 Z-0.125000 I-3.647768 J3.273642
G02 X117.036995 Y186.593666 Z-0.125000 I-2.218886 J5.177404
G02 X114.881840 Y186.958429 Z-0.125000 I-0.000000 J6.549116
G02 X113.230825 Y187.920060 Z-0.125000 I1.646712 J4.725343
G02 X112.125193 Y189.423847 Z-0.125000 I2.931012 J3.313316
G02 X111.731425 Y191.264877 Z-0.125000 I4.106915 J1.841030
G02 X112.237925 Y193.486134 Z-0.125000 I5.123914 J-0.000000
G02 X113.562425 Y195.071048 Z-0.125000 I3.795193 J-1.825719
G02 X115.539971 Y195.990098 Z-0.125000 I3.402150 J-4.733410
G02 X118.882415 Y196.411859 Z-0.125000 I3.400176 J-13.491016
G01 X120.799915 Y196.411859 Z-0.125000
G01 X120.799915 Y197.305732 Z-0.125000
G03 X120.638171 Y198.326695 Z-0.125000 I-3.303142 J-0.000000
G03 X120.237635 Y199.035810 Z-0.125000 I-1.949982 J-0.633749
G03 X119.597503 Y199.485881 Z-0.125000 I-1.177213 J-0.994077
G03 X118.493145 Y199.684589 Z-0.125000 I-1.104358 J-2.969489
G03 X117.494478 Y199.535983 Z-0.125000 I-0.000000 J-3.429937
G03 X116.835155 Y199.179983 Z-0.125000 I0.550014 J-1.807187
G03 X116.408470 Y198.599552 Z-0.125000 I1.024607 J-1.200254
G03 X116.244045 Y197.795921 Z-0.125000 I1.881671 J-0.803631
G01 X112.077435 Y197.795921 Z-0.125000
G02 X112.286362 Y199.083381 Z-0.125000 I4.071280 J-0.000000
G02 X112.913645 Y200.304534 Z-0.125000 I4.278956 J-1.426328
G02 X113.880066 Y201.294387 Z-0.125000 I3.846306 J-2.788558
G02 X115.278085 Y202.106698 Z-0.125000 I3.934056 J-5.161483
G02 X116.843413 Y202.591221 Z-0.125000 I2.991175 J-6.892677
G02 X118.709405 Y202.769895 Z-0.125000 I1.865992 J-9.654472
G02 X121.435264 Y202.346144 Z-0.125000 I0.000000 J-8.979170
G02 X123.279695 Y201.313746 Z-0.125000 I-1.600357 J-5.022905
G02 X124.498927 Y199.648682 Z-0.125000 I-2.856298 J-3.370425
G02 X124.980935 Y197.248063 Z-0.125000 I-5.737083 J-2.400619
G01 X124.980935 Y190.486342 Z-0.125000
G03 X125.186769 Y188.314461 Z-0.125000 I12.410646 J0.080492
G03 X125.600875 Y187.127107 Z-0.125000 I4.054970 J0.748337
