%
(Header)
(Generated by gcodetools from Inkscape.)
(Using default header. To add your own header create file "header" in the output dir.)
M3
(Header end.)
G21 (All units in mm)

(Start cutting path id: path14549)
(ZZZanette)
(Change tool to Default tool)

G00 Z5.000000
G00 X32.162255 Y192.389427

G01 Z-0.125000 F100.0(Penetrate)
G03 X31.919730 Y193.493636 Z-0.125000 I-2.634979 J-0.000000 F400.000000
G03 X31.297216 Y194.263678 Z-0.125000 I-1.835362 J-0.847090
G03 X30.372627 Y194.813081 Z-0.125000 I-2.780862 J-3.627209
G03 X28.183076 Y195.647741 Z-0.125000 I-8.811559 J-19.825996
G02 X25.966047 Y196.457846 Z-0.125000 I10.675827 J32.655471
G02 X24.621999 Y197.089472 Z-0.125000 I5.103507 J12.605668
G02 X21.903689 Y199.532546 Z-0.125000 I3.703927 J6.855026
G02 X21.046505 Y202.294123 Z-0.125000 I4.019877 J2.761577
G02 X21.295273 Y203.915364 Z-0.125000 I5.407267 J-0.000000
G02 X21.998047 Y205.321760 Z-0.125000 I4.739604 J-1.489588
G02 X23.117476 Y206.469568 Z-0.125000 I4.393967 J-3.165550
G02 X24.751755 Y207.412271 Z-0.125000 I4.534340 J-5.972821
G02 X26.594266 Y207.959938 Z-0.125000 I3.512140 J-8.442646
G02 X28.788603 Y208.161971 Z-0.125000 I2.194337 J-11.815667
G02 X30.988141 Y207.938800 Z-0.125000 I0.000000 J-10.950744
G02 X32.796617 Y207.340184 Z-0.125000 I-1.633047 J-7.964684
G02 X34.384024 Y206.334168 Z-0.125000 I-2.922480 J-6.366827
G02 X35.521490 Y205.047831 Z-0.125000 I-3.764897 J-4.475256
G02 X36.244030 Y203.485412 Z-0.125000 I-4.795479 J-3.165945
G02 X36.501867 Y201.674179 Z-0.125000 I-6.232776 J-1.811233
G01 X32.176672 Y201.674179 Z-0.125000
G03 X31.917859 Y202.998293 Z-0.125000 I-3.516554 J0.000000
G03 X31.268381 Y203.908863 Z-0.125000 I-2.238852 J-0.909985
G03 X30.268947 Y204.476506 Z-0.125000 I-1.830594 J-2.059418
G03 X28.716517 Y204.716232 Z-0.125000 I-1.552430 J-4.906791
G03 X27.200284 Y204.511654 Z-0.125000 I-0.000000 J-5.721093
G03 X26.251156 Y204.038619 Z-0.125000 I0.728449 J-2.650318
G03 X25.603135 Y203.260083 Z-0.125000 I1.334663 J-1.769879
G03 X25.371699 Y202.279706 Z-0.125000 I1.960752 J-0.980377
G03 X25.617835 Y201.386782 Z-0.125000 I1.742726 J-0.000000
G03 X26.395329 Y200.564045 Z-0.125000 I2.235376 J1.333712
G03 X27.482562 Y199.976299 Z-0.125000 I3.714513 J5.571767
G03 X29.437382 Y199.266487 Z-0.125000 I7.439107 J17.440574
G02 X32.949362 Y197.852698 Z-0.125000 I-6.030240 J-20.048598
G02 X34.815041 Y196.512780 Z-0.125000 I-3.512649 J-6.859782
G02 X36.054162 Y194.680345 Z-0.125000 I-3.813690 J-3.914050
G02 X36.501867 Y192.418262 Z-0.125000 I-5.490869 J-2.262083
G02 X35.943487 Y189.971412 Z-0.125000 I-5.640301 J0.000000
G02 X34.440191 Y188.136319 Z-0.125000 I-4.540234 J2.186038
G02 X32.227077 Y187.048830 Z-0.125000 I-4.001695 J5.348059
G02 X28.889524 Y186.593666 Z-0.125000 I-3.337553 J12.008951
G02 X26.516866 Y186.827853 Z-0.125000 I0.000000 J12.136362
G02 X24.477826 Y187.473123 Z-0.125000 I1.909220 J9.577389
G02 X22.666927 Y188.580369 Z-0.125000 I3.446469 J7.671181
G02 X21.435772 Y189.909649 Z-0.125000 I3.830674 J4.782677
G02 X20.674821 Y191.536851 Z-0.125000 I4.830753 J3.250600
G02 X20.397725 Y193.485143 Z-0.125000 I6.710782 J1.948292
G01 X24.737337 Y193.485143 Z-0.125000
G03 X25.843628 Y191.116861 Z-0.125000 I3.088083 J0.000000
G03 X28.889524 Y190.010570 Z-0.125000 I3.045896 J3.639909
G03 X30.371839 Y190.198345 Z-0.125000 I-0.000000 J5.944668
G03 X31.297216 Y190.630515 Z-0.125000 I-0.692579 J2.689783
G03 X31.928266 Y191.383448 Z-0.125000 I-1.219598 J1.663088
G03 X32.162255 Y192.389427 Z-0.125000 I-2.045490 J1.005979
G01 X32.162255 Y192.389427 Z-0.125000
G00 Z5.000000

(End cutting path id: path14549)


(Start cutting path id: path14551)
(ZZZanette)
(Change tool to Default tool)

G00 Z5.000000
G00 X48.511490 Y188.467918

G01 Z-0.125000 F100.0(Penetrate)
G02 X46.723150 Y187.114092 Z-0.125000 I-3.731989 J3.071711 F400.000000
G02 X44.243965 Y186.593666 Z-0.125000 I-2.479185 J5.644911
G02 X41.920660 Y187.015950 Z-0.125000 I0.000000 J6.602274
G02 X40.408959 Y188.035398 Z-0.125000 I1.385180 J3.684577
G02 X39.489238 Y189.631232 Z-0.125000 I3.185586 J2.898883
G02 X39.068149 Y192.259672 Z-0.125000 I8.574691 J2.721659
G01 X39.068149 Y202.481548 Z-0.125000
G01 X43.234753 Y202.481548 Z-0.125000
G01 X43.234753 Y192.403845 Z-0.125000
G03 X43.914950 Y190.647515 Z-0.125000 I2.607598 J0.000000
G03 X45.455020 Y189.967318 Z-0.125000 I1.540070 J1.403377
G03 X47.310588 Y190.409232 Z-0.125000 I-0.000000 J4.116662
G03 X48.367317 Y191.437885 Z-0.125000 I-1.109135 J2.196520
G01 X48.367317 Y202.481548 Z-0.125000
G01 X52.548339 Y202.481548 Z-0.125000
G01 X52.548339 Y186.882013 Z-0.125000
G01 X48.626829 Y186.882013 Z-0.125000
G01 X48.511490 Y188.467918 Z-0.125000
G00 Z5.000000

(End cutting path id: path14551)


(Start cutting path id: path14567)
(ZZZanette)
(Change tool to Default tool)

G00 Z5.000000
G00 X48.482657 Y176.991734

G01 Z-0.125000 F100.0(Penetrate)
G02 X48.650262 Y177.858278 Z-0.125000 I2.323891 J-0.000000 F400.000000
G02 X49.102601 Y178.534387 Z-0.125000 I1.831716 J-0.736109
G02 X49.806406 Y178.966591 Z-0.125000 I1.358738 J-1.423441
G02 X50.818262 Y179.139914 Z-0.125000 I1.011856 J-2.866926
G02 X51.816114 Y178.967624 Z-0.125000 I-0.000000 J-2.975779
G02 X52.519505 Y178.534387 Z-0.125000 I-0.664124 J-1.865873
G02 X52.983143 Y177.855807 Z-0.125000 I-1.365852 J-1.430894
G02 X53.153867 Y176.991734 Z-0.125000 I-2.101268 J-0.864073
G02 X52.978776 Y176.116277 Z-0.125000 I-2.276188 J-0.000000
G02 X52.505088 Y175.434664 Z-0.125000 I-1.816134 J0.756722
G02 X51.802117 Y175.000377 Z-0.125000 I-1.376543 J1.442093
G02 X50.818262 Y174.829137 Z-0.125000 I-0.983855 J2.740741
G02 X49.832861 Y174.999277 Z-0.125000 I-0.000000 J2.938650
G02 X49.117018 Y175.434664 Z-0.125000 I0.691770 J1.943546
G02 X48.654637 Y176.113781 Z-0.125000 I1.355013 J1.419536
G02 X48.482657 Y176.991734 Z-0.125000 I2.154978 J0.877953
G01 X48.482657 Y176.991734 Z-0.125000
G00 Z5.000000

(End cutting path id: path14567)


(Start cutting path id: path14553)
(ZZZanette)
(Change tool to Default tool)

G00 Z5.000000
G00 X61.314067 Y189.779893

G01 Z-0.125000 F100.0(Penetrate)
G03 X62.211176 Y189.884872 Z-0.125000 I0.000000 J3.885653 F400.000000
G03 X63.015310 Y190.183578 Z-0.125000 I-0.809172 J3.410079
G03 X63.707808 Y190.688026 Z-0.125000 I-1.486959 J2.768821
G03 X64.168696 Y191.293711 Z-0.125000 I-1.719974 J1.786988
G01 X64.168696 Y193.975332 Z-0.125000
G01 X62.611626 Y193.975332 Z-0.125000
G03 X60.147873 Y193.245589 Z-0.125000 I0.000000 J-4.523923
G03 X59.281226 Y191.812735 Z-0.125000 I1.046364 J-1.611401
G01 X59.266806 Y191.567640 Z-0.125000
G03 X59.412948 Y190.853186 Z-0.125000 I1.819469 J-0.000000
G03 X59.814664 Y190.284499 Z-0.125000 I1.525372 J0.651282
G03 X60.419693 Y189.926353 Z-0.125000 I1.143305 J1.241303
G03 X61.314065 Y189.779893 Z-0.125000 I0.894372 J2.657563
G01 X61.314067 Y189.779893 Z-0.125000
G00 Z5.000000

(End cutting path id: path14553)


(Start cutting path id: path14553)
(ZZZanette)
(Change tool to Default tool)

G00 Z5.000000
G00 X64.759806 Y186.882013

G01 Z-0.125000 F100.0(Penetrate)
G02 X64.526607 Y187.462191 Z-0.125000 I3.039002 J1.558467 F400.000000
G02 X64.341703 Y188.280492 Z-0.125000 I5.890196 J1.760991
G02 X62.624661 Y187.049109 Z-0.125000 I-3.647764 J3.273634
G02 X60.405776 Y186.593666 Z-0.125000 I-2.218885 J5.177397
G02 X58.250618 Y186.958429 Z-0.125000 I0.000000 J6.549125
G02 X56.599605 Y187.920060 Z-0.125000 I1.646707 J4.725330
G02 X55.493972 Y189.423847 Z-0.125000 I2.931011 J3.313318
G02 X55.100204 Y191.264877 Z-0.125000 I4.106912 J1.841030
G02 X55.606704 Y193.486134 Z-0.125000 I5.123917 J-0.000000
G02 X56.931203 Y195.071048 Z-0.125000 I3.795193 J-1.825718
G02 X58.908755 Y195.990098 Z-0.125000 I3.402167 J-4.733452
G02 X62.251193 Y196.411859 Z-0.125000 I3.400170 J-13.490991
G01 X64.168696 Y196.411859 Z-0.125000
G01 X64.168696 Y197.305732 Z-0.125000
G03 X64.006953 Y198.326695 Z-0.125000 I-3.303165 J0.000000
G03 X63.606420 Y199.035810 Z-0.125000 I-1.949985 J-0.633746
G03 X62.966281 Y199.485882 Z-0.125000 I-1.177229 J-0.994105
G03 X61.861925 Y199.684589 Z-0.125000 I-1.104356 J-2.969492
G03 X60.863264 Y199.535984 Z-0.125000 I0.000000 J-3.429921
G03 X60.203934 Y199.179983 Z-0.125000 I0.550025 J-1.807226
G03 X59.777249 Y198.599552 Z-0.125000 I1.024607 J-1.200254
G03 X59.612824 Y197.795921 Z-0.125000 I1.881671 J-0.803631
G01 X55.446220 Y197.795921 Z-0.125000
G02 X55.655146 Y199.083382 Z-0.125000 I4.071309 J-0.000000
G02 X56.282424 Y200.304534 Z-0.125000 I4.278967 J-1.426322
G02 X57.248848 Y201.294387 Z-0.125000 I3.846337 J-2.788594
G02 X58.646864 Y202.106698 Z-0.125000 I3.934063 J-5.161492
G02 X60.212197 Y202.591222 Z-0.125000 I2.991191 J-6.892736
G02 X62.078185 Y202.769895 Z-0.125000 I1.865988 J-9.654455
G02 X64.804046 Y202.346143 Z-0.125000 I0.000000 J-8.979177
G02 X66.648474 Y201.313746 Z-0.125000 I-1.600351 J-5.022883
G02 X67.867708 Y199.648681 Z-0.125000 I-2.856297 J-3.370428
G02 X68.349717 Y197.248063 Z-0.125000 I-5.737072 J-2.400618
G01 X68.349717 Y190.486342 Z-0.125000
G03 X68.555563 Y188.314458 Z-0.125000 I12.411196 J0.080607
G03 X68.969662 Y187.127107 Z-0.125000 I4.055109 J0.748368
G01 X68.969662 Y186.882013 Z-0.125000
G01 X64.759806 Y186.882013 Z-0.125000
G00 Z5.000000

(End cutting path id: path14553)


(Start cutting path id: path14571)
(ZZZanette)
(Change tool to Default tool)

G00 Z5.000000
G00 X73.914802 Y179.500347

G01 Z-0.125000 F100.0(Penetrate)
G01 X78.456257 Y179.500347 Z-0.125000 F400.000000
G01 X74.462660 Y175.030979 Z-0.125000
G01 X71.074591 Y175.030979 Z-0.125000
G01 X73.914802 Y179.500347 Z-0.125000
G00 Z5.000000

(End cutting path id: path14571)


(Start cutting path id: path14569)
(ZZZanette)
(Change tool to Default tool)

G00 Z5.000000
G00 X65.120239 Y169.047793

G01 Z-0.125000 F100.0(Penetrate)
G03 X64.267941 Y169.138280 Z-0.125000 I-1.985840 J-14.645501 F400.000000
G03 X63.620838 Y169.163132 Z-0.125000 I-0.647103 J-8.412303
G03 X61.574970 Y168.666174 Z-0.125000 I0.000000 J-4.459676
G03 X60.521115 Y167.562810 Z-0.125000 I1.074513 J-2.081264
G01 X60.521115 Y157.355350 Z-0.125000
G01 X56.354511 Y157.355350 Z-0.125000
G01 X56.354511 Y172.954886 Z-0.125000
G01 X60.290438 Y172.954886 Z-0.125000
G01 X60.405777 Y171.095052 Z-0.125000
G02 X61.971490 Y172.700798 Z-0.125000 I4.003851 J-2.337818
G02 X63.880350 Y173.243232 Z-0.125000 I1.908860 J-3.087484
G02 X64.564943 Y173.194044 Z-0.125000 I-0.000000 J-4.788677
G02 X65.177908 Y173.055807 Z-0.125000 I-0.573784 J-3.972350
G01 X65.120239 Y169.047793 Z-0.125000
G00 Z5.000000

(End cutting path id: path14569)


(Start cutting path id: path14571)
(ZZZanette)
(Change tool to Default tool)

G00 Z5.000000
G00 X72.328898 Y160.253230

G01 Z-0.125000 F100.0(Penetrate)
G03 X73.226008 Y160.358208 Z-0.125000 I-0.000000 J3.885701 F400.000000
G03 X74.030141 Y160.656910 Z-0.125000 I-0.809168 J3.410105
G03 X74.722640 Y161.161365 Z-0.125000 I-1.487013 J2.768868
G03 X75.183526 Y161.767050 Z-0.125000 I-1.719996 J1.786998
G01 X75.183526 Y164.448670 Z-0.125000
G01 X73.626456 Y164.448670 Z-0.125000
G03 X71.162704 Y163.718926 Z-0.125000 I-0.000000 J-4.523917
G03 X70.296056 Y162.286070 Z-0.125000 I1.046367 J-1.611404
G01 X70.281636 Y162.040980 Z-0.125000
G03 X70.427779 Y161.326522 Z-0.125000 I1.819478 J0.000000
G03 X70.829494 Y160.757840 Z-0.125000 I1.525341 J0.651270
G03 X71.434524 Y160.399691 Z-0.125000 I1.143309 J1.241297
G03 X72.328895 Y160.253230 Z-0.125000 I0.894371 J2.657540
G01 X72.328898 Y160.253230 Z-0.125000
G00 Z5.000000

(End cutting path id: path14571)


(Start cutting path id: path14571)
(ZZZanette)
(Change tool to Default tool)

G00 Z5.000000
G00 X75.774636 Y157.355350

G01 Z-0.125000 F100.0(Penetrate)
G02 X75.541438 Y157.935523 Z-0.125000 I3.038923 J1.558435 F400.000000
G02 X75.356534 Y158.753830 Z-0.125000 I5.890228 J1.760995
G02 X73.639491 Y157.522444 Z-0.125000 I-3.647770 J3.273631
G02 X71.420607 Y157.067000 Z-0.125000 I-2.218884 J5.177383
G02 X69.265449 Y157.431765 Z-0.125000 I-0.000000 J6.549101
G02 X67.614435 Y158.393400 Z-0.125000 I1.646712 J4.725324
G02 X66.508802 Y159.897184 Z-0.125000 I2.931002 J3.313315
G02 X66.115034 Y161.738210 Z-0.125000 I4.106894 J1.841026
G02 X66.621534 Y163.959469 Z-0.125000 I5.123924 J0.000000
G02 X67.946034 Y165.544385 Z-0.125000 I3.795199 J-1.825720
G02 X69.923585 Y166.463435 Z-0.125000 I3.402165 J-4.733446
G02 X73.266023 Y166.885196 Z-0.125000 I3.400170 J-13.490988
G01 X75.183526 Y166.885196 Z-0.125000
G01 X75.183526 Y167.779069 Z-0.125000
G03 X75.021783 Y168.800033 Z-0.125000 I-3.303171 J0.000000
G03 X74.621251 Y169.509147 Z-0.125000 I-1.949986 J-0.633745
G03 X73.981112 Y169.959219 Z-0.125000 I-1.177229 J-0.994105
G03 X72.876756 Y170.157926 Z-0.125000 I-1.104356 J-2.969492
G03 X71.878094 Y170.009321 Z-0.125000 I-0.000000 J-3.429923
G03 X71.218764 Y169.653320 Z-0.125000 I0.550027 J-1.807231
G03 X70.792079 Y169.072889 Z-0.125000 I1.024607 J-1.200254
G03 X70.627654 Y168.269258 Z-0.125000 I1.881671 J-0.803631
G01 X66.461050 Y168.269258 Z-0.125000
G02 X66.669976 Y169.556719 Z-0.125000 I4.071309 J-0.000000
G02 X67.297254 Y170.777871 Z-0.125000 I4.278967 J-1.426322
G02 X68.263679 Y171.767725 Z-0.125000 I3.846345 J-2.788603
G02 X69.661694 Y172.580035 Z-0.125000 I3.934065 J-5.161495
G02 X71.227027 Y173.064559 Z-0.125000 I2.991194 J-6.892749
G02 X73.093015 Y173.243232 Z-0.125000 I1.865988 J-9.654450
G02 X75.818876 Y172.819480 Z-0.125000 I0.000000 J-8.979177
G02 X77.663304 Y171.787083 Z-0.125000 I-1.600351 J-5.022883
G02 X78.882539 Y170.122019 Z-0.125000 I-2.856292 J-3.370427
G02 X79.364548 Y167.721400 Z-0.125000 I-5.737070 J-2.400619
G01 X79.364548 Y160.959680 Z-0.125000
G03 X79.570394 Y158.787793 Z-0.125000 I12.411252 J0.080607
G03 X79.984492 Y157.600440 Z-0.125000 I4.055126 J0.748369
G01 X79.984492 Y157.355350 Z-0.125000
G01 X75.774636 Y157.355350 Z-0.125000
G00 Z5.000000

(End cutting path id: path14571)


(Start cutting path id: path14567)
(ZZZanette)
(Change tool to Default tool)

G00 Z5.000000
G00 X52.908773 Y157.355350

G01 Z-0.125000 F100.0(Penetrate)
G01 X48.727751 Y157.355350 Z-0.125000 F400.000000
G01 X48.727751 Y172.954886 Z-0.125000
G01 X52.908773 Y172.954886 Z-0.125000
G01 X52.908773 Y157.355350 Z-0.125000
G00 Z5.000000

(End cutting path id: path14567)


(Start cutting path id: path14581)
(ZZZanette)
(Change tool to Default tool)

G00 Z5.000000
G00 X67.513513 Y130.726570

G01 Z-0.125000 F100.0(Penetrate)
G03 X68.410623 Y130.831551 Z-0.125000 I0.000000 J3.885611 F400.000000
G03 X69.214757 Y131.130260 Z-0.125000 I-0.809175 J3.410050
G03 X69.907255 Y131.634707 Z-0.125000 I-1.486946 J2.768810
G03 X70.368142 Y132.240390 Z-0.125000 I-1.719961 J1.786978
G01 X70.368142 Y134.922010 Z-0.125000
G01 X68.811072 Y134.922010 Z-0.125000
G03 X66.347320 Y134.192266 Z-0.125000 I0.000000 J-4.523917
G03 X65.480672 Y132.759410 Z-0.125000 I1.046367 J-1.611404
G01 X65.466252 Y132.514320 Z-0.125000
G03 X65.612395 Y131.799862 Z-0.125000 I1.819478 J-0.000000
G03 X66.014110 Y131.231180 Z-0.125000 I1.525341 J0.651270
G03 X66.619140 Y130.873030 Z-0.125000 I1.143310 J1.241298
G03 X67.513510 Y130.726570 Z-0.125000 I0.894370 J2.657535
G01 X67.513513 Y130.726570 Z-0.125000
G00 Z5.000000

(End cutting path id: path14581)


(Start cutting path id: path14581)
(ZZZanette)
(Change tool to Default tool)

G00 Z5.000000
G00 X70.959252 Y127.828690

G01 Z-0.125000 F100.0(Penetrate)
G02 X70.726053 Y128.408872 Z-0.125000 I3.039099 J1.558498 F400.000000
G02 X70.541150 Y129.227170 Z-0.125000 I5.890239 J1.760998
G02 X68.824109 Y127.995792 Z-0.125000 I-3.647756 J3.273638
G02 X66.605223 Y127.540350 Z-0.125000 I-2.218886 J5.177418
G02 X64.450063 Y127.905112 Z-0.125000 I0.000000 J6.549150
G02 X62.799051 Y128.866740 Z-0.125000 I1.646703 J4.725332
G02 X61.693418 Y130.370525 Z-0.125000 I2.930994 J3.313306
G02 X61.299650 Y132.211560 Z-0.125000 I4.106928 J1.841035
G02 X61.806149 Y134.432811 Z-0.125000 I5.123901 J-0.000000
G02 X63.130649 Y136.017730 Z-0.125000 I3.795221 J-1.825732
G02 X65.108201 Y136.936779 Z-0.125000 I3.402168 J-4.733464
G02 X68.450639 Y137.358540 Z-0.125000 I3.400178 J-13.491035
G01 X70.368142 Y137.358540 Z-0.125000
G01 X70.368142 Y138.252410 Z-0.125000
G03 X70.206399 Y139.273375 Z-0.125000 I-3.303178 J0.000000
G03 X69.805867 Y139.982490 Z-0.125000 I-1.949990 J-0.633746
G03 X69.165728 Y140.432563 Z-0.125000 I-1.177230 J-0.994104
G03 X68.061371 Y140.631270 Z-0.125000 I-1.104357 J-2.969492
G03 X67.062710 Y140.482664 Z-0.125000 I-0.000000 J-3.429894
G03 X66.403380 Y140.126660 Z-0.125000 I0.550029 J-1.807222
G03 X65.976696 Y139.546234 Z-0.125000 I1.024582 J-1.200239
G03 X65.812270 Y138.742600 Z-0.125000 I1.881676 J-0.803634
G01 X61.645666 Y138.742600 Z-0.125000
G02 X61.854592 Y140.030062 Z-0.125000 I4.071310 J0.000000
G02 X62.481870 Y141.251210 Z-0.125000 I4.278930 J-1.426311
G02 X63.448294 Y142.241060 Z-0.125000 I3.846342 J-2.788613
G02 X64.846310 Y143.053370 Z-0.125000 I3.934087 J-5.161535
G02 X66.411643 Y143.537896 Z-0.125000 I2.991193 J-6.892710
G02 X68.277631 Y143.716570 Z-0.125000 I1.865988 J-9.654410
G02 X71.003492 Y143.292818 Z-0.125000 I-0.000000 J-8.979171
G02 X72.847920 Y142.260420 Z-0.125000 I-1.600352 J-5.022882
G02 X74.067155 Y140.595357 Z-0.125000 I-2.856289 J-3.370426
G02 X74.549164 Y138.194740 Z-0.125000 I-5.737061 J-2.400617
G01 X74.549164 Y131.433020 Z-0.125000
G03 X74.755010 Y129.261134 Z-0.125000 I12.411213 J0.080607
G03 X75.169108 Y128.073790 Z-0.125000 I4.055055 J0.748358
G01 X75.169108 Y127.828690 Z-0.125000
G01 X70.959252 Y127.828690 Z-0.125000
G00 Z5.000000

(End cutting path id: path14581)


(Start cutting path id: path14583)
(ZZZanette)
(Change tool to Default tool)

G00 Z5.000000
G00 X84.511529 Y135.772630

G01 Z-0.125000 F100.0(Penetrate)
G02 X84.753381 Y138.037539 Z-0.125000 I10.726197 J0.000000 F400.000000
G02 X85.405402 Y139.910400 Z-0.125000 I7.947142 J-1.716803
G02 X86.510996 Y141.531423 Z-0.125000 I6.251169 J-3.075977
G02 X87.971685 Y142.721770 Z-0.125000 I4.745279 J-4.331599
G02 X89.731929 Y143.447553 Z-0.125000 I3.422762 J-5.803784
G02 X91.878777 Y143.716570 Z-0.125000 I2.146848 J-8.431779
G02 X94.819666 Y143.182819 Z-0.125000 I-0.000000 J-8.368808
G02 X97.025759 Y141.784650 Z-0.125000 I-2.245642 J-5.982793
G02 X98.520160 Y139.614942 Z-0.125000 I-4.588896 J-4.760125
G02 X99.260443 Y136.536750 Z-0.125000 I-8.784867 J-3.740811
G01 X99.289283 Y135.469870 Z-0.125000
G02 X98.720754 Y132.101794 Z-0.125000 I-10.260839 J0.000000
G02 X97.285276 Y129.702940 Z-0.125000 I-6.492270 J2.256063
G02 X95.018365 Y128.142404 Z-0.125000 I-4.613835 J4.275501
G02 X91.907617 Y127.540350 Z-0.125000 I-3.110748 J7.735421
G02 X88.795089 Y128.141254 Z-0.125000 I0.000000 J8.361501
G02 X86.515541 Y129.702940 Z-0.125000 I2.364909 J5.896527
G02 X85.090176 Y132.092425 Z-0.125000 I4.906463 J4.546650
G02 X84.511534 Y135.585210 Z-0.125000 I10.252212 J3.492785
G01 X84.511529 Y135.772630 Z-0.125000
G00 Z5.000000

(End cutting path id: path14583)


(Start cutting path id: path14583)
(ZZZanette)
(Change tool to Default tool)

G00 Z5.000000
G00 X88.678133 Y135.469870

G01 Z-0.125000 F100.0(Penetrate)
G03 X88.936998 Y133.331897 Z-0.125000 I8.958216 J0.000000 F400.000000
G03 X89.514337 Y132.067380 Z-0.125000 I3.624445 J0.890752
G03 X90.515738 Y131.221049 Z-0.125000 I2.173938 J1.556652
G03 X91.907612 Y130.899580 Z-0.125000 I1.391874 J2.852489
G03 X93.263334 Y131.212616 Z-0.125000 I0.000000 J3.092255
G03 X94.272052 Y132.052970 Z-0.125000 I-1.207076 J2.474496
G03 X94.844821 Y133.311236 Z-0.125000 I-2.780088 J2.025005
G03 X95.122673 Y135.772630 Z-0.125000 I-10.763370 J2.461394
G03 X94.862748 Y137.866680 Z-0.125000 I-8.565168 J-0.000000
G03 X94.272052 Y139.146290 Z-0.125000 I-3.704995 J-0.934162
G03 X93.253905 Y140.018298 Z-0.125000 I-2.255968 J-1.603650
G03 X91.878777 Y140.342920 Z-0.125000 I-1.375128 J-2.750274
G03 X90.519585 Y140.018567 Z-0.125000 I-0.000000 J-3.010003
G03 X89.514337 Y139.146290 Z-0.125000 I1.233047 J-2.436397
G03 X88.948556 Y137.878099 Z-0.125000 I2.910976 J-2.058982
G03 X88.678133 Y135.469870 Z-0.125000 I10.587919 J-2.408229
G01 X88.678133 Y135.469870 Z-0.125000
G00 Z5.000000

(End cutting path id: path14583)


(Start cutting path id: path14585)
(ZZZanette)
(Change tool to Default tool)

G00 Z5.000000
G00 X105.719410 Y143.428220

G01 Z-0.125000 F100.0(Penetrate)
G01 X105.849160 Y141.626060 Z-0.125000 F400.000000
G02 X107.792249 Y143.153387 Z-0.125000 I4.234681 J-3.387749
G02 X110.332950 Y143.716570 Z-0.125000 I2.540701 J-5.449373
G02 X112.609716 Y143.283678 Z-0.125000 I-0.000000 J-6.203697
G02 X114.023780 Y142.260420 Z-0.125000 I-1.291453 J-3.273380
G02 X114.864087 Y140.668163 Z-0.125000 I-3.348827 J-2.785192
G02 X115.263670 Y137.906400 Z-0.125000 I-10.063805 J-2.865860
G01 X115.263670 Y127.828690 Z-0.125000
G01 X111.097070 Y127.828690 Z-0.125000
G01 X111.097070 Y137.805470 Z-0.125000
G03 X110.912952 Y139.056933 Z-0.125000 I-4.345195 J-0.000000
G03 X110.520370 Y139.722980 Z-0.125000 I-1.554466 J-0.467513
G03 X109.860594 Y140.134632 Z-0.125000 I-1.129454 J-1.075679
G03 X108.602870 Y140.328500 Z-0.125000 I-1.257724 J-3.982835
G03 X107.075227 Y139.924739 Z-0.125000 I0.000000 J-3.091828
G03 X105.964500 Y138.829100 Z-0.125000 I1.489355 J-2.620695
G01 X105.964500 Y127.828690 Z-0.125000
G01 X101.797900 Y127.828690 Z-0.125000
G01 X101.797900 Y143.428220 Z-0.125000
G01 X105.719410 Y143.428220 Z-0.125000
G00 Z5.000000

(End cutting path id: path14585)


(Start cutting path id: path14587)
(ZZZanette)
(Change tool to Default tool)

G00 Z5.000000
G00 X117.829950 Y135.743800

G01 Z-0.125000 F100.0(Penetrate)
G02 X118.322849 Y139.164843 Z-0.125000 I12.118593 J-0.000000 F400.000000
G02 X119.531200 Y141.525140 Z-0.125000 I6.842313 J-2.013458
G02 X121.533591 Y143.127938 Z-0.125000 I4.399952 J-3.444701
G02 X124.144740 Y143.716570 Z-0.125000 I2.611149 J-5.497159
G02 X126.477184 Y143.225679 Z-0.125000 I0.000000 J-5.786685
G02 X128.138330 Y141.957660 Z-0.125000 I-1.792985 J-4.070956
G01 X128.311340 Y143.428220 Z-0.125000
G01 X132.088680 Y143.428220 Z-0.125000
G01 X132.088680 Y128.347720 Z-0.125000
G02 X131.833214 Y126.373134 Z-0.125000 I-7.758863 J-0.000000
G02 X131.151550 Y124.786640 Z-0.125000 I-5.643522 J1.485143
G02 X130.050369 Y123.471680 Z-0.125000 I-4.908091 J2.991600
G02 X128.542020 Y122.479870 Z-0.125000 I-4.217249 J4.770756
G02 X126.806048 Y121.906970 Z-0.125000 I-3.230356 J6.871886
G02 X124.591670 Y121.686920 Z-0.125000 I-2.214378 J11.031679
G02 X122.911035 Y121.858957 Z-0.125000 I-0.000000 J8.295105
G02 X121.246860 Y122.378950 Z-0.125000 I1.790005 J8.651688
G02 X119.739695 Y123.215927 Z-0.125000 I2.941735 J7.072737
G02 X118.781500 Y124.137860 Z-0.125000 I2.646665 J3.709673
G01 X120.626910 Y126.675310 Z-0.125000
G03 X122.382917 Y125.375026 Z-0.125000 I4.009142 J3.578398
G03 X124.404250 Y124.930810 Z-0.125000 I2.021333 J4.376763
G03 X125.956464 Y125.192018 Z-0.125000 I0.000000 J4.742570
G03 X126.984950 Y125.824690 Z-0.125000 I-0.913471 J2.637262
G03 X127.638106 Y126.819602 Z-0.125000 I-1.812743 J1.901912
G03 X127.907660 Y128.333300 Z-0.125000 I-4.115354 J1.513698
G01 X127.907660 Y129.169500 Z-0.125000
G02 X126.266641 Y127.982832 Z-0.125000 I-3.470428 J3.071184
G02 X124.115900 Y127.540350 Z-0.125000 I-2.150741 J5.005736
G02 X121.582957 Y128.117869 Z-0.125000 I0.000000 J5.843377
G02 X119.560030 Y129.731780 Z-0.125000 I2.513283 J5.224986
G02 X118.331740 Y132.110937 Z-0.125000 I5.620895 J4.408549
G02 X117.829950 Y135.570790 Z-0.125000 I11.676983 J3.459853
G01 X117.829950 Y135.743800 Z-0.125000
G00 Z5.000000

(End cutting path id: path14587)


(Start cutting path id: path14587)
(ZZZanette)
(Change tool to Default tool)

G00 Z5.000000
G00 X121.996560 Y135.441030

G01 Z-0.125000 F100.0(Penetrate)
G03 X122.252757 Y133.402673 Z-0.125000 I8.236897 J-0.000000 F400.000000
G03 X122.847180 Y132.110630 Z-0.125000 I3.824795 J0.976894
G03 X123.862217 Y131.232600 Z-0.125000 I2.304003 J1.637792
G03 X125.182780 Y130.914000 Z-0.125000 I1.320563 J2.577494
G03 X126.848867 Y131.323937 Z-0.125000 I0.000000 J3.590666
G03 X127.907660 Y132.341310 Z-0.125000 I-1.220233 J2.329548
G01 X127.907660 Y138.901190 Z-0.125000
G03 X126.839697 Y139.924126 Z-0.125000 I-2.333180 J-1.366927
G03 X125.211620 Y140.328500 Z-0.125000 I-1.628077 J-3.075267
G03 X123.880358 Y140.004006 Z-0.125000 I0.000000 J-2.893050
G03 X122.847180 Y139.103030 Z-0.125000 I1.332439 J-2.570828
G03 X122.266152 Y137.793165 Z-0.125000 I3.128454 J-2.171514
G03 X121.996560 Y135.441030 Z-0.125000 I10.126165 J-2.352135
G01 X121.996560 Y135.441030 Z-0.125000
G00 Z5.000000

(End cutting path id: path14587)


(Start cutting path id: path14575)
(ZZZanette)
(Change tool to Default tool)

G00 Z5.000000
G00 X115.624100 Y157.355350

G01 Z-0.125000 F100.0(Penetrate)
G02 X115.390906 Y157.935522 Z-0.125000 I3.039044 J1.558465 F400.000000
G02 X115.206000 Y158.753830 Z-0.125000 I5.890496 J1.761067
G02 X113.488955 Y157.522444 Z-0.125000 I-3.647773 J3.273639
G02 X111.270070 Y157.067000 Z-0.125000 I-2.218885 J5.177390
G02 X109.114915 Y157.431764 Z-0.125000 I-0.000000 J6.549086
G02 X107.463900 Y158.393400 Z-0.125000 I1.646718 J4.725338
G02 X106.358267 Y159.897184 Z-0.125000 I2.931003 J3.313313
G02 X105.964500 Y161.738210 Z-0.125000 I4.106897 J1.841026
G02 X106.471000 Y163.959469 Z-0.125000 I5.123924 J0.000000
G02 X107.795500 Y165.544385 Z-0.125000 I3.795199 J-1.825720
G02 X109.773055 Y166.463436 Z-0.125000 I3.402174 J-4.733470
G02 X113.115490 Y166.885196 Z-0.125000 I3.400167 J-13.490980
G01 X115.032990 Y166.885196 Z-0.125000
G01 X115.032990 Y167.779069 Z-0.125000
G03 X114.871249 Y168.800033 Z-0.125000 I-3.303200 J0.000000
G03 X114.470720 Y169.509147 Z-0.125000 I-1.949990 J-0.633741
G03 X113.830580 Y169.959219 Z-0.125000 I-1.177231 J-0.994110
G03 X112.726220 Y170.157926 Z-0.125000 I-1.104360 J-2.969510
G03 X111.727562 Y170.009321 Z-0.125000 I0.000000 J-3.429907
G03 X111.068230 Y169.653320 Z-0.125000 I0.550031 J-1.807244
G03 X110.641545 Y169.072889 Z-0.125000 I1.024607 J-1.200254
G03 X110.477120 Y168.269258 Z-0.125000 I1.881671 J-0.803631
G01 X106.310520 Y168.269258 Z-0.125000
G02 X106.519445 Y169.556719 Z-0.125000 I4.071328 J0.000000
G02 X107.146720 Y170.777871 Z-0.125000 I4.278975 J-1.426318
G02 X108.113141 Y171.767724 Z-0.125000 I3.846306 J-2.788558
G02 X109.511160 Y172.580035 Z-0.125000 I3.934056 J-5.161483
G02 X111.076497 Y173.064559 Z-0.125000 I2.991208 J-6.892799
G02 X112.942480 Y173.243232 Z-0.125000 I1.865983 J-9.654422
G02 X115.668339 Y172.819481 Z-0.125000 I0.000000 J-8.979170
G02 X117.512770 Y171.787083 Z-0.125000 I-1.600357 J-5.022905
G02 X118.732002 Y170.122020 Z-0.125000 I-2.856294 J-3.370422
G02 X119.214010 Y167.721400 Z-0.125000 I-5.737085 J-2.400620
G01 X119.214010 Y160.959680 Z-0.125000
G03 X119.419847 Y158.787797 Z-0.125000 I12.410472 J0.080491
G03 X119.833960 Y157.600440 Z-0.125000 I4.054940 J0.748342
G01 X119.833960 Y157.355350 Z-0.125000
G01 X115.624100 Y157.355350 Z-0.125000
G00 Z5.000000

(End cutting path id: path14575)


(Start cutting path id: path14575)
(ZZZanette)
(Change tool to Default tool)

G00 Z5.000000
G00 X112.178360 Y160.253230

G01 Z-0.125000 F100.0(Penetrate)
G03 X113.075472 Y160.358208 Z-0.125000 I-0.000000 J3.885725 F400.000000
G03 X113.879610 Y160.656910 Z-0.125000 I-0.809175 J3.410147
G03 X114.572104 Y161.161364 Z-0.125000 I-1.487016 J2.768856
G03 X115.032990 Y161.767050 Z-0.125000 I-1.720013 J1.787007
G01 X115.032990 Y164.448670 Z-0.125000
G01 X113.475920 Y164.448670 Z-0.125000
G03 X111.012167 Y163.718926 Z-0.125000 I-0.000000 J-4.523919
G03 X110.145520 Y162.286070 Z-0.125000 I1.046366 J-1.611402
G01 X110.131120 Y162.040980 Z-0.125000
G03 X110.277264 Y161.326522 Z-0.125000 I1.819471 J-0.000000
G03 X110.678980 Y160.757840 Z-0.125000 I1.525341 J0.651272
G03 X111.284011 Y160.399690 Z-0.125000 I1.143315 J1.241308
G03 X112.178380 Y160.253230 Z-0.125000 I0.894369 J2.657530
G01 X112.178360 Y160.253230 Z-0.125000
G00 Z5.000000

(End cutting path id: path14575)


(Start cutting path id: path14573)
(ZZZanette)
(Change tool to Default tool)

G00 Z5.000000
G00 X104.018160 Y165.010945

G01 Z-0.125000 F100.0(Penetrate)
G02 X103.538197 Y161.567453 Z-0.125000 I-12.592629 J0.000000 F400.000000
G02 X102.374590 Y159.229600 Z-0.125000 I-6.833453 J1.942672
G02 X100.456989 Y157.645421 Z-0.125000 I-4.271571 J3.217920
G02 X97.962887 Y157.067000 Z-0.125000 I-2.494102 J5.087967
G02 X95.799030 Y157.512690 Z-0.125000 I-0.000000 J5.475691
G02 X94.142298 Y158.710580 Z-0.125000 I1.852987 J4.307367
G01 X94.142298 Y151.357750 Z-0.125000
G01 X89.975694 Y151.357750 Z-0.125000
G01 X89.975694 Y172.954886 Z-0.125000
G01 X93.839535 Y172.954886 Z-0.125000
G01 X93.983708 Y171.426650 Z-0.125000
G02 X95.724114 Y172.759457 Z-0.125000 I3.815414 J-3.179511
G02 X97.934052 Y173.243232 Z-0.125000 I2.209938 J-4.805737
G02 X100.524991 Y172.658174 Z-0.125000 I-0.000000 J-6.029533
G02 X102.417840 Y171.109469 Z-0.125000 I-2.196568 J-4.615764
G02 X103.538707 Y168.815889 Z-0.125000 I-5.436915 J-4.077681
G02 X104.018160 Y165.227204 Z-0.125000 I-13.190858 J-3.588685
G01 X104.018160 Y165.010945 Z-0.125000
G00 Z5.000000

(End cutting path id: path14573)


(Start cutting path id: path14573)
(ZZZanette)
(Change tool to Default tool)

G00 Z5.000000
G00 X99.851555 Y165.313708

G01 Z-0.125000 F100.0(Penetrate)
G03 X99.610833 Y167.418580 Z-0.125000 I-9.322856 J-0.000000 F400.000000
G03 X99.073020 Y168.672943 Z-0.125000 I-3.769025 J-0.873508
G03 X98.133854 Y169.533591 Z-0.125000 I-2.119057 J-1.369633
G03 X96.838336 Y169.855163 Z-0.125000 I-1.295518 J-2.448845
G03 X95.150483 Y169.417387 Z-0.125000 I-0.000000 J-3.472665
G03 X94.142298 Y168.355762 Z-0.125000 I1.189900 J-2.139532
G01 X94.142298 Y161.968890 Z-0.125000
G03 X95.181933 Y160.870174 Z-0.125000 I2.309215 J1.143819
G03 X96.867171 Y160.426240 Z-0.125000 I1.685238 J2.976735
G03 X98.778927 Y161.498868 Z-0.125000 I0.000000 J2.239984
G03 X99.851555 Y165.313708 Z-0.125000 I-6.247489 J3.814840
G01 X99.851555 Y165.313708 Z-0.125000
G00 Z5.000000

(End cutting path id: path14573)


(Start cutting path id: path14557)
(ZZZanette)
(Change tool to Default tool)

G00 Z5.000000
G00 X99.145101 Y194.523190

G01 Z-0.125000 F100.0(Penetrate)
G03 X99.403966 Y192.385221 Z-0.125000 I8.958190 J-0.000000 F400.000000
G03 X99.981305 Y191.120704 Z-0.125000 I3.624447 J0.890754
G03 X100.982707 Y190.274370 Z-0.125000 I2.173942 J1.556651
G03 X102.374580 Y189.952901 Z-0.125000 I1.391873 J2.852481
G03 X103.730304 Y190.265936 Z-0.125000 I0.000000 J3.092271
G03 X104.739020 Y191.106286 Z-0.125000 I-1.207066 J2.474486
G03 X105.311795 Y192.364556 Z-0.125000 I-2.780080 J2.025016
G03 X105.589650 Y194.825954 Z-0.125000 I-10.763295 J2.461398
G03 X105.329722 Y196.919997 Z-0.125000 I-8.565033 J0.000000
G03 X104.739020 Y198.199606 Z-0.125000 I-3.704972 J-0.934169
G03 X103.720874 Y199.071620 Z-0.125000 I-2.255977 J-1.603643
G03 X102.345750 Y199.396243 Z-0.125000 I-1.375124 J-2.750243
G03 X100.986554 Y199.071888 Z-0.125000 I0.000000 J-3.010002
G03 X99.981305 Y198.199606 Z-0.125000 I1.233052 J-2.436397
G03 X99.415524 Y196.931415 Z-0.125000 I2.910977 J-2.058983
G03 X99.145101 Y194.523190 Z-0.125000 I10.587890 J-2.408225
G01 X99.145101 Y194.523190 Z-0.125000
G00 Z5.000000

(End cutting path id: path14557)


(Start cutting path id: path14557)
(ZZZanette)
(Change tool to Default tool)

G00 Z5.000000
G00 X94.978497 Y194.825954

G01 Z-0.125000 F100.0(Penetrate)
G02 X95.220349 Y197.090861 Z-0.125000 I10.726185 J-0.000000 F400.000000
G02 X95.872370 Y198.963723 Z-0.125000 I7.947154 J-1.716806
G02 X96.977964 Y200.584748 Z-0.125000 I6.251195 J-3.075986
G02 X98.438653 Y201.775100 Z-0.125000 I4.745307 J-4.331614
G02 X100.198897 Y202.500879 Z-0.125000 I3.422757 J-5.803809
G02 X102.345750 Y202.769895 Z-0.125000 I2.146853 J-8.431850
G02 X105.286637 Y202.236144 Z-0.125000 I0.000000 J-8.368795
G02 X107.492730 Y200.837974 Z-0.125000 I-2.245644 J-5.982794
G02 X108.987133 Y198.668265 Z-0.125000 I-4.588897 J-4.760133
G02 X109.727420 Y195.590072 Z-0.125000 I-8.784871 J-3.740821
G01 X109.756220 Y194.523190 Z-0.125000
G02 X109.187690 Y191.155114 Z-0.125000 I-10.260819 J-0.000000
G02 X107.752210 Y188.756264 Z-0.125000 I-6.492244 J2.256059
G02 X105.485304 Y187.195723 Z-0.125000 I-4.613824 J4.275461
G02 X102.374550 Y186.593666 Z-0.125000 I-3.110754 J7.735407
G02 X99.262023 Y187.194572 Z-0.125000 I0.000000 J8.361471
G02 X96.982474 Y188.756264 Z-0.125000 I2.364918 J5.896526
G02 X95.557109 Y191.145746 Z-0.125000 I4.906450 J4.546645
G02 X94.978467 Y194.638529 Z-0.125000 I10.252196 J3.492783
G01 X94.978497 Y194.825954 Z-0.125000
G00 Z5.000000

(End cutting path id: path14557)


(Start cutting path id: path14555)
(ZZZanette)
(Change tool to Default tool)

G00 Z5.000000
G00 X82.478689 Y194.494356

G01 Z-0.125000 F100.0(Penetrate)
G03 X82.716814 Y192.373907 Z-0.125000 I9.560111 J-0.000000 F400.000000
G03 X83.242806 Y191.135121 Z-0.125000 I3.708429 J0.843547
G03 X84.178460 Y190.284552 Z-0.125000 I2.108781 J1.379820
G03 X85.463073 Y189.967318 Z-0.125000 I1.284613 J2.442349
G03 X87.110469 Y190.422239 Z-0.125000 I-0.000000 J3.210301
G03 X88.187946 Y191.596475 Z-0.125000 I-1.432462 J2.395888
G01 X88.187946 Y197.752669 Z-0.125000
G03 X87.122870 Y198.927317 Z-0.125000 I-2.495522 J-1.192550
G03 X85.491908 Y199.381826 Z-0.125000 I-1.630962 J-2.699026
G03 X83.558195 Y198.302320 Z-0.125000 I-0.000000 J-2.271677
G03 X82.478689 Y194.494356 Z-0.125000 I6.176554 J-3.807964
G01 X82.478689 Y194.494356 Z-0.125000
G00 Z5.000000

(End cutting path id: path14555)


(Start cutting path id: path14555)
(ZZZanette)
(Change tool to Default tool)

G00 Z5.000000
G00 X78.312084 Y194.797119

G01 Z-0.125000 F100.0(Penetrate)
G02 X78.791726 Y198.284252 Z-0.125000 I12.916050 J-0.000000 F400.000000
G02 X79.941241 Y200.607297 Z-0.125000 I6.743006 J-1.890719
G02 X81.874026 Y202.186839 Z-0.125000 I4.253946 J-3.232998
G02 X84.425026 Y202.769895 Z-0.125000 I2.551000 J-5.289072
G02 X86.499713 Y202.322695 Z-0.125000 I0.000000 J-5.036128
G02 X88.187946 Y201.068652 Z-0.125000 I-2.037121 J-4.505836
G01 X88.187946 Y209.027010 Z-0.125000
G01 X92.368967 Y209.027010 Z-0.125000
G01 X92.368967 Y186.882013 Z-0.125000
G01 X88.606048 Y186.882013 Z-0.125000
G01 X88.404206 Y188.540004 Z-0.125000
G02 X86.603201 Y187.101201 Z-0.125000 I-4.087753 J3.270204
G02 X84.396192 Y186.593666 Z-0.125000 I-2.207009 J4.544803
G02 X81.923154 Y187.165524 Z-0.125000 I0.000000 J5.633340
G02 X79.970076 Y188.756264 Z-0.125000 I2.435435 J4.984522
G02 X78.810057 Y191.101313 Z-0.125000 I5.467639 J4.164097
G02 X78.312084 Y194.797119 Z-0.125000 I13.465582 J3.695806
G01 X78.312084 Y194.797119 Z-0.125000
G00 Z5.000000

(End cutting path id: path14555)


(Start cutting path id: path14559)
(ZZZanette)
(Change tool to Default tool)

G00 Z5.000000
G00 X117.945290 Y189.779893

G01 Z-0.125000 F100.0(Penetrate)
G03 X118.842401 Y189.884873 Z-0.125000 I-0.000000 J3.885654 F400.000000
G03 X119.646530 Y190.183578 Z-0.125000 I-0.809161 J3.410029
G03 X120.339032 Y190.688027 Z-0.125000 I-1.486954 J2.768829
G03 X120.799920 Y191.293711 Z-0.125000 I-1.719954 J1.786973
G01 X120.799920 Y193.975332 Z-0.125000
G01 X119.242850 Y193.975332 Z-0.125000
G03 X116.779096 Y193.245589 Z-0.125000 I0.000000 J-4.523925
G03 X115.912450 Y191.812735 Z-0.125000 I1.046363 J-1.611399
G01 X115.898050 Y191.567640 Z-0.125000
G03 X116.044193 Y190.853186 Z-0.125000 I1.819462 J0.000000
G03 X116.445910 Y190.284499 Z-0.125000 I1.525372 J0.651285
G03 X117.050941 Y189.926352 Z-0.125000 I1.143311 J1.241314
G03 X117.945310 Y189.779893 Z-0.125000 I0.894369 J2.657553
G01 X117.945290 Y189.779893 Z-0.125000
G00 Z5.000000

(End cutting path id: path14559)


(Start cutting path id: path14559)
(ZZZanette)
(Change tool to Default tool)

G00 Z5.000000
G00 X121.391030 Y186.882013

G01 Z-0.125000 F100.0(Penetrate)
G02 X121.157830 Y187.462191 Z-0.125000 I3.038897 J1.558430 F400.000000
G02 X120.972930 Y188.280492 Z-0.125000 I5.889972 J1.760911
G02 X119.255886 Y187.049109 Z-0.125000 I-3.647768 J3.273642
G02 X117.037000 Y186.593666 Z-0.125000 I-2.218886 J5.177404
G02 X114.881844 Y186.958429 Z-0.125000 I0.000000 J6.549116
G02 X113.230830 Y187.920060 Z-0.125000 I1.646712 J4.725343
G02 X112.125197 Y189.423847 Z-0.125000 I2.931012 J3.313316
G02 X111.731430 Y191.264877 Z-0.125000 I4.106915 J1.841030
G02 X112.237930 Y193.486134 Z-0.125000 I5.123914 J0.000000
G02 X113.562430 Y195.071048 Z-0.125000 I3.795193 J-1.825719
G02 X115.539976 Y195.990098 Z-0.125000 I3.402150 J-4.733410
G02 X118.882420 Y196.411859 Z-0.125000 I3.400176 J-13.491016
G01 X120.799920 Y196.411859 Z-0.125000
G01 X120.799920 Y197.305732 Z-0.125000
G03 X120.638176 Y198.326695 Z-0.125000 I-3.303142 J-0.000000
G03 X120.237640 Y199.035810 Z-0.125000 I-1.949982 J-0.633749
G03 X119.597508 Y199.485881 Z-0.125000 I-1.177213 J-0.994077
G03 X118.493150 Y199.684589 Z-0.125000 I-1.104358 J-2.969489
G03 X117.494483 Y199.535983 Z-0.125000 I0.000000 J-3.429937
G03 X116.835160 Y199.179983 Z-0.125000 I0.550014 J-1.807187
G03 X116.408475 Y198.599552 Z-0.125000 I1.024607 J-1.200254
G03 X116.244050 Y197.795921 Z-0.125000 I1.881671 J-0.803631
G01 X112.077440 Y197.795921 Z-0.125000
G02 X112.286367 Y199.083381 Z-0.125000 I4.071280 J-0.000000
G02 X112.913650 Y200.304534 Z-0.125000 I4.278956 J-1.426328
G02 X113.880071 Y201.294387 Z-0.125000 I3.846306 J-2.788558
G02 X115.278090 Y202.106698 Z-0.125000 I3.934056 J-5.161483
G02 X116.843418 Y202.591221 Z-0.125000 I2.991175 J-6.892677
G02 X118.709410 Y202.769895 Z-0.125000 I1.865992 J-9.654472
G02 X121.435269 Y202.346144 Z-0.125000 I-0.000000 J-8.979170
G02 X123.279700 Y201.313746 Z-0.125000 I-1.600357 J-5.022905
G02 X124.498932 Y199.648682 Z-0.125000 I-2.856298 J-3.370425
G02 X124.980940 Y197.248063 Z-0.125000 I-5.737083 J-2.400619
G01 X124.980940 Y190.486342 Z-0.125000
G03 X125.186774 Y188.314461 Z-0.125000 I12.410646 J0.080492
G03 X125.600880 Y187.127107 Z-0.125000 I4.054970 J0.748337
G01 X125.600880 Y186.882013 Z-0.125000
G01 X121.391030 Y186.882013 Z-0.125000
G00 Z5.000000

(End cutting path id: path14559)


(Start cutting path id: path14561)
(ZZZanette)
(Change tool to Default tool)

G00 Z5.000000
G00 X134.698210 Y189.952901

G01 Z-0.125000 F100.0(Penetrate)
G03 X135.784133 Y190.131691 Z-0.125000 I-0.000000 J3.387198 F400.000000
G03 X136.572460 Y190.587263 Z-0.125000 I-0.743262 J2.195999
G03 X137.103829 Y191.310437 Z-0.125000 I-1.386475 J1.575549
G03 X137.322160 Y192.274089 Z-0.125000 I-2.324972 J1.033320
G01 X141.229250 Y192.274089 Z-0.125000
G02 X141.000908 Y190.751948 Z-0.125000 I-5.521734 J0.050137
G02 X140.364220 Y189.361791 Z-0.125000 I-5.223802 J1.551608
G02 X139.369374 Y188.211724 Z-0.125000 I-4.639764 J3.008228
G02 X138.028610 Y187.314532 Z-0.125000 I-4.102394 J4.680205
G02 X136.513845 Y186.784232 Z-0.125000 I-2.974621 J6.068241
G02 X134.770300 Y186.593666 Z-0.125000 I-1.743545 J7.880812
G02 X131.688540 Y187.189416 Z-0.125000 I-0.000000 J8.268704
G02 X129.493560 Y188.713012 Z-0.125000 I2.233171 J5.560140
G02 X128.126598 Y191.064535 Z-0.125000 I4.853732 J4.394594
G02 X127.561640 Y194.595277 Z-0.125000 I10.750320 J3.530742
G01 X127.561640 Y194.869206 Z-0.125000
G02 X128.112451 Y198.263462 Z-0.125000 I10.733594 J-0.000000
G02 X129.479140 Y200.621715 Z-0.125000 I6.397799 J-2.132596
G02 X131.666856 Y202.166508 Z-0.125000 I4.434021 J-3.957899
G02 X134.741460 Y202.769895 Z-0.125000 I3.074604 J-7.531747
G02 X137.478853 Y202.296016 Z-0.125000 I-0.000000 J-8.143302
G02 X139.427090 Y201.097486 Z-0.125000 I-1.855731 J-5.199248
G02 X140.715295 Y199.225924 Z-0.125000 I-3.617259 J-3.868896
G02 X141.229250 Y196.671370 Z-0.125000 I-6.452189 J-2.627106
G01 X137.322160 Y196.671370 Z-0.125000
G03 X137.099518 Y197.801656 Z-0.125000 I-3.389597 J-0.080608
G03 X136.572460 Y198.632125 Z-0.125000 I-2.308712 J-0.882742
G03 X135.760625 Y199.185349 Z-0.125000 I-1.664424 J-1.570198
G03 X134.669380 Y199.396243 Z-0.125000 I-1.091245 J-2.717809
G03 X133.368126 Y199.098082 Z-0.125000 I0.000000 J-2.988593
G03 X132.463530 Y198.329362 Z-0.125000 I1.028952 J-2.127429
G03 X131.972128 Y197.200141 Z-0.125000 I2.548832 J-1.780706
G03 X131.728240 Y194.898040 Z-0.125000 I10.743040 J-2.302101
G01 X131.728240 Y194.465521 Z-0.125000
G03 X131.973136 Y192.134903 Z-0.125000 I11.212410 J-0.000000
G03 X132.463530 Y191.005365 Z-0.125000 I3.028264 J0.643512
G03 X133.355386 Y190.253291 Z-0.125000 I1.857105 J1.297424
G03 X134.698210 Y189.952901 Z-0.125000 I1.342824 J2.851197
G01 X134.698210 Y189.952901 Z-0.125000
G00 Z5.000000

(End cutting path id: path14561)


(Start cutting path id: path14561)
(ZZZanette)
(Change tool to Default tool)

G00 Z5.000000
G00 X136.212030 Y186.968517

G01 Z-0.125000 F100.0(Penetrate)
G01 X136.053440 Y186.132312 Z-0.125000 F400.000000
G02 X137.617351 Y185.242498 Z-0.125000 I-0.479002 J-2.661128
G02 X138.216040 Y183.638117 Z-0.125000 I-1.850383 J-1.604381
G02 X137.867735 Y182.234207 Z-0.125000 I-3.003512 J-0.000000
G02 X136.889640 Y181.129504 Z-0.125000 I-2.762771 J1.460783
G02 X135.488261 Y180.489345 Z-0.125000 I-2.416408 J3.435815
G02 X133.184390 Y180.206796 Z-0.125000 I-2.303871 J9.251483
G01 X133.083470 Y182.614487 Z-0.125000
G03 X134.303326 Y183.009371 Z-0.125000 I-0.000000 J2.081598
G01 X134.698210 Y183.782290 Z-0.125000
G01 X134.557972 Y184.298821 Z-0.125000
G01 X134.208020 Y184.618494 Z-0.125000
G03 X133.716729 Y184.773094 Z-0.125000 I-0.877363 J-1.930191
G03 X132.650950 Y184.906840 Z-0.125000 I-1.679203 J-9.067707
G01 X133.097890 Y186.968517 Z-0.125000
G01 X136.212030 Y186.968517 Z-0.125000
G00 Z5.000000

(End cutting path id: path14561)


(Start cutting path id: path14563)
(ZZZanette)
(Change tool to Default tool)

G00 Z5.000000
G00 X149.202030 Y189.779893

G01 Z-0.125000 F100.0(Penetrate)
G03 X150.099141 Y189.884873 Z-0.125000 I-0.000000 J3.885654 F400.000000
G03 X150.903270 Y190.183578 Z-0.125000 I-0.809161 J3.410029
G03 X151.595772 Y190.688027 Z-0.125000 I-1.486954 J2.768829
G03 X152.056660 Y191.293711 Z-0.125000 I-1.719954 J1.786973
G01 X152.056660 Y193.975332 Z-0.125000
G01 X150.499590 Y193.975332 Z-0.125000
G03 X148.035836 Y193.245589 Z-0.125000 I0.000000 J-4.523925
G03 X147.169190 Y191.812735 Z-0.125000 I1.046363 J-1.611399
G01 X147.154790 Y191.567640 Z-0.125000
G03 X147.300933 Y190.853186 Z-0.125000 I1.819462 J-0.000000
G03 X147.702650 Y190.284499 Z-0.125000 I1.525372 J0.651285
G03 X148.307672 Y189.926354 Z-0.125000 I1.143284 J1.241262
G03 X149.202050 Y189.779893 Z-0.125000 I0.894378 J2.657579
G01 X149.202030 Y189.779893 Z-0.125000
G00 Z5.000000

(End cutting path id: path14563)


(Start cutting path id: path14563)
(ZZZanette)
(Change tool to Default tool)

G00 Z5.000000
G00 X152.647770 Y186.882013

G01 Z-0.125000 F100.0(Penetrate)
G02 X152.414567 Y187.462191 Z-0.125000 I3.039008 J1.558486 F400.000000
G02 X152.229660 Y188.280492 Z-0.125000 I5.890195 J1.761020
G02 X150.512624 Y187.049110 Z-0.125000 I-3.647746 J3.273600
G02 X148.293740 Y186.593666 Z-0.125000 I-2.218884 J5.177387
G02 X146.138575 Y186.958430 Z-0.125000 I0.000000 J6.549161
G02 X144.487560 Y187.920060 Z-0.125000 I1.646705 J4.725334
G02 X143.381927 Y189.423847 Z-0.125000 I2.931012 J3.313316
G02 X142.988160 Y191.264877 Z-0.125000 I4.106915 J1.841030
G02 X143.494660 Y193.486134 Z-0.125000 I5.123914 J-0.000000
G02 X144.819160 Y195.071048 Z-0.125000 I3.795193 J-1.825719
G02 X146.796715 Y195.990099 Z-0.125000 I3.402174 J-4.733470
G02 X150.139150 Y196.411859 Z-0.125000 I3.400167 J-13.490980
G01 X152.056660 Y196.411859 Z-0.125000
G01 X152.056660 Y197.305732 Z-0.125000
G03 X151.894916 Y198.326695 Z-0.125000 I-3.303142 J-0.000000
G03 X151.494380 Y199.035810 Z-0.125000 I-1.949982 J-0.633749
G03 X150.854240 Y199.485882 Z-0.125000 I-1.177231 J-0.994110
G03 X149.749880 Y199.684589 Z-0.125000 I-1.104360 J-2.969510
G03 X148.751222 Y199.535984 Z-0.125000 I0.000000 J-3.429907
G03 X148.091890 Y199.179983 Z-0.125000 I0.550031 J-1.807244
G03 X147.665205 Y198.599552 Z-0.125000 I1.024607 J-1.200254
G03 X147.500780 Y197.795921 Z-0.125000 I1.881671 J-0.803631
G01 X143.334180 Y197.795921 Z-0.125000
G02 X143.543105 Y199.083382 Z-0.125000 I4.071328 J0.000000
G02 X144.170380 Y200.304534 Z-0.125000 I4.278975 J-1.426318
G02 X145.136808 Y201.294389 Z-0.125000 I3.846384 J-2.788648
G02 X146.534820 Y202.106698 Z-0.125000 I3.934074 J-5.161506
G02 X148.100157 Y202.591222 Z-0.125000 I2.991208 J-6.892799
G02 X149.966140 Y202.769895 Z-0.125000 I1.865983 J-9.654422
G02 X152.692008 Y202.346142 Z-0.125000 I0.000000 J-8.979199
G02 X154.536430 Y201.313746 Z-0.125000 I-1.600340 J-5.022849
G02 X155.755670 Y199.648680 Z-0.125000 I-2.856292 J-3.370437
G02 X156.237680 Y197.248063 Z-0.125000 I-5.737045 J-2.400617
G01 X156.237680 Y190.486342 Z-0.125000
G03 X156.443514 Y188.314461 Z-0.125000 I12.410646 J0.080492
G03 X156.857620 Y187.127107 Z-0.125000 I4.054970 J0.748337
G01 X156.857620 Y186.882013 Z-0.125000
G01 X152.647770 Y186.882013 Z-0.125000
G00 Z5.000000

(End cutting path id: path14563)


(Start cutting path id: path14565)
(ZZZanette)
(Change tool to Default tool)

G00 Z5.000000
G00 X158.818380 Y194.825954

G01 Z-0.125000 F100.0(Penetrate)
G02 X159.060231 Y197.090861 Z-0.125000 I10.726221 J0.000000 F400.000000
G02 X159.712250 Y198.963723 Z-0.125000 I7.947172 J-1.716804
G02 X160.817840 Y200.584748 Z-0.125000 I6.251167 J-3.075959
G02 X162.278530 Y201.775100 Z-0.125000 I4.745297 J-4.331600
G02 X164.038777 Y202.500880 Z-0.125000 I3.422772 J-5.803844
G02 X166.185620 Y202.769895 Z-0.125000 I2.146843 J-8.431797
G02 X169.126517 Y202.236143 Z-0.125000 I0.000000 J-8.368837
G02 X171.332610 Y200.837974 Z-0.125000 I-2.245637 J-5.982786
G02 X172.827006 Y198.668267 Z-0.125000 I-4.588909 J-4.760121
G02 X173.567290 Y195.590072 Z-0.125000 I-8.784922 J-3.740826
G01 X173.596090 Y194.523190 Z-0.125000
G02 X173.027563 Y191.155112 Z-0.125000 I-10.260870 J-0.000000
G02 X171.592090 Y188.756264 Z-0.125000 I-6.492250 J2.256049
G02 X169.325175 Y187.195722 Z-0.125000 I-4.613852 J4.275508
G02 X166.214430 Y186.593666 Z-0.125000 I-3.110745 J7.735386
G02 X163.101904 Y187.194571 Z-0.125000 I0.000000 J8.361473
G02 X160.822350 Y188.756264 Z-0.125000 I2.364927 J5.896553
G02 X159.396990 Y191.145745 Z-0.125000 I4.906459 J4.546637
G02 X158.818350 Y194.638529 Z-0.125000 I10.252236 J3.492784
G01 X158.818380 Y194.825954 Z-0.125000
G00 Z5.000000

(End cutting path id: path14565)


(Start cutting path id: path14565)
(ZZZanette)
(Change tool to Default tool)

G00 Z5.000000
G00 X162.984980 Y194.523190

G01 Z-0.125000 F100.0(Penetrate)
G03 X163.243844 Y192.385220 Z-0.125000 I8.958233 J-0.000000 F400.000000
G03 X163.821180 Y191.120704 Z-0.125000 I3.624454 J0.890751
G03 X164.822586 Y190.274370 Z-0.125000 I2.173952 J1.556667
G03 X166.214460 Y189.952901 Z-0.125000 I1.391874 J2.852489
G03 X167.570184 Y190.265936 Z-0.125000 I0.000000 J3.092271
G03 X168.578900 Y191.106286 Z-0.125000 I-1.207066 J2.474486
G03 X169.151668 Y192.364555 Z-0.125000 I-2.780103 J2.025009
G03 X169.429520 Y194.825954 Z-0.125000 I-10.763430 J2.461399
G03 X169.169595 Y196.919998 Z-0.125000 I-8.565134 J0.000000
G03 X168.578900 Y198.199606 Z-0.125000 I-3.704989 J-0.934162
G03 X167.560753 Y199.071619 Z-0.125000 I-2.255969 J-1.603638
G03 X166.185620 Y199.396243 Z-0.125000 I-1.375133 J-2.750274
G03 X164.826433 Y199.071889 Z-0.125000 I0.000000 J-3.009978
G03 X163.821180 Y198.199606 Z-0.125000 I1.233066 J-2.436421
G03 X163.255402 Y196.931415 Z-0.125000 I2.910987 J-2.058980
G03 X162.984980 Y194.523190 Z-0.125000 I10.587943 J-2.408225
G01 X162.984980 Y194.523190 Z-0.125000
G00 Z5.000000

(End cutting path id: path14565)


(Start cutting path id: path14563)
(ZZZanette)
(Change tool to Default tool)

G00 Z5.000000
G00 X155.372640 Y208.839585

G01 Z-0.125000 F100.0(Penetrate)
G02 X155.113890 Y207.306146 Z-0.125000 I-4.673210 J0.000000 F400.000000
G02 X154.421100 Y206.100295 Z-0.125000 I-3.530333 J1.226323
G02 X153.342525 Y205.283129 Z-0.125000 I-2.481644 J2.155128
G02 X152.099910 Y205.004579 Z-0.125000 I-1.242615 J2.632384
G02 X151.556227 Y205.036450 Z-0.125000 I0.000000 J4.653214
G02 X151.119530 Y205.119917 Z-0.125000 I0.362331 J3.079839
G02 X150.712236 Y205.275415 Z-0.125000 I1.013670 J3.266249
G02 X149.951730 Y205.653358 Z-0.125000 I5.391816 J11.803673
G03 X149.191352 Y206.029880 Z-0.125000 I-5.889236 J-10.937141
G03 X148.870430 Y206.143547 Z-0.125000 I-0.825745 J-1.821499
G03 X148.534836 Y206.217630 Z-0.125000 I-0.640676 J-2.105093
G03 X148.149560 Y206.244468 Z-0.125000 I-0.385276 J-2.751996
G03 X147.683564 Y206.151269 Z-0.125000 I-0.000000 J-1.211591
G03 X147.284520 Y205.884035 Z-0.125000 I0.475924 J-1.142219
G03 X147.040800 Y205.482450 Z-0.125000 I0.778132 J-0.746994
G03 X146.938510 Y204.860406 Z-0.125000 I1.840243 J-0.622044
G01 X144.516400 Y205.004579 Z-0.125000
G02 X144.768633 Y206.513580 Z-0.125000 I4.639970 J0.000000
G02 X145.453520 Y207.729451 Z-0.125000 I3.650491 J-1.255453
G02 X146.536821 Y208.569932 Z-0.125000 I2.526000 J-2.137400
G02 X147.774710 Y208.854002 Z-0.125000 I1.237889 J-2.555132
G02 X148.202657 Y208.823589 Z-0.125000 I-0.000000 J-3.026056
G02 X148.582080 Y208.738664 Z-0.125000 I-0.351479 J-2.460367
G02 X148.961742 Y208.611580 Z-0.125000 I-0.725184 J-2.797132
G02 X149.836390 Y208.219640 Z-0.125000 I-6.331746 J-15.301743
G03 X150.709942 Y207.824661 Z-0.125000 I8.154810 J16.872047
G03 X151.033030 Y207.715034 Z-0.125000 I0.922173 J2.186873
G03 X151.367476 Y207.650795 Z-0.125000 I0.657539 J2.520615
G03 X151.725060 Y207.628534 Z-0.125000 I0.357584 J2.860797
G03 X152.193376 Y207.718723 Z-0.125000 I-0.000000 J1.260980
G03 X152.590100 Y207.974550 Z-0.125000 I-0.458809 J1.147023
G03 X152.855595 Y208.381540 Z-0.125000 I-0.748312 J0.778243
G03 X152.964950 Y208.998179 Z-0.125000 I-1.683898 J0.616639
G01 X155.372640 Y208.839585 Z-0.125000
G00 Z5.000000

(End cutting path id: path14563)


(Start cutting path id: path14577)
(ZZZanette)
(Change tool to Default tool)

G00 Z5.000000
G00 X131.209220 Y169.047793

G01 Z-0.125000 F100.0(Penetrate)
G03 X130.356923 Y169.138280 Z-0.125000 I-1.985837 J-14.645457 F400.000000
G03 X129.709820 Y169.163132 Z-0.125000 I-0.647103 J-8.412297
G03 X127.663952 Y168.666173 Z-0.125000 I-0.000000 J-4.459673
G03 X126.610100 Y167.562810 Z-0.125000 I1.074509 J-2.081255
G01 X126.610100 Y157.355350 Z-0.125000
G01 X122.443500 Y157.355350 Z-0.125000
G01 X122.443500 Y172.954886 Z-0.125000
G01 X126.379420 Y172.954886 Z-0.125000
G01 X126.494760 Y171.095052 Z-0.125000
G02 X128.060476 Y172.700800 Z-0.125000 I4.003867 J-2.337835
G02 X129.969330 Y173.243232 Z-0.125000 I1.908854 J-3.087472
G02 X130.653932 Y173.194044 Z-0.125000 I0.000000 J-4.788746
G02 X131.266890 Y173.055807 Z-0.125000 I-0.573764 J-3.972219
G01 X131.209220 Y169.047793 Z-0.125000
G00 Z5.000000

(End cutting path id: path14577)


(Start cutting path id: path14579)
(ZZZanette)
(Change tool to Default tool)

G00 Z5.000000
G00 X138.417880 Y160.253230

G01 Z-0.125000 F100.0(Penetrate)
G03 X139.314982 Y160.358207 Z-0.125000 I-0.000000 J3.885661 F400.000000
G03 X140.119120 Y160.656910 Z-0.125000 I-0.809183 J3.410165
G03 X140.811616 Y161.161363 Z-0.125000 I-1.487041 J2.768903
G03 X141.272510 Y161.767050 Z-0.125000 I-1.720056 J1.787067
G01 X141.272510 Y164.448670 Z-0.125000
G01 X139.715430 Y164.448670 Z-0.125000
G03 X137.251686 Y163.718927 Z-0.125000 I0.000000 J-4.523893
G03 X136.385040 Y162.286070 Z-0.125000 I1.046370 J-1.611403
G01 X136.370640 Y162.040980 Z-0.125000
G03 X136.516784 Y161.326522 Z-0.125000 I1.819471 J-0.000000
G03 X136.918500 Y160.757840 Z-0.125000 I1.525341 J0.651272
G03 X137.523523 Y160.399692 Z-0.125000 I1.143289 J1.241257
G03 X138.417900 Y160.253230 Z-0.125000 I0.894377 J2.657556
G01 X138.417880 Y160.253230 Z-0.125000
G00 Z5.000000

(End cutting path id: path14579)


(Start cutting path id: path14579)
(ZZZanette)
(Change tool to Default tool)

G00 Z5.000000
G00 X141.863620 Y157.355350

G01 Z-0.125000 F100.0(Penetrate)
G02 X141.630418 Y157.935523 Z-0.125000 I3.038917 J1.558454 F400.000000
G02 X141.445510 Y158.753830 Z-0.125000 I5.890197 J1.761019
G02 X139.728465 Y157.522443 Z-0.125000 I-3.647781 J3.273646
G02 X137.509590 Y157.067000 Z-0.125000 I-2.218875 J5.177354
G02 X135.354426 Y157.431765 Z-0.125000 I-0.000000 J6.549131
G02 X133.703410 Y158.393400 Z-0.125000 I1.646711 J4.725329
G02 X132.597777 Y159.897184 Z-0.125000 I2.931003 J3.313313
G02 X132.204010 Y161.738210 Z-0.125000 I4.106897 J1.841026
G02 X132.710510 Y163.959469 Z-0.125000 I5.123924 J-0.000000
G02 X134.035010 Y165.544385 Z-0.125000 I3.795199 J-1.825720
G02 X136.012565 Y166.463436 Z-0.125000 I3.402174 J-4.733470
G02 X139.355000 Y166.885196 Z-0.125000 I3.400167 J-13.490980
G01 X141.272510 Y166.885196 Z-0.125000
G01 X141.272510 Y167.779069 Z-0.125000
G03 X141.110766 Y168.800032 Z-0.125000 I-3.303142 J0.000000
G03 X140.710230 Y169.509147 Z-0.125000 I-1.949982 J-0.633749
G03 X140.070090 Y169.959219 Z-0.125000 I-1.177231 J-0.994110
G03 X138.965730 Y170.157926 Z-0.125000 I-1.104360 J-2.969510
G03 X137.967072 Y170.009321 Z-0.125000 I0.000000 J-3.429907
G03 X137.307740 Y169.653320 Z-0.125000 I0.550031 J-1.807244
G03 X136.881055 Y169.072889 Z-0.125000 I1.024607 J-1.200254
G03 X136.716630 Y168.269258 Z-0.125000 I1.881671 J-0.803631
G01 X132.550030 Y168.269258 Z-0.125000
G02 X132.758955 Y169.556719 Z-0.125000 I4.071328 J0.000000
G02 X133.386230 Y170.777871 Z-0.125000 I4.278975 J-1.426318
G02 X134.352658 Y171.767726 Z-0.125000 I3.846384 J-2.788648
G02 X135.750670 Y172.580035 Z-0.125000 I3.934074 J-5.161506
G02 X137.316007 Y173.064559 Z-0.125000 I2.991208 J-6.892799
G02 X139.181990 Y173.243232 Z-0.125000 I1.865983 J-9.654422
G02 X141.907858 Y172.819479 Z-0.125000 I0.000000 J-8.979199
G02 X143.752280 Y171.787083 Z-0.125000 I-1.600340 J-5.022849
G02 X144.971520 Y170.122018 Z-0.125000 I-2.856288 J-3.370435
G02 X145.453530 Y167.721400 Z-0.125000 I-5.737047 J-2.400618
G01 X145.453530 Y160.959680 Z-0.125000
G03 X145.659364 Y158.787796 Z-0.125000 I12.410681 J0.080492
G03 X146.073470 Y157.600440 Z-0.125000 I4.054983 J0.748338
G01 X146.073470 Y157.355350 Z-0.125000
G01 X141.863620 Y157.355350 Z-0.125000
G00 Z5.000000

(End cutting path id: path14579)


(Start cutting path id: path25123)
(ZZZanette)
(Change tool to Default tool)

G00 Z5.000000
G00 X142.306410 Y82.763880

G01 Z-0.125000 F100.0(Penetrate)
G03 X143.265524 Y83.987347 Z-0.125000 I-1.069483 J1.826076 F400.000000
G03 X143.909290 Y88.159750 Z-0.125000 I-14.960640 J4.444162
G03 X143.861549 Y91.962213 Z-0.125000 I-63.433981 J1.105101
G03 X143.720240 Y92.601130 Z-0.125000 I-1.876017 J-0.079833
G03 X142.827629 Y93.529158 Z-0.125000 I-1.631207 J-0.675668
G03 X140.261500 Y94.194090 Z-0.125000 I-3.130477 J-6.797128
G03 X138.778930 Y94.146943 Z-0.125000 I-0.522468 J-6.904377
G03 X137.864130 Y93.858540 Z-0.125000 I0.401753 J-2.869397
G03 X135.972364 Y91.797543 Z-0.125000 I1.821695 J-3.570827
G03 X135.384880 Y87.760790 Z-0.125000 I7.895547 J-3.210194
G03 X136.123884 Y84.868750 Z-0.125000 I9.743707 J0.949374
G03 X137.340110 Y83.177510 Z-0.125000 I4.385623 J1.870911
G03 X139.690392 Y82.169649 Z-0.125000 I2.685620 J3.018432
G03 X142.306410 Y82.763880 Z-0.125000 I0.369031 J4.430832
G01 X142.306410 Y82.763880 Z-0.125000
G00 Z5.000000

(End cutting path id: path25123)


(Start cutting path id: path25125)
(ZZZanette)
(Change tool to Default tool)

G00 Z5.000000
G00 X136.915790 Y79.974800

G01 Z-0.125000 F100.0(Penetrate)
G02 X132.491152 Y84.570098 Z-0.125000 I2.041055 J6.393061 F400.000000
G02 X133.275650 Y93.066640 Z-0.125000 I11.567883 J3.216409
G02 X135.148925 Y95.588941 Z-0.125000 I7.733389 J-3.786694
G02 X137.308640 Y96.812680 Z-0.125000 I3.658050 J-3.938254
G02 X140.520513 Y97.242512 Z-0.125000 I3.033188 J-10.450056
G02 X142.972640 Y96.719680 Z-0.125000 I-0.106974 J-6.513469
G01 X143.795930 Y96.367960 Z-0.125000
G01 X143.684040 Y97.601910 Z-0.125000
G03 X143.112002 Y99.755260 Z-0.125000 I-6.587750 J-0.597380
G03 X142.126710 Y101.007700 Z-0.125000 I-3.077288 J-1.407113
G03 X140.112534 Y101.395419 Z-0.125000 I-1.382799 J-1.757935
G03 X136.744580 Y99.423950 Z-0.125000 I2.285503 J-7.766986
G02 X135.735576 Y98.608701 Z-0.125000 I-4.855809 J4.977834
G01 X135.334650 Y98.487710 Z-0.125000
G02 X134.264814 Y98.964009 Z-0.125000 I-0.000000 J1.439653
G02 X133.788520 Y100.204730 Z-0.125000 I1.377861 J1.240721
G02 X134.095859 Y101.058441 Z-0.125000 I1.339368 J0.000000
G02 X135.675150 Y102.485430 Z-0.125000 I5.679222 J-4.697946
G02 X138.135043 Y103.782106 Z-0.125000 I7.395746 J-11.048656
G02 X140.248320 Y104.313850 Z-0.125000 I3.031199 J-7.581497
G02 X143.853226 Y103.047436 Z-0.125000 I0.493260 J-4.359886
G02 X146.356070 Y98.170210 Z-0.125000 I-6.405140 J-6.367727
G02 X146.752569 Y94.882987 Z-0.125000 I-35.703722 J-5.974041
G02 X147.091430 Y88.289820 Z-0.125000 I-143.516070 J-10.681418
G01 X147.239890 Y83.066100 Z-0.125000
G01 X147.840050 Y82.594010 Z-0.125000
G02 X148.240123 Y82.040732 Z-0.125000 I-0.768467 J-0.976961
G02 X148.324370 Y81.258230 Z-0.125000 I-1.552642 J-0.562949
G02 X147.702587 Y80.113448 Z-0.125000 I-1.812295 J0.243090
G02 X146.448790 Y79.649370 Z-0.125000 I-1.253797 J1.461647
G02 X145.674677 Y79.807229 Z-0.125000 I0.000000 J1.976983
G02 X144.987430 Y80.271230 Z-0.125000 I0.852834 J2.004114
G01 X144.365580 Y80.893090 Z-0.125000
G01 X143.151630 Y80.333050 Z-0.125000
G02 X140.103644 Y79.571589 Z-0.125000 I-3.531447 J7.654730
G02 X136.915790 Y79.974830 Z-0.125000 I-0.505753 J8.804262
G01 X136.915790 Y79.974800 Z-0.125000
G00 Z5.000000

(End cutting path id: path25125)


(Start cutting path id: path25131)
(ZZZanette)
(Change tool to Default tool)

G00 Z5.000000
G00 X152.338170 Y79.707940

G01 Z-0.125000 F100.0(Penetrate)
G01 X151.920462 Y80.480444 Z-0.125000 F400.000000
G02 X151.700050 Y91.978930 Z-0.125000 I175.165205 J9.109057
G01 X151.840630 Y102.297680 Z-0.125000
G01 X149.852490 Y102.318780 Z-0.125000
G02 X147.219911 Y102.770892 Z-0.125000 I0.089110 J8.409483
G01 X146.742400 Y103.382490 Z-0.125000
G02 X146.794712 Y104.084544 Z-0.125000 I2.216294 J0.187834
G01 X146.980130 Y104.383180 Z-0.125000
G01 X147.323894 Y104.513801 Z-0.125000
G02 X152.750750 Y104.576730 Z-0.125000 I4.147725 J-123.660111
G01 X158.220030 Y104.520230 Z-0.125000
G01 X158.538500 Y103.952610 Z-0.125000
G01 X158.658776 Y103.407310 Z-0.125000
G01 X158.460800 Y102.947200 Z-0.125000
G01 X157.989059 Y102.679625 Z-0.125000
G02 X156.263660 Y102.509400 Z-0.125000 I-1.725399 J8.659223
G01 X154.462730 Y102.509400 Z-0.125000
G01 X154.605090 Y91.362800 Z-0.125000
G02 X154.575039 Y80.281370 Z-0.125000 I-357.863524 J-4.570288
G01 X154.395190 Y79.826970 Z-0.125000
G02 X153.457264 Y79.377939 Z-0.125000 I-1.017160 J0.920547
G02 X152.338190 Y79.707980 Z-0.125000 I-0.099741 J1.724058
G01 X152.338170 Y79.707940 Z-0.125000
G00 Z5.000000

(End cutting path id: path25131)


(Start cutting path id: path25129)
(ZZZanette)
(Change tool to Default tool)

G00 Z5.000000
G00 X164.703190 Y79.790740

G01 Z-0.125000 F100.0(Penetrate)
G02 X162.874066 Y80.930456 Z-0.125000 I1.813546 J4.948183 F400.000000
G02 X161.300390 Y83.045410 Z-0.125000 I5.450225 J5.698295
G02 X160.166101 Y86.076012 Z-0.125000 I12.713660 J6.486023
G02 X159.665430 Y89.597680 Z-0.125000 I16.733138 J4.175350
G02 X160.057802 Y97.289874 Z-0.125000 I43.355735 J1.644567
G02 X161.303750 Y101.236540 Z-0.125000 I12.404705 J-1.746116
G02 X163.181426 Y103.371092 Z-0.125000 I5.123570 J-2.613856
G02 X165.864760 Y104.354330 Z-0.125000 I3.280043 J-4.798364
G02 X169.129949 Y102.864905 Z-0.125000 I0.363912 J-3.525980
G02 X172.434420 Y94.995180 Z-0.125000 I-16.410401 J-11.519302
G02 X172.921568 Y90.557720 Z-0.125000 I-29.805665 J-5.517557
G02 X172.747260 Y86.221440 Z-0.125000 I-28.629731 J-1.020800
G02 X171.447555 Y81.808613 Z-0.125000 I-13.470440 J1.569619
G02 X169.706670 Y80.035660 Z-0.125000 I-3.550741 J1.745344
G02 X167.311519 Y79.393338 Z-0.125000 I-2.681787 J5.213311
G02 X164.703190 Y79.790740 Z-0.125000 I-0.324483 J6.628796
G01 X164.703190 Y79.790740 Z-0.125000
G00 Z5.000000

(End cutting path id: path25129)


(Start cutting path id: path25127)
(ZZZanette)
(Change tool to Default tool)

G00 Z5.000000
G00 X168.846330 Y83.061360

G01 Z-0.125000 F100.0(Penetrate)
G03 X169.605420 Y84.438480 Z-0.125000 I-1.749246 J1.861982 F400.000000
G03 X170.089350 Y89.491850 Z-0.125000 I-26.142564 J5.053370
G03 X169.929803 Y93.283268 Z-0.125000 I-45.128616 J-0.000000
G03 X169.589620 Y95.418520 Z-0.125000 I-14.595232 J-1.230549
G03 X168.215072 Y99.376650 Z-0.125000 I-19.947418 J-4.709444
G03 X167.066540 Y100.824980 Z-0.125000 I-3.614679 J-1.686896
G03 X165.045076 Y100.626229 Z-0.125000 I-0.907119 J-1.153207
G03 X162.588620 Y95.596930 Z-0.125000 I8.461423 J-7.247356
G03 X162.196998 Y91.983203 Z-0.125000 I19.286659 J-3.918191
G03 X162.477590 Y88.420240 Z-0.125000 I19.024044 J-0.294341
G03 X163.266030 Y85.626405 Z-0.125000 I13.987237 J2.439130
G03 X164.284700 Y83.862260 Z-0.125000 I6.499776 J2.576985
G03 X166.702967 Y82.421299 Z-0.125000 I3.102710 J2.457380
G03 X168.846330 Y83.061360 Z-0.125000 I0.432177 J2.461529
G01 X168.846330 Y83.061360 Z-0.125000
G00 Z5.000000

(End cutting path id: path25127)


(Start cutting path id: path14520)
(ZZZanette)
(Change tool to Default tool)

G00 Z5.000000
G00 X103.680100 Y86.966470

G01 Z-0.125000 F100.0(Penetrate)
G02 X102.991030 Y87.648705 Z-0.125000 I0.827127 J1.524518 F400.000000
G02 X101.842520 Y90.274300 Z-0.125000 I13.243548 J7.357099
G02 X101.526275 Y91.678703 Z-0.125000 I7.123818 J2.341956
G01 X101.609140 Y92.126380 Z-0.125000
G01 X102.234583 Y92.447519 Z-0.125000
G02 X103.093070 Y91.931330 Z-0.125000 I-0.163501 J-1.243903
G03 X104.676740 Y91.129586 Z-0.125000 I1.555527 J1.107636
G03 X108.025740 Y92.004030 Z-0.125000 I-0.107008 J7.260157
G02 X109.194607 Y92.453216 Z-0.125000 I2.313356 J-4.274387
G01 X109.450990 Y92.349360 Z-0.125000
G02 X109.643869 Y90.568814 Z-0.125000 I-1.721353 J-1.087187
G02 X107.855850 Y87.945500 Z-0.125000 I-6.014873 J2.178661
G02 X105.486759 Y86.724023 Z-0.125000 I-3.619568 J4.112063
G02 X103.680100 Y86.966480 Z-0.125000 I-0.584838 J2.494455
G01 X103.680100 Y86.966470 Z-0.125000
G00 Z5.000000

(End cutting path id: path14520)


(Start cutting path id: path25109)
(ZZZanette)
(Change tool to Default tool)

G00 Z5.000000
G00 X82.671024 Y82.846570

G01 Z-0.125000 F100.0(Penetrate)
G03 X83.857151 Y83.479113 Z-0.125000 I-0.801658 J2.931613 F400.000000
G03 X84.685910 Y84.588650 Z-0.125000 I-2.109778 J2.440167
G03 X84.893487 Y85.432607 Z-0.125000 I-2.163275 J0.979577
G03 X84.946234 Y89.139490 Z-0.125000 I-43.138342 J2.467658
G03 X84.753603 Y92.856390 Z-0.125000 I-80.543985 J-2.310813
G03 X84.636470 Y93.268840 Z-0.125000 I-1.066428 J-0.080000
G03 X83.836140 Y93.989505 Z-0.125000 I-1.359848 J-0.705438
G03 X81.247833 Y94.598330 Z-0.125000 I-3.410414 J-8.692476
G03 X78.743300 Y93.894129 Z-0.125000 I-0.323185 J-3.656438
G03 X76.847060 Y91.346690 Z-0.125000 I3.250210 J-4.398835
G03 X76.435832 Y88.426077 Z-0.125000 I6.802129 J-2.447010
G03 X77.241144 Y85.344530 Z-0.125000 I8.411821 J0.552290
G03 X78.396222 Y83.661996 Z-0.125000 I5.928294 J2.832083
G03 X79.534928 Y82.919350 Z-0.125000 I2.118034 J2.003286
G03 X81.020982 Y82.644488 Z-0.125000 I1.596308 J4.475869
G03 X82.671024 Y82.846550 Z-0.125000 I0.133415 J5.748691
G01 X82.671024 Y82.846570 Z-0.125000
G00 Z5.000000

(End cutting path id: path25109)


(Start cutting path id: path25111)
(ZZZanette)
(Change tool to Default tool)

G00 Z5.000000
G00 X79.284357 Y80.055390

G01 Z-0.125000 F100.0(Penetrate)
G02 X76.032215 Y81.722250 Z-0.125000 I0.677034 J5.326925 F400.000000
G02 X73.807154 Y85.935300 Z-0.125000 I6.678893 J6.221452
G02 X73.503272 Y90.355454 Z-0.125000 I14.160357 J3.194036
G02 X74.467617 Y93.726630 Z-0.125000 I9.059285 J-0.767946
G02 X76.116240 Y95.841686 Z-0.125000 I6.339982 J-3.241773
G02 X78.337519 Y97.115790 Z-0.125000 I4.277828 J-4.884638
G02 X80.969890 Y97.551587 Z-0.125000 I2.681904 J-8.031531
G02 X83.788285 Y97.147690 Z-0.125000 I0.056403 J-9.641753
G01 X84.905549 Y96.813620 Z-0.125000
G01 X84.768971 Y97.915250 Z-0.125000
G03 X84.179267 Y100.083146 Z-0.125000 I-7.863901 J-0.974961
G03 X83.287709 Y101.343650 Z-0.125000 I-3.435286 J-1.484235
G03 X81.431674 Y101.811824 Z-0.125000 I-1.356186 J-1.463348
G03 X78.085220 Y99.997320 Z-0.125000 I1.976883 J-7.639077
G02 X76.335461 Y99.115435 Z-0.125000 I-2.445961 J2.676257
G01 X75.383885 Y99.468760 Z-0.125000
G02 X75.066938 Y100.707524 Z-0.125000 I1.243392 J0.978060
G02 X75.831555 Y102.148110 Z-0.125000 I2.538477 J-0.424133
G02 X78.421244 Y103.853810 Z-0.125000 I6.035399 J-6.344523
G02 X81.520684 Y104.583210 Z-0.125000 I3.633002 J-8.487795
G02 X83.795792 Y104.338151 Z-0.125000 I0.402266 J-6.948883
G02 X85.199557 Y103.555680 Z-0.125000 I-0.924359 J-3.308737
G02 X86.931714 Y100.457679 Z-0.125000 I-3.867310 J-4.195536
G02 X88.080626 Y88.856880 Z-0.125000 I-60.403259 J-11.839470
G03 X88.464667 Y83.932613 Z-0.125000 I33.425267 J0.129709
G03 X89.000018 Y82.846300 Z-0.125000 I1.986349 J0.303831
G02 X89.395701 Y82.200830 Z-0.125000 I-1.286769 J-1.232824
G01 X89.422291 Y81.636720 Z-0.125000
G02 X88.704472 Y80.496867 Z-0.125000 I-2.076846 J0.511939
G02 X87.521349 Y80.072710 Z-0.125000 I-1.183123 J1.437995
G02 X86.486280 Y80.267866 Z-0.125000 I-0.000000 J2.842479
G02 X85.926978 Y80.696090 Z-0.125000 I0.462923 J1.183984
G01 X85.466095 Y81.319470 Z-0.125000
G01 X84.703561 Y80.936400 Z-0.125000
G02 X82.137593 Y80.104979 Z-0.125000 I-3.993413 J7.949331
G02 X79.284357 Y80.055420 Z-0.125000 I-1.597761 J9.828425
G01 X79.284357 Y80.055390 Z-0.125000
G00 Z5.000000

(End cutting path id: path25111)


(Start cutting path id: path25113)
(ZZZanette)
(Change tool to Default tool)

G00 Z5.000000
G00 X64.207372 Y80.337270

G01 Z-0.125000 F100.0(Penetrate)
G02 X63.823949 Y80.849699 Z-0.125000 I2.276775 J2.103250 F400.000000
G02 X63.416247 Y81.660180 Z-0.125000 I5.346701 J3.197373
G02 X62.343475 Y84.824322 Z-0.125000 I23.288743 J9.659752
G02 X58.788369 Y99.016850 Z-0.125000 I467.179995 J124.566093
G02 X58.194420 Y104.398988 Z-0.125000 I21.946264 J5.145735
G01 X58.851639 Y105.049350 Z-0.125000
G01 X59.640867 Y104.537820 Z-0.125000
G02 X61.711819 Y98.656030 Z-0.125000 I-34.694386 J-15.521218
G03 X62.672434 Y94.995393 Z-0.125000 I8473.500298 J2221.651081
G03 X63.090290 Y93.407680 Z-0.125000 I1594.505138 J418.793317
G02 X63.506535 Y91.819558 Z-0.125000 I-525.349485 J-138.542043
G02 X64.219889 Y89.071160 Z-0.125000 I-1573.936226 J-409.986206
G03 X64.951011 Y87.046184 Z-0.125000 I11.173167 J2.889620
G01 X65.166301 Y87.060320 Z-0.125000
G03 X66.859457 Y92.836212 Z-0.125000 I-121.473655 J38.745129
G03 X69.099690 Y101.754730 Z-0.125000 I-287.474060 J76.950928
G02 X70.123084 Y104.312727 Z-0.125000 I8.978589 J-2.108405
G01 X70.885590 Y104.799300 Z-0.125000
G02 X72.160409 Y104.463073 Z-0.125000 I0.181859 J-1.895353
G02 X72.616862 Y103.585660 Z-0.125000 I-0.615074 J-0.877413
G02 X72.460223 Y102.332172 Z-0.125000 I-5.093782 J-0.000000
G02 X68.904250 Y88.962680 Z-0.125000 I-592.162689 J150.343822
G03 X68.011389 Y85.676703 Z-0.125000 I274.720556 J-76.410970
G03 X67.444120 Y83.459350 Z-0.125000 I124.529415 J-33.039802
G02 X66.210470 Y80.303959 Z-0.125000 I-12.580740 J3.099784
G01 X65.460515 Y79.861020 Z-0.125000
G02 X64.707805 Y79.999228 Z-0.125000 I0.000000 J2.118809
G02 X64.207377 Y80.337270 Z-0.125000 I0.468695 J1.233274
G01 X64.207372 Y80.337270 Z-0.125000
G00 Z5.000000

(End cutting path id: path25113)


(Start cutting path id: path25115)
(ZZZanette)
(Change tool to Default tool)

G00 Z5.000000
G00 X47.397610 Y80.010500

G01 Z-0.125000 F100.0(Penetrate)
G02 X46.882867 Y80.180756 Z-0.125000 I0.247405 J1.611240 F400.000000
G02 X46.472798 Y80.499580 Z-0.125000 I0.699968 J1.323421
G01 X46.285158 Y80.970110 Z-0.125000
G02 X46.191779 Y92.526820 Z-0.125000 I378.060827 J8.833475
G02 X46.875872 Y104.237942 Z-0.125000 I114.727239 J-0.826129
G01 X47.545155 Y104.837680 Z-0.125000
G01 X48.283142 Y104.210632 Z-0.125000
G02 X48.910190 Y96.495200 Z-0.125000 I-47.153243 J-7.715432
G03 X48.960539 Y88.819164 Z-0.125000 I585.155937 J-0.000000
G03 X49.048837 Y85.926980 Z-0.125000 I83.134604 J1.090648
G01 X49.187487 Y83.036020 Z-0.125000
G01 X51.324254 Y83.022920 Z-0.125000
G02 X56.223622 Y82.723885 Z-0.125000 I-0.274012 J-44.774398
G01 X56.752165 Y82.391570 Z-0.125000
G02 X57.009703 Y81.289356 Z-0.125000 I-1.456924 J-0.921613
G02 X56.530190 Y80.284340 Z-0.125000 I-1.659316 J0.174792
G01 X56.029100 Y80.050806 Z-0.125000
G02 X52.032274 Y79.892720 Z-0.125000 I-3.667695 J42.124890
G02 X47.960572 Y79.960257 Z-0.125000 I1.792146 J230.818241
G02 X47.397610 Y80.010490 Z-0.125000 I0.112977 J4.445809
G01 X47.397610 Y80.010500 Z-0.125000
G00 Z5.000000

(End cutting path id: path25115)


(Start cutting path id: path25117)
(ZZZanette)
(Change tool to Default tool)

G00 Z5.000000
G00 X39.563269 Y83.190710

G01 Z-0.125000 F100.0(Penetrate)
G03 X40.449419 Y84.499934 Z-0.125000 I-1.440699 J1.929646 F400.000000
G03 X41.037991 Y88.721540 Z-0.125000 I-16.914623 J4.510053
G03 X40.903196 Y92.616683 Z-0.125000 I-38.170874 J0.628968
G03 X40.648018 Y93.262900 Z-0.125000 I-1.208669 J-0.103789
G03 X39.623136 Y94.034724 Z-0.125000 I-1.970122 J-1.549701
G03 X37.376446 Y94.594970 Z-0.125000 I-3.078785 J-7.561544
G03 X34.634428 Y93.734218 Z-0.125000 I-0.370604 J-3.617274
G03 X32.679983 Y90.554640 Z-0.125000 I3.999342 J-4.648818
G03 X32.473021 Y89.108813 Z-0.125000 I7.118711 J-1.756730
G03 X32.560404 Y87.737070 Z-0.125000 I6.488018 J-0.275353
G03 X33.542306 Y84.605919 Z-0.125000 I12.083980 J2.069900
G03 X34.596982 Y83.389830 Z-0.125000 I2.671531 J1.251547
G03 X37.355144 Y82.506138 Z-0.125000 I2.975669 J4.541394
G03 X39.563269 Y83.190710 Z-0.125000 I0.138581 J3.456501
G01 X39.563269 Y83.190710 Z-0.125000
G00 Z5.000000

(End cutting path id: path25117)


(Start cutting path id: path25119)
(ZZZanette)
(Change tool to Default tool)

G00 Z5.000000
G00 X35.135020 Y80.074870

G01 Z-0.125000 F100.0(Penetrate)
G02 X31.966619 Y81.866879 Z-0.125000 I0.892951 J5.275785 F400.000000
G02 X29.750733 Y86.351820 Z-0.125000 I7.670504 J6.579661
G02 X29.808764 Y91.617013 Z-0.125000 I11.812039 J2.502728
G02 X31.911509 Y95.545730 Z-0.125000 I8.417953 J-1.978414
G02 X33.966879 Y96.913350 Z-0.125000 I3.926511 J-3.672779
G02 X37.056858 Y97.455830 Z-0.125000 I3.021561 J-8.139351
G02 X38.841873 Y97.348103 Z-0.125000 I-0.138556 J-17.138395
G02 X39.861441 Y97.138710 Z-0.125000 I-0.649242 J-5.748177
G01 X40.866858 Y96.835780 Z-0.125000
G01 X40.866858 Y97.517480 Z-0.125000
G03 X40.499304 Y99.543268 Z-0.125000 I-5.766377 J-0.000000
G03 X39.513512 Y101.124210 Z-0.125000 I-4.420980 J-1.658875
G03 X38.728288 Y101.694147 Z-0.125000 I-1.900301 J-1.792232
G03 X37.924411 Y101.874350 Z-0.125000 I-0.803877 J-1.702926
G03 X36.309521 Y101.492485 Z-0.125000 I-0.000000 J-3.605584
G03 X33.947043 Y99.881930 Z-0.125000 I4.794340 J-9.570684
G02 X32.823917 Y99.023792 Z-0.125000 I-5.922229 J6.586938
G01 X32.440823 Y98.911020 Z-0.125000
G02 X31.390505 Y99.382994 Z-0.125000 I-0.000000 J1.404661
G02 X30.918525 Y100.625320 Z-0.125000 I1.399009 J1.242326
G02 X31.415041 Y101.764216 Z-0.125000 I1.554443 J-0.000000
G02 X34.248237 Y103.718300 Z-0.125000 I8.118271 J-8.739608
G02 X35.871372 Y104.317383 Z-0.125000 I3.641863 J-7.368764
G02 X37.672107 Y104.585770 Z-0.125000 I2.235354 J-8.822865
G02 X39.484315 Y104.510781 Z-0.125000 I0.486716 J-10.172583
G02 X40.392569 Y104.228680 Z-0.125000 I-0.364488 J-2.776668
G02 X42.432690 Y101.642018 Z-0.125000 I-1.790807 J-3.510285
G02 X44.221776 Y88.346210 Z-0.125000 I-63.530257 J-15.316914
G01 X44.372089 Y83.488350 Z-0.125000
G01 X44.973307 Y82.931160 Z-0.125000
G02 X45.386780 Y82.309393 Z-0.125000 I-1.083013 J-1.168564
G02 X45.452237 Y81.620410 Z-0.125000 I-1.285590 J-0.469738
G02 X44.821781 Y80.518492 Z-0.125000 I-1.784271 J0.289546
G02 X43.585719 Y80.072680 Z-0.125000 I-1.236062 J1.490651
G02 X42.100493 Y80.459648 Z-0.125000 I-0.000000 J3.043715
G01 X41.713525 Y81.119310 Z-0.125000
G01 X41.627025 Y81.184524 Z-0.125000
G03 X40.547588 Y80.785480 Z-0.125000 I2.104932 J-7.353456
G02 X39.355205 Y80.341470 Z-0.125000 I-3.637471 J7.945306
G02 X38.060505 Y80.060610 Z-0.125000 I-2.650893 J9.095449
G02 X36.529855 Y79.954251 Z-0.125000 I-1.480098 J10.233328
G02 X35.135020 Y80.074910 Z-0.125000 I0.042091 J8.609118
G01 X35.135020 Y80.074870 Z-0.125000
G00 Z5.000000

(End cutting path id: path25119)


(Start cutting path id: path25121)
(ZZZanette)
(Change tool to Default tool)

G00 Z5.000000
G00 X20.169790 Y80.309930

G01 Z-0.125000 F100.0(Penetrate)
G02 X17.426595 Y83.297887 Z-0.125000 I2.498006 J5.046599 F400.000000
G02 X17.924782 Y86.025610 Z-0.125000 I2.449269 J0.962025
G01 X19.004780 Y86.157545 Z-0.125000
G02 X20.089394 Y84.569660 Z-0.125000 I-1.448789 J-2.153973
G03 X20.398200 Y83.734807 Z-0.125000 I3.240481 J0.724091
G03 X20.789153 Y83.253730 Z-0.125000 I1.421826 J0.756068
G03 X22.753870 Y82.590780 Z-0.125000 I1.838864 J2.206863
G03 X24.816746 Y83.430350 Z-0.125000 I-0.145195 J3.310845
G03 X25.306474 Y84.096239 Z-0.125000 I-1.336919 J1.496266
G03 X25.573486 Y85.095020 Z-0.125000 I-2.857541 J1.299011
G03 X25.454337 Y87.151977 Z-0.125000 I-6.700277 J0.643816
G03 X24.652099 Y89.386020 Z-0.125000 I-8.734889 J-1.875609
G03 X24.063356 Y90.270209 Z-0.125000 I-4.317941 J-2.237026
G03 X21.817570 Y92.772680 Z-0.125000 I-37.362494 J-31.271174
G02 X18.888233 Y96.784635 Z-0.125000 I13.278773 J12.770930
G02 X18.218525 Y99.432550 Z-0.125000 I4.899854 J2.647915
G02 X18.403808 Y101.102673 Z-0.125000 I7.619787 J-0.000000
G02 X18.818232 Y102.102110 Z-0.125000 I3.082121 J-0.692383
G02 X19.528834 Y102.927656 Z-0.125000 I3.171396 J-2.011225
G02 X20.670315 Y103.708730 Z-0.125000 I3.967854 J-4.574091
G02 X23.904921 Y104.318130 Z-0.125000 I2.604380 J-4.934562
G02 X26.632275 Y103.030980 Z-0.125000 I-0.529073 J-4.654141
G02 X27.539753 Y101.869823 Z-0.125000 I-3.704849 J-3.830635
G02 X27.743525 Y101.110950 Z-0.125000 I-1.311181 J-0.758873
G01 X26.922798 Y100.231488 Z-0.125000
G02 X25.009924 Y100.921850 Z-0.125000 I-0.173874 J2.513529
G03 X23.254398 Y101.851204 Z-0.125000 I-2.525326 J-2.647529
G03 X22.065559 Y101.555530 Z-0.125000 I-0.292810 J-1.360543
G03 X21.563162 Y100.945956 Z-0.125000 I1.404997 J-1.669783
G03 X21.180316 Y99.962920 Z-0.125000 I3.402091 J-1.891024
G03 X21.133343 Y98.923702 Z-0.125000 I2.674286 J-0.641549
G03 X21.510151 Y97.705840 Z-0.125000 I4.086706 J0.597208
G03 X22.213834 Y96.593852 Z-0.125000 I5.423830 J2.653640
G03 X24.337073 Y94.162340 Z-0.125000 I28.403848 J22.659954
G02 X26.995637 Y90.733844 Z-0.125000 I-15.307245 J-14.614735
G02 X28.067229 Y88.171480 Z-0.125000 I-7.362966 J-4.584480
G02 X27.815070 Y83.211022 Z-0.125000 I-8.557616 J-2.051622
G02 X25.312493 Y80.306020 Z-0.125000 I-4.949635 J1.733520
G02 X22.817896 Y79.689356 Z-0.125000 I-2.490552 J4.721012
G02 X20.169790 Y80.310020 Z-0.125000 I0.004531 J5.978826
G01 X20.169790 Y80.309930 Z-0.125000
G00 Z5.000000

(End cutting path id: path25121)


(Start cutting path id: path25133)
(ZZZanette)
(Change tool to Default tool)

G00 Z5.000000
G00 X77.638403 Y40.212960

G01 Z-0.125000 F100.0(Penetrate)
G03 X76.245716 Y38.783304 Z-0.125000 I2.364784 J-3.696797 F400.000000
G03 X75.791857 Y37.152570 Z-0.125000 I2.702714 J-1.630734
G03 X77.557048 Y33.232635 Z-0.125000 I5.235068 J-0.000000
G03 X82.820024 Y30.931330 Z-0.125000 I6.194644 J6.998118
G03 X91.817664 Y30.885121 Z-0.125000 I4.742013 J47.331035
G03 X103.283980 Y32.769480 Z-0.125000 I-7.097759 J79.018266
G03 X113.087629 Y35.967038 Z-0.125000 I-15.268591 J63.440875
G03 X120.347690 Y39.871100 Z-0.125000 I-16.021611 J38.496559
G03 X126.886021 Y46.523669 Z-0.125000 I-13.000673 J19.316738
G03 X131.450420 Y57.001020 Z-0.125000 I-29.330785 J19.010694
G03 X132.654031 Y69.123229 Z-0.125000 I-40.145736 J10.106916
G03 X130.444590 Y77.638520 Z-0.125000 I-21.564570 J-1.051019
G03 X128.022590 Y81.019316 Z-0.125000 I-11.514654 J-5.691133
G03 X125.916820 Y82.176630 Z-0.125000 I-3.035264 J-3.028346
G03 X121.577543 Y81.953979 Z-0.125000 I-1.767063 J-7.957194
G03 X112.516020 Y77.720060 Z-0.125000 I13.630166 J-40.985357
G03 X111.488362 Y77.023357 Z-0.125000 I7.651250 J-12.392087
G03 X109.524990 Y75.500480 Z-0.125000 I34.762647 J-46.844891
G02 X107.547020 Y74.062131 Z-0.125000 I-14.734744 J18.183538
G01 X107.116040 Y73.934350 Z-0.125000
G01 X106.841105 Y74.105645 Z-0.125000
G01 X106.758090 Y74.663340 Z-0.125000
G02 X107.988685 Y78.291240 Z-0.125000 I11.432280 J-1.855203
G02 X113.950380 Y88.045100 Z-0.125000 I90.839869 J-48.823732
G01 X116.165660 Y91.255010 Z-0.125000
G01 X113.632600 Y92.172600 Z-0.125000
G02 X111.178787 Y93.172575 Z-0.125000 I11.448523 J31.603894
G01 X110.983190 Y93.376140 Z-0.125000
G01 X111.315169 Y93.902031 Z-0.125000
G02 X115.161850 Y93.619360 Z-0.125000 I0.854689 J-14.683885
G03 X117.174237 Y93.215501 Z-0.125000 I30.721798 J147.867874
G01 X117.333740 Y93.198810 Z-0.125000
G01 X117.452035 Y93.264843 Z-0.125000
G03 X118.210850 Y94.695000 Z-0.125000 I-16.568180 J9.707157
G03 X118.619498 Y95.943853 Z-0.125000 I-4.593668 J2.194421
G01 X118.473130 Y96.082520 Z-0.125000
G02 X113.999119 Y95.215602 Z-0.125000 I-10.995228 J44.766180
G02 X111.901340 Y95.143360 Z-0.125000 I-1.383539 J9.681502
G01 X111.805372 Y95.663930 Z-0.125000
G02 X118.387240 Y98.178700 Z-0.125000 I20.543055 J-43.896311
G03 X119.552495 Y98.618467 Z-0.125000 I-2.614150 J8.690417
G01 X119.857530 Y98.852200 Z-0.125000
G01 X120.014455 Y99.198703 Z-0.125000
G03 X120.202110 Y101.018290 Z-0.125000 I-16.434388 J2.614358
G03 X120.105261 Y102.841087 Z-0.125000 I-9.056558 J0.432779
G03 X119.714590 Y104.160500 Z-0.125000 I-5.090631 J-0.789765
G03 X118.787719 Y105.515087 Z-0.125000 I-4.223123 J-1.895259
G01 X118.324220 Y105.570720 Z-0.125000
G01 X118.167599 Y105.425041 Z-0.125000
G03 X116.831040 Y103.506280 Z-0.125000 I53.297517 J-38.550568
G02 X114.304976 Y100.259135 Z-0.125000 I-24.256253 J16.263627
G01 X113.655360 Y99.969360 Z-0.125000
G02 X113.053091 Y100.061375 Z-0.125000 I-0.000000 J2.017030
G02 X112.023690 Y100.479860 Z-0.125000 I2.003306 J6.403108
G03 X108.076397 Y101.622068 Z-0.125000 I-4.986179 J-9.839743
G03 X103.841480 Y101.253890 Z-0.125000 I-1.111747 J-11.752157
G02 X100.734053 Y101.200395 Z-0.125000 I-1.658228 J6.044279
G02 X99.157079 Y102.367190 Z-0.125000 I0.577377 J2.429423
G03 X98.377845 Y103.637806 Z-0.125000 I-32.157801 J-18.847254
G03 X98.019270 Y104.141870 Z-0.125000 I-5.404413 J-3.464954
G01 X97.636008 Y104.629110 Z-0.125000
G01 X97.390755 Y103.939650 Z-0.125000
G03 X97.023166 Y101.850726 Z-0.125000 I5.990557 J-2.130967
G03 X97.352195 Y98.107640 Z-0.125000 I19.954407 J-0.131947
G03 X97.829523 Y95.731165 Z-0.125000 I73.348548 J13.496291
G01 X97.916982 Y95.514720 Z-0.125000
G01 X98.085788 Y95.391528 Z-0.125000
G03 X98.729729 Y95.312690 Z-0.125000 I0.643941 J2.590389
G02 X99.385902 Y95.219788 Z-0.125000 I0.000000 J-2.363756
G02 X99.828481 Y94.995190 Z-0.125000 I-0.367971 J-1.273459
G01 X99.984384 Y94.677690 Z-0.125000
G01 X99.828481 Y94.360190 Z-0.125000
G02 X99.387900 Y94.129757 Z-0.125000 I-0.868129 J1.123432
G02 X98.823069 Y94.042690 Z-0.125000 I-0.564831 J1.788582
G03 X98.316112 Y93.955168 Z-0.125000 I-0.000000 J-1.511988
G01 X98.228527 Y93.831030 Z-0.125000
G01 X98.309724 Y93.700556 Z-0.125000
G01 X98.658501 Y93.619360 Z-0.125000
G01 X99.135037 Y93.267892 Z-0.125000
G01 X98.981528 Y92.574470 Z-0.125000
G01 X98.830387 Y92.131360 Z-0.125000
G03 X99.167371 Y90.201110 Z-0.125000 I10.329985 J0.808871
G02 X99.560686 Y87.972950 Z-0.125000 I-11.772155 J-3.226814
G01 X99.367494 Y87.763250 Z-0.125000
G02 X98.295044 Y88.202832 Z-0.125000 I0.000000 J1.528019
G02 X96.635428 Y90.455190 Z-0.125000 I6.248774 J6.341927
G01 X96.311403 Y91.081780 Z-0.125000
G01 X95.417879 Y90.649320 Z-0.125000
G03 X94.528208 Y90.209448 Z-0.125000 I25.683014 J-53.065308
G03 X94.152205 Y90.010230 Z-0.125000 I4.884350 J-9.673131
G02 X93.770652 Y89.823425 Z-0.125000 I-2.000345 J3.602681
G02 X92.188777 Y89.171480 Z-0.125000 I-26.271217 J61.499197
G02 X89.529058 Y88.547696 Z-0.125000 I-3.425293 J8.622714
G01 X89.126860 Y88.917970 Z-0.125000
G01 X89.444245 Y89.484043 Z-0.125000
G02 X93.340545 Y91.494370 Z-0.125000 I15.796824 J-25.835535
G03 X95.320496 Y92.361952 Z-0.125000 I-46.655714 J109.168330
G01 X95.410217 Y92.423830 Z-0.125000
G01 X95.436896 Y92.513457 Z-0.125000
G03 X95.277420 Y93.058030 Z-0.125000 I-3.543456 J-0.742046
G01 X95.066137 Y93.613750 Z-0.125000
G01 X92.149415 Y93.572850 Z-0.125000
G02 X88.655232 Y93.898923 Z-0.125000 I-0.230509 J16.414670
G01 X88.280193 Y94.357680 Z-0.125000
G01 X88.611465 Y94.764609 Z-0.125000
G02 X91.878527 Y95.103070 Z-0.125000 I3.302824 J-15.943956
G03 X93.868805 Y95.177678 Z-0.125000 I-0.050511 J27.931512
G01 X94.142161 Y95.268220 Z-0.125000
G01 X94.262293 Y95.482231 Z-0.125000
G03 X94.162641 Y96.376230 Z-0.125000 I-3.482523 J0.064363
G02 X93.735491 Y99.964353 Z-0.125000 I14.416484 J3.535705
G02 X94.187991 Y103.550180 Z-0.125000 I14.849701 J-0.052439
G02 X95.023375 Y106.068261 Z-0.125000 I17.679558 J-4.467657
G02 X96.368489 Y108.807840 Z-0.125000 I22.290633 J-9.244533
G02 X97.345031 Y110.176075 Z-0.125000 I7.293940 J-4.173248
G01 X97.674914 Y110.297190 Z-0.125000
G01 X98.005143 Y110.100429 Z-0.125000
G02 X99.863241 Y107.377680 Z-0.125000 I-29.723194 J-22.279521
G03 X101.664927 Y104.545615 Z-0.125000 I117.549110 J72.792535
G03 X101.916190 Y104.235530 Z-0.125000 I1.636494 J1.069218
G01 X102.245210 Y104.106879 Z-0.125000
G03 X103.843460 Y104.316630 Z-0.125000 I-0.383600 J9.116951
G02 X107.814042 Y104.676449 Z-0.125000 I3.377188 J-15.179613
G02 X111.548190 Y104.022430 Z-0.125000 I-0.536538 J-14.050543
G03 X112.897987 Y103.694327 Z-0.125000 I3.009573 J9.440653
G01 X113.186340 Y103.744110 Z-0.125000
G01 X113.480597 Y104.006569 Z-0.125000
G03 X117.355370 Y109.530760 Z-0.125000 I-216.481670 J155.965379
G02 X117.957352 Y110.195888 Z-0.125000 I2.720795 J-1.857508
G01 X118.376020 Y110.388040 Z-0.125000
G02 X120.387900 Y109.842612 Z-0.125000 I0.406027 J-2.485567
G02 X122.829350 Y106.702020 Z-0.125000 I-5.848127 J-7.065518
G02 X123.614884 Y104.256964 Z-0.125000 I-8.861184 J-4.195585
G02 X123.799440 Y101.356080 Z-0.125000 I-12.358073 J-2.242541
G03 X123.914026 Y99.786458 Z-0.125000 I6.286083 J-0.330094
G01 X124.141960 Y99.650520 Z-0.125000
G02 X126.288610 Y100.040045 Z-0.125000 I2.722392 J-8.893139
G02 X127.950680 Y99.886730 Z-0.125000 I0.336962 J-5.432827
G01 X128.373479 Y99.345029 Z-0.125000
G01 X127.951470 Y98.563420 Z-0.125000
G02 X127.374073 Y98.276314 Z-0.125000 I-1.493429 J2.279272
G02 X125.270990 Y97.606670 Z-0.125000 I-10.730362 J30.062470
G03 X123.152602 Y96.978811 Z-0.125000 I20.667436 J-73.619356
G01 X123.038310 Y96.909680 Z-0.125000
G01 X122.961833 Y96.797972 Z-0.125000
G03 X122.232740 Y95.082560 Z-0.125000 I63.805156 J-28.131421
G02 X121.485895 Y93.373523 Z-0.125000 I-36.793639 J15.061016
G02 X121.191460 Y92.844350 Z-0.125000 I-3.800293 J1.768011
G01 X121.268493 Y92.445459 Z-0.125000
G03 X123.222150 Y91.427420 Z-0.125000 I4.905799 J7.030832
G02 X125.062262 Y90.272535 Z-0.125000 I-1.803364 J-4.916745
G01 X125.238640 Y89.474370 Z-0.125000
G01 X124.998153 Y89.278877 Z-0.125000
G02 X123.782390 Y89.238260 Z-0.125000 I-0.766505 J4.727660
G02 X122.478364 Y89.431922 Z-0.125000 I1.156545 J12.274784
G02 X121.134440 Y89.777570 Z-0.125000 I2.726185 J13.385254
G01 X119.804470 Y90.192700 Z-0.125000
G01 X118.719770 Y88.572290 Z-0.125000
G02 X115.321090 Y83.865985 Z-0.125000 I-67.867141 J45.430223
G02 X114.688740 Y83.388920 Z-0.125000 I-1.200455 J0.933583
G01 X114.670473 Y83.323488 Z-0.125000
G01 X114.782040 Y83.264420 Z-0.125000
G01 X115.119718 Y83.329972 Z-0.125000
G03 X115.946200 Y83.796940 Z-0.125000 I-2.310365 J5.053963
G02 X120.904325 Y86.285085 Z-0.125000 I11.659837 J-17.050449
G02 X125.427690 Y87.049090 Z-0.125000 I4.582995 J-13.361552
G02 X128.707598 Y86.166767 Z-0.125000 I0.027102 J-6.436706
G02 X131.896000 Y83.261020 Z-0.125000 I-5.246912 J-8.959452
G02 X136.392066 Y73.940312 Z-0.125000 I-24.415645 J-17.522217
G02 X137.743090 Y62.649070 Z-0.125000 I-34.912692 J-9.903833
G02 X137.461691 Y59.245184 Z-0.125000 I-38.585245 J1.476267
G02 X136.996520 Y56.789370 Z-0.125000 I-20.512284 J2.613395
G02 X133.833174 Y49.115501 Z-0.125000 I-28.168339 J7.122703
G02 X128.339040 Y42.158950 Z-0.125000 I-28.519629 J16.876338
G02 X123.477405 Y38.192228 Z-0.125000 I-26.044055 J26.957145
G02 X115.267680 Y33.205240 Z-0.125000 I-49.644537 J72.475243
G02 X103.006468 Y28.024224 Z-0.125000 I-34.399565 J64.309832
G02 X90.007022 Y25.157710 Z-0.125000 I-22.141210 J69.499814
G02 X84.489061 Y24.783053 Z-0.125000 I-5.992728 J47.439369
G02 X80.360631 Y25.061910 Z-0.125000 I-0.265763 J26.765161
G01 X80.360629 Y25.061920 Z-0.125000
G02 X73.692078 Y27.126527 Z-0.125000 I3.254345 J22.313137
G02 X69.127995 Y30.566530 Z-0.125000 I6.651175 J13.572300
G02 X67.510058 Y33.033315 Z-0.125000 I7.125612 J6.437597
G02 X66.770301 Y35.758070 Z-0.125000 I8.008876 J3.637165
G02 X67.033791 Y38.554647 Z-0.125000 I7.106379 J0.741147
G02 X68.314957 Y40.900520 Z-0.125000 I6.196178 J-1.861175
G02 X73.665725 Y44.150707 Z-0.125000 I7.629159 J-6.530283
G02 X87.565760 Y45.385050 Z-0.125000 I11.319990 J-48.593424
G02 X91.970610 Y45.081767 Z-0.125000 I-6.710131 J-129.596619
G02 X92.619357 Y44.950610 Z-0.125000 I-0.249781 J-2.905544
G03 X82.510522 Y42.479301 Z-0.125000 I14.874250 J-82.753444
G03 X77.638403 Y40.212960 Z-0.125000 I5.988741 J-19.244577
G01 X77.638403 Y40.212960 Z-0.125000
G00 Z5.000000

(End cutting path id: path25133)


(Footer)
M5
M2
(Using default footer. To add your own footer create file "footer" in the output dir.)
(end)
%