%
(Header)
(Generated by gcodetools from Inkscape.)
(Using default header. To add your own header create file "header" in the output dir.)
M3
(Header end.)
G21 (All units in mm)

(Start cutting path id: rect5863)
(ZZZanette)
(Change tool to Default tool)

G00 Z5.000000
G00 X18.557288 Y178.427220

G01 Z-0.125000 F100.0(Penetrate)
G01 X18.557288 Y178.211550 Z-0.125000 F400.000000
G01 X18.557288 Y9.921530 Z-0.125000
G01 X171.892000 Y9.921530 Z-0.125000
G01 X171.892000 Y178.427220 Z-0.125000
G01 X18.557288 Y178.427220 Z-0.125000
G00 Z5.000000

(End cutting path id: rect5863)


(Start cutting path id: rect5863)
(ZZZanette)
(Change tool to Default tool)

G00 Z5.000000
G00 X18.972817 Y177.995890

G01 Z-0.125000 F100.0(Penetrate)
G01 X171.476470 Y177.995890 Z-0.125000 F400.000000
G01 X171.476470 Y10.352870 Z-0.125000
G01 X18.972817 Y10.352870 Z-0.125000
G01 X18.972817 Y177.995890 Z-0.125000
G00 Z5.000000

(End cutting path id: rect5863)


(Start cutting path id: path8191)
(ZZZanette)
(Change tool to Default tool)

G00 Z5.000000
G00 X38.482547 Y168.746347

G01 Z-0.125000 F100.0(Penetrate)
G03 X38.266848 Y169.857553 Z-0.125000 I-2.970118 J0.000000 F400.000000
G03 X37.708110 Y170.665996 Z-0.125000 I-2.076114 J-0.837559
G03 X36.866423 Y171.176703 Z-0.125000 I-1.631325 J-1.739617
G03 X35.673571 Y171.379915 Z-0.125000 I-1.192852 J-3.399409
G03 X35.205833 Y171.345720 Z-0.125000 I-0.000000 J-3.216121
G03 X34.702244 Y171.237132 Z-0.125000 I0.564379 J-3.839352
G03 X34.232310 Y171.060558 Z-0.125000 I0.964406 J-3.280307
G03 X33.809674 Y170.824645 Z-0.125000 I1.333371 J-2.885250
G03 X33.469252 Y170.518722 Z-0.125000 I1.146523 J-1.618185
G03 X33.179625 Y170.110726 Z-0.125000 I1.777045 J-1.568283
G03 X32.997269 Y169.664280 Z-0.125000 I1.499003 J-0.872751
G03 X32.930229 Y169.127104 Z-0.125000 I2.118638 J-0.537176
G03 X33.059435 Y168.237598 Z-0.125000 I3.126473 J0.000000
G03 X33.363389 Y167.667536 Z-0.125000 I1.548346 J0.459507
G03 X33.860669 Y167.207824 Z-0.125000 I2.175532 J1.854503
G03 X34.807255 Y166.620455 Z-0.125000 I4.541324 J6.262230
G03 X35.177745 Y166.436180 Z-0.125000 I5.806475 J11.209496
G03 X35.804833 Y166.144509 Z-0.125000 I15.185673 J31.829021
G03 X36.450222 Y165.880309 Z-0.125000 I15.855725 J37.812008
G03 X37.353707 Y165.525779 Z-0.125000 I29.461144 J73.750415
G03 X37.910622 Y166.407528 Z-0.125000 I-8.426650 J5.939044
G03 X38.220026 Y167.064671 Z-0.125000 I-4.357572 J2.453094
G03 X38.406105 Y167.761061 Z-0.125000 I-3.171805 J1.220578
G03 X38.482547 Y168.746347 Z-0.125000 I-6.311621 J0.985286
G01 X38.482547 Y168.746347 Z-0.125000
G00 Z5.000000

(End cutting path id: path8191)


(Start cutting path id: path8191)
(ZZZanette)
(Change tool to Default tool)

G00 Z5.000000
G00 X38.889452 Y157.561615

G01 Z-0.125000 F100.0(Penetrate)
G03 X38.743115 Y158.652304 Z-0.125000 I-4.137771 J0.000000 F400.000000
G03 X38.416916 Y159.290888 Z-0.125000 I-1.694756 J-0.463104
G03 X37.876201 Y159.794517 Z-0.125000 I-2.017958 J-1.624475
G03 X36.474262 Y160.639399 Z-0.125000 I-7.248738 J-10.442469
G03 X36.033949 Y160.862599 Z-0.125000 I-3.578706 J-6.513911
G03 X35.214160 Y161.226401 Z-0.125000 I-10.359477 J-22.238432
G02 X34.388922 Y161.579330 Z-0.125000 I36.792645 J87.171878
G02 X33.822800 Y161.829265 Z-0.125000 I17.883090 J41.272685
G03 X33.307503 Y161.176322 Z-0.125000 I4.306257 J-3.928267
G03 X32.798970 Y160.322102 Z-0.125000 I6.887376 J-4.678656
G03 X32.472074 Y159.420775 Z-0.125000 I3.427519 J-1.753047
G03 X32.352685 Y158.354860 Z-0.125000 I4.698592 J-1.065915
G03 X32.627142 Y156.817587 Z-0.125000 I4.442482 J0.000000
G03 X33.324012 Y155.721292 Z-0.125000 I2.884313 J1.063808
G03 X34.418053 Y155.021338 Z-0.125000 I2.207867 J2.245958
G03 X35.883590 Y154.753536 Z-0.125000 I1.465537 J3.876136
G03 X36.299884 Y154.783568 Z-0.125000 I-0.000000 J2.900281
G03 X36.868042 Y154.896318 Z-0.125000 I-0.801788 J5.528135
G03 X37.408346 Y155.102663 Z-0.125000 I-0.862970 J3.070203
G03 X37.839369 Y155.372263 Z-0.125000 I-1.084278 J2.212839
G03 X38.269938 Y155.774122 Z-0.125000 I-1.930538 J2.500056
G03 X38.600680 Y156.228968 Z-0.125000 I-2.152791 J1.913077
G03 X38.801945 Y156.744569 Z-0.125000 I-1.509457 J0.886298
G03 X38.889452 Y157.561615 Z-0.125000 I-3.770566 J0.817046
G01 X38.889452 Y157.561615 Z-0.125000
G00 Z5.000000

(End cutting path id: path8191)


(Start cutting path id: path8191)
(ZZZanette)
(Change tool to Default tool)

G00 Z5.000000
G00 X43.903602 Y157.831319

G01 Z-0.125000 F100.0(Penetrate)
G02 X43.309337 Y154.954517 Z-0.125000 I-7.260350 J0.000000 F400.000000
G02 X41.685299 Y152.691101 Z-0.125000 I-5.995085 J2.587228
G02 X39.255020 Y151.275622 Z-0.125000 I-4.552223 J5.021800
G02 X35.621069 Y150.692128 Z-0.125000 I-3.633951 J11.024216
G02 X33.481411 Y150.846667 Z-0.125000 I-0.000000 J14.889522
G02 X31.906397 Y151.231533 Z-0.125000 I1.222227 J8.416996
G02 X30.439780 Y151.906529 Z-0.125000 I2.763584 J7.935472
G02 X29.346820 Y152.722830 Z-0.125000 I3.020049 J5.183440
G02 X28.475537 Y153.744052 Z-0.125000 I4.150385 J4.423302
G02 X27.863577 Y154.912183 Z-0.125000 I4.846093 J3.283132
G02 X27.514600 Y156.188027 Z-0.125000 I6.624650 J2.497667
G02 X27.391041 Y157.609212 Z-0.125000 I8.111496 J1.421185
G02 X27.619317 Y159.320576 Z-0.125000 I6.529084 J0.000000
G02 X28.244234 Y160.750453 Z-0.125000 I5.147113 J-1.398009
G02 X29.290567 Y161.930404 Z-0.125000 I4.067447 J-2.552951
G02 X31.223845 Y163.161914 Z-0.125000 I6.382331 J-7.886035
G01 X31.223845 Y163.257103 Z-0.125000
G02 X29.694560 Y164.385660 Z-0.125000 I3.657744 J6.556967
G02 X28.716770 Y165.652698 Z-0.125000 I3.678033 J3.849191
G02 X28.133951 Y167.152772 Z-0.125000 I5.197825 J2.882751
G02 X27.916082 Y169.000185 Z-0.125000 I7.723594 J1.847413
G02 X28.481605 Y171.543280 Z-0.125000 I6.000775 J0.000000
G02 X30.068752 Y173.600997 Z-0.125000 I5.408090 J-2.530386
G02 X32.405927 Y174.883864 Z-0.125000 I4.460783 J-5.356413
G02 X35.673571 Y175.393727 Z-0.125000 I3.267644 J-10.216014
G02 X39.125689 Y174.906239 Z-0.125000 I-0.000000 J-12.466734
G02 X41.344022 Y173.759645 Z-0.125000 I-1.771017 J-6.145634
G02 X42.852888 Y171.873075 Z-0.125000 I-3.265087 J-4.158071
G02 X43.404812 Y169.428536 Z-0.125000 I-5.137623 J-2.444538
G02 X43.176426 Y167.815252 Z-0.125000 I-5.812205 J0.000000
G02 X42.538493 Y166.430077 Z-0.125000 I-4.891472 J1.413251
G02 X41.519926 Y165.282594 Z-0.125000 I-4.464925 J2.937497
G02 X39.887033 Y164.193130 Z-0.125000 I-5.640893 J6.686169
G01 X39.887033 Y164.097941 Z-0.125000
G02 X41.735415 Y162.935658 Z-0.125000 I-3.433560 J-7.511286
G02 X42.919147 Y161.575427 Z-0.125000 I-3.602366 J-4.330118
G02 X43.634598 Y159.912260 Z-0.125000 I-5.177104 J-3.212523
G02 X43.903602 Y157.831319 Z-0.125000 I-7.914292 J-2.080940
G01 X43.903602 Y157.831319 Z-0.125000
G00 Z5.000000

(End cutting path id: path8191)


(Start cutting path id: path8193)
(ZZZanette)
(Change tool to Default tool)

G00 Z5.000000
G00 X55.651409 Y168.714618

G01 Z-0.125000 F100.0(Penetrate)
G03 X55.452942 Y169.945997 Z-0.125000 I-3.919258 J0.000000 F400.000000
G03 X54.916352 Y170.935699 Z-0.125000 I-3.031380 J-1.003222
G03 X54.078117 Y171.635149 Z-0.125000 I-1.994632 J-1.538404
G03 X53.104957 Y171.871726 Z-0.125000 I-0.973160 J-1.883254
G03 X52.139792 Y171.640635 Z-0.125000 I-0.000000 J-2.131077
G03 X51.293563 Y170.951564 Z-0.125000 I1.167004 J-2.297316
G03 X50.758111 Y169.961463 Z-0.125000 I2.479711 J-1.980879
G03 X50.558505 Y168.714618 Z-0.125000 I3.794434 J-1.246846
G03 X50.761479 Y167.438192 Z-0.125000 I4.114977 J-0.000000
G03 X51.293563 Y166.461806 Z-0.125000 I2.895584 J0.944784
G03 X52.145336 Y165.796036 Z-0.125000 I2.007498 J1.690596
G03 X53.104957 Y165.573374 Z-0.125000 I0.959621 J1.956539
G03 X54.080761 Y165.807013 Z-0.125000 I-0.000000 J2.154567
G03 X54.916352 Y166.493536 Z-0.125000 I-1.133542 J2.231446
G03 X55.452942 Y167.483238 Z-0.125000 I-2.494789 J1.992923
G03 X55.651409 Y168.714618 Z-0.125000 I-3.720792 J1.231380
G01 X55.651409 Y168.714618 Z-0.125000
G00 Z5.000000

(End cutting path id: path8193)


(Start cutting path id: path8193)
(ZZZanette)
(Change tool to Default tool)

G00 Z5.000000
G00 X58.644146 Y168.714618

G01 Z-0.125000 F100.0(Penetrate)
G02 X58.205678 Y166.082273 Z-0.125000 I-8.120871 J0.000000 F400.000000
G02 X57.029644 Y164.002752 Z-0.125000 I-6.156999 J2.109671
G02 X55.201170 Y162.568290 Z-0.125000 I-4.274010 J3.565390
G02 X53.104957 Y162.083103 Z-0.125000 I-2.096213 J4.285668
G02 X51.007063 Y162.567224 Z-0.125000 I-0.000000 J4.787571
G02 X49.167145 Y164.002752 Z-0.125000 I2.464704 J5.055894
G02 X48.001209 Y166.080178 Z-0.125000 I5.003986 J4.174338
G02 X47.565768 Y168.714618 Z-0.125000 I7.751534 J2.634439
G02 X48.001209 Y171.349057 Z-0.125000 I8.186974 J-0.000000
G02 X49.167145 Y173.426483 Z-0.125000 I6.169922 J-2.096912
G02 X51.007063 Y174.862010 Z-0.125000 I4.304622 J-3.620367
G02 X53.104957 Y175.346132 Z-0.125000 I2.097894 J-4.303450
G02 X55.213630 Y174.859523 Z-0.125000 I-0.000000 J-4.812171
G02 X57.042770 Y173.426483 Z-0.125000 I-2.431084 J-4.986931
G02 X58.208706 Y171.349057 Z-0.125000 I-5.003986 J-4.174338
G02 X58.644146 Y168.714618 Z-0.125000 I-7.751534 J-2.634439
G01 X58.644146 Y168.714618 Z-0.125000
G00 Z5.000000

(End cutting path id: path8193)


(Start cutting path id: path8195)
(ZZZanette)
(Change tool to Default tool)

G00 Z5.000000
G00 X87.980852 Y170.285239

G01 Z-0.125000 F100.0(Penetrate)
G01 X81.877242 Y170.285239 Z-0.125000 F400.000000
G01 X81.877242 Y151.231533 Z-0.125000
G01 X76.836841 Y151.231533 Z-0.125000
G01 X76.836841 Y170.285239 Z-0.125000
G01 X70.733230 Y170.285239 Z-0.125000
G01 X70.733230 Y174.854321 Z-0.125000
G01 X87.980852 Y174.854321 Z-0.125000
G01 X87.980852 Y170.285239 Z-0.125000
G00 Z5.000000

(End cutting path id: path8195)


(Start cutting path id: path8197)
(ZZZanette)
(Change tool to Default tool)

G00 Z5.000000
G00 X103.338320 Y157.053939

G01 Z-0.125000 F100.0(Penetrate)
G03 X103.958222 Y158.183924 Z-0.125000 I-5.536275 J3.772194 F400.000000
G03 X104.427783 Y159.592318 Z-0.125000 I-8.168210 J3.505766
G03 X104.681454 Y161.079679 Z-0.125000 I-10.987764 J2.639291
G03 X104.782186 Y163.050860 Z-0.125000 I-19.236331 J1.971181
G03 X104.663876 Y165.160901 Z-0.125000 I-18.875412 J-0.000000
G03 X104.375277 Y166.668050 Z-0.125000 I-9.889448 J-1.112493
G03 X103.863951 Y168.109810 Z-0.125000 I-9.921272 J-2.707070
G03 X103.312068 Y169.079509 Z-0.125000 I-5.005860 J-2.207076
G03 X102.555228 Y169.928788 Z-0.125000 I-4.054748 J-2.851549
G03 X101.763195 Y170.459753 Z-0.125000 I-2.317158 J-2.600255
G03 X100.871798 Y170.780805 Z-0.125000 I-1.854026 J-3.749675
G03 X99.951800 Y170.888104 Z-0.125000 I-0.919998 J-3.890449
G03 X99.017655 Y170.783088 Z-0.125000 I-0.000000 J-4.207216
G03 X98.140408 Y170.475618 Z-0.125000 I0.913473 J-4.011424
G03 X97.380030 Y169.967280 Z-0.125000 I1.521611 J-3.098904
G03 X96.591534 Y169.111239 Z-0.125000 I3.694823 J-4.194448
G03 X96.046611 Y168.169173 Z-0.125000 I3.922001 J-2.897251
G03 X95.515200 Y166.652185 Z-0.125000 I9.743897 J-4.264930
G03 X95.223103 Y165.082653 Z-0.125000 I10.738065 J-2.810347
G03 X95.108292 Y163.034995 Z-0.125000 I18.202549 J-2.047658
G03 X95.222500 Y160.939792 Z-0.125000 I19.275808 J-0.000000
G03 X95.502074 Y159.433671 Z-0.125000 I10.212302 J1.116652
G03 X96.010561 Y158.006098 Z-0.125000 I10.003954 J2.758963
G03 X96.565283 Y157.022210 Z-0.125000 I5.274865 J2.325680
G03 X97.307134 Y156.185010 Z-0.125000 I4.040340 J2.832906
G03 X98.101029 Y155.641967 Z-0.125000 I2.438882 J2.713653
G03 X99.007103 Y155.309535 Z-0.125000 I1.878469 J3.718936
G03 X99.951800 Y155.197751 Z-0.125000 I0.944697 J3.935969
G03 X100.896500 Y155.309536 Z-0.125000 I-0.000000 J4.047770
G03 X101.802574 Y155.641967 Z-0.125000 I-0.972392 J4.051363
G03 X102.595728 Y156.199527 Z-0.125000 I-1.723922 J3.295283
G03 X103.338320 Y157.053939 Z-0.125000 I-3.431541 J3.732350
G01 X103.338320 Y157.053939 Z-0.125000
G00 Z5.000000

(End cutting path id: path8197)


(Start cutting path id: path8197)
(ZZZanette)
(Change tool to Default tool)

G00 Z5.000000
G00 X110.019477 Y163.034995

G01 Z-0.125000 F100.0(Penetrate)
G02 X109.235574 Y157.663081 Z-0.125000 I-18.798219 J0.000000 F400.000000
G02 X107.341763 Y154.055480 Z-0.125000 I-10.147308 J3.025953
G02 X104.226236 Y151.656043 Z-0.125000 I-6.564659 J5.301438
G02 X99.938674 Y150.739724 Z-0.125000 I-4.287561 J9.572838
G02 X95.663665 Y151.654841 Z-0.125000 I-0.000000 J10.443005
G02 X92.548714 Y154.055480 Z-0.125000 I3.459255 J7.709782
G02 X90.654903 Y157.663081 Z-0.125000 I8.253498 J6.633553
G02 X89.871000 Y163.034995 Z-0.125000 I18.014316 J5.371914
G02 X90.659951 Y168.450653 Z-0.125000 I18.982046 J0.000000
G02 X92.548714 Y172.030375 Z-0.125000 I9.950535 J-2.962041
G02 X95.663665 Y174.431015 Z-0.125000 I6.574207 J-5.309142
G02 X99.938674 Y175.346132 Z-0.125000 I4.275009 J-9.527884
G02 X104.202992 Y174.433304 Z-0.125000 I0.000000 J-10.416887
G02 X107.328638 Y172.030375 Z-0.125000 I-3.485360 J-7.767964
G02 X109.227152 Y168.448388 Z-0.125000 I-8.037822 J-6.554300
G02 X110.019477 Y163.034995 Z-0.125000 I-18.096780 J-5.413393
G01 X110.019477 Y163.034995 Z-0.125000
G00 Z5.000000

(End cutting path id: path8197)


(Start cutting path id: path8199)
(ZZZanette)
(Change tool to Default tool)

G00 Z5.000000
G00 X122.817372 Y159.449535

G01 Z-0.125000 F100.0(Penetrate)
G01 X112.802201 Y159.449535 Z-0.125000 F400.000000
G01 X112.802201 Y164.018617 Z-0.125000
G01 X122.817372 Y164.018617 Z-0.125000
G01 X122.817372 Y159.449535 Z-0.125000
G00 Z5.000000

(End cutting path id: path8199)


(Start cutting path id: path8201)
(ZZZanette)
(Change tool to Default tool)

G00 Z5.000000
G00 X142.414551 Y158.656293

G01 Z-0.125000 F100.0(Penetrate)
G02 X141.753849 Y155.462041 Z-0.125000 I-8.051875 J0.000000 F400.000000
G02 X139.959981 Y152.976670 Z-0.125000 I-6.526482 J2.820558
G02 X137.278180 Y151.434647 Z-0.125000 I-5.038527 J5.659695
G02 X133.318203 Y150.803182 Z-0.125000 I-3.959977 J12.100956
G02 X130.909643 Y150.946873 Z-0.125000 I-0.000000 J20.258076
G02 X129.078493 Y151.310858 Z-0.125000 I1.442037 J12.042751
G02 X127.310717 Y151.911884 Z-0.125000 I5.876222 J20.183772
G02 X125.705099 Y152.627641 Z-0.125000 I6.775839 J17.358655
G01 X125.705099 Y158.291400 Z-0.125000
G01 X126.256395 Y158.291400 Z-0.125000
G03 X127.927231 Y156.949533 Z-0.125000 I8.196179 J8.494382
G03 X129.747922 Y155.975129 Z-0.125000 I6.059395 J9.133881
G03 X131.728058 Y155.353499 Z-0.125000 I4.416741 J10.604498
G03 X133.475716 Y155.166019 Z-0.125000 I1.747659 J8.051955
G03 X133.933985 Y155.184053 Z-0.125000 I-0.000000 J5.831731
G03 X134.683313 Y155.261209 Z-0.125000 I-1.236325 J15.684303
G03 X135.417999 Y155.402826 Z-0.125000 I-0.739684 J5.813887
G03 X135.904035 Y155.578506 Z-0.125000 I-0.703436 J2.706293
G03 X136.444317 Y155.912047 Z-0.125000 I-1.501095 J3.035882
G03 X136.849110 Y156.292426 Z-0.125000 I-1.562327 J2.068184
G03 X137.112906 Y156.765198 Z-0.125000 I-0.937422 J0.833040
G03 X137.229765 Y157.561615 Z-0.125000 I-2.655439 J0.796417
G03 X137.087006 Y158.280164 Z-0.125000 I-1.879718 J0.000000
G03 X136.678472 Y158.894265 Z-0.125000 I-1.760681 J-0.728362
G03 X136.076310 Y159.360392 Z-0.125000 I-1.779403 J-1.676693
G03 X135.090221 Y159.766832 Z-0.125000 I-2.309451 J-4.203674
G03 X133.982841 Y160.065185 Z-0.125000 I-9.312410 J-32.360048
G03 X132.753785 Y160.353834 Z-0.125000 I-9.942937 J-39.575773
G02 X131.546504 Y160.682202 Z-0.125000 I3.984858 J17.034292
G02 X130.456728 Y161.067750 Z-0.125000 I4.432257 J14.260973
G02 X128.209197 Y162.307505 Z-0.125000 I3.605198 J9.192938
G02 X126.899570 Y163.685455 Z-0.125000 I3.210347 J4.362491
G02 X126.127275 Y165.440945 Z-0.125000 I5.080583 J3.282729
G02 X125.823235 Y167.810320 Z-0.125000 I9.080217 J2.369375
G02 X126.472297 Y170.810347 Z-0.125000 I7.257740 J-0.000000
G02 X128.264679 Y173.188510 Z-0.125000 I6.220667 J-2.823889
G02 X130.935767 Y174.695298 Z-0.125000 I5.196310 J-6.090600
G02 X134.565179 Y175.282672 Z-0.125000 I3.629412 J-10.919455
G02 X136.480777 Y175.167327 Z-0.125000 I-0.000000 J-15.964340
G02 X138.371730 Y174.822591 Z-0.125000 I-1.921697 J-15.899455
G02 X140.228626 Y174.285902 Z-0.125000 I-4.377561 J-18.626630
G02 X141.640116 Y173.696186 Z-0.125000 I-3.904897 J-11.330474
G01 X141.640116 Y168.254536 Z-0.125000
G01 X141.101946 Y168.254536 Z-0.125000
G03 X139.834239 Y169.268580 Z-0.125000 I-6.017439 J-6.223269
G03 X138.201091 Y170.158320 Z-0.125000 I-6.233816 J-9.498659
G03 X136.453088 Y170.743951 Z-0.125000 I-3.673912 J-8.064417
G03 X134.709564 Y170.935699 Z-0.125000 I-1.743524 J-7.830883
G03 X134.081929 Y170.908095 Z-0.125000 I0.000000 J-7.149193
G03 X133.449465 Y170.824645 Z-0.125000 I0.647173 J-7.343276
G03 X132.847195 Y170.683096 Z-0.125000 I0.607348 J-3.936238
G03 X132.254994 Y170.443888 Z-0.125000 I1.289116 J-4.044080
G03 X131.789096 Y170.149252 Z-0.125000 I0.904872 J-1.946518
G03 X131.375550 Y169.714104 Z-0.125000 I1.625652 J-1.959033
G03 X131.103777 Y169.205489 Z-0.125000 I1.374361 J-1.061291
G03 X131.008021 Y168.619428 Z-0.125000 I1.745570 J-0.586061
G03 X131.176854 Y167.760915 Z-0.125000 I2.267184 J0.000000
G03 X131.598694 Y167.175725 Z-0.125000 I1.426391 J0.583590
G03 X132.243143 Y166.789706 Z-0.125000 I1.560318 J1.873958
G03 X133.830119 Y166.271428 Z-0.125000 I4.523306 J11.161619
G02 X134.906010 Y165.999969 Z-0.125000 I-82.579066 J-329.558679
G02 X135.890909 Y165.747887 Z-0.125000 I-70.225110 J-276.423912
G02 X136.878088 Y165.461592 Z-0.125000 I-3.829042 J-15.048064
G02 X138.030453 Y165.049833 Z-0.125000 I-6.826634 J-20.923710
G02 X140.080454 Y163.916614 Z-0.125000 I-3.374404 J-8.525163
G02 X141.338216 Y162.622508 Z-0.125000 I-3.219702 J-4.387551
G02 X142.102155 Y161.000237 Z-0.125000 I-4.202734 J-2.970106
G02 X142.414551 Y158.656293 Z-0.125000 I-8.637264 J-2.343944
G01 X142.414551 Y158.656293 Z-0.125000
G00 Z5.000000

(End cutting path id: path8201)


(Start cutting path id: path8203)
(ZZZanette)
(Change tool to Default tool)

G00 Z5.000000
G00 X156.157519 Y160.337966

G01 Z-0.125000 F100.0(Penetrate)
G01 X153.755452 Y168.809807 Z-0.125000 F400.000000
G01 X151.353387 Y160.337966 Z-0.125000
G01 X156.157519 Y160.337966 Z-0.125000
G00 Z5.000000

(End cutting path id: path8203)


(Start cutting path id: path8203)
(ZZZanette)
(Change tool to Default tool)

G00 Z5.000000
G00 X163.941262 Y151.231533

G01 Z-0.125000 F100.0(Penetrate)
G01 X158.730222 Y151.231533 Z-0.125000 F400.000000
G01 X157.378241 Y156.006857 Z-0.125000
G01 X150.132665 Y156.006857 Z-0.125000
G01 X148.780682 Y151.231533 Z-0.125000
G01 X143.700903 Y151.231533 Z-0.125000
G01 X150.920228 Y174.854321 Z-0.125000
G01 X156.721938 Y174.854321 Z-0.125000
G01 X163.941262 Y151.231533 Z-0.125000
G00 Z5.000000

(End cutting path id: path8203)


(Start cutting path id: path8216)
(ZZZanette)
(Change tool to Default tool)

G00 Z5.000000
G00 X143.531185 Y138.753857

G01 Z-0.125000 F100.0(Penetrate)
G03 X143.445870 Y139.623029 Z-0.125000 I-4.470148 J-0.000000 F400.000000
G03 X143.229287 Y140.276883 Z-0.125000 I-2.727424 J-0.540636
G03 X142.836684 Y140.822280 Z-0.125000 I-1.695978 J-0.806840
G03 X142.192329 Y141.276371 Z-0.125000 I-1.793440 J-1.860673
G03 X141.664434 Y141.471320 Z-0.125000 I-1.175163 J-2.369969
G03 X140.997859 Y141.577801 Z-0.125000 I-0.931338 J-3.690599
G03 X140.314466 Y141.623191 Z-0.125000 I-1.201595 J-12.923806
G03 X139.409608 Y141.641262 Z-0.125000 I-0.904858 J-22.646138
G01 X137.585088 Y141.641262 Z-0.125000
G01 X137.585088 Y135.279450 Z-0.125000
G01 X139.133961 Y135.279450 Z-0.125000
G03 X140.337861 Y135.321916 Z-0.125000 I-0.000000 J17.086371
G03 X141.155372 Y135.422233 Z-0.125000 I-0.562792 J7.967582
G03 X141.919183 Y135.666207 Z-0.125000 I-0.512927 J2.923448
G03 X142.520481 Y136.072692 Z-0.125000 I-1.046102 J2.195439
G03 X142.984811 Y136.606072 Z-0.125000 I-2.379419 J2.540186
G03 X143.281790 Y137.151506 Z-0.125000 I-2.193217 J1.547733
G03 X143.455039 Y137.769497 Z-0.125000 I-2.499428 J1.033975
G03 X143.531185 Y138.753857 Z-0.125000 I-6.324460 J0.984360
G01 X143.531185 Y138.753857 Z-0.125000
G00 Z5.000000

(End cutting path id: path8216)


(Start cutting path id: path8214)
(ZZZanette)
(Change tool to Default tool)

G00 Z5.000000
G00 X127.845560 Y130.916613

G01 Z-0.125000 F100.0(Penetrate)
G02 X127.186559 Y126.800137 Z-0.125000 I-13.186359 J-0.000000 F400.000000
G02 X125.640386 Y124.205772 Z-0.125000 I-6.574747 J2.160454
G02 X123.135922 Y122.568532 Z-0.125000 I-4.680740 J4.425922
G02 X119.142995 Y121.873637 Z-0.125000 I-3.992926 J11.124397
G02 X115.150067 Y122.568532 Z-0.125000 I0.000000 J11.819305
G02 X112.645603 Y124.205772 Z-0.125000 I2.176274 J6.063160
G02 X111.108226 Y126.797286 Z-0.125000 I5.052736 J4.749229
G02 X110.453554 Y130.900745 Z-0.125000 I12.532818 J4.103459
G01 X110.453554 Y145.988235 Z-0.125000
G01 X115.520206 Y145.988235 Z-0.125000
G01 X115.520206 Y131.249774 Z-0.125000
G03 X115.792719 Y128.877383 Z-0.125000 I10.462822 J-0.000000
G03 X116.373400 Y127.584989 Z-0.125000 I3.587332 J0.835162
G03 X117.412992 Y126.739506 Z-0.125000 I2.034371 J1.439555
G03 X119.142995 Y126.379260 Z-0.125000 I1.730003 J3.973871
G03 X120.859860 Y126.725282 Z-0.125000 I-0.000000 J4.432315
G03 X121.899463 Y127.537396 Z-0.125000 I-0.974085 J2.318411
G03 X122.491786 Y128.792191 Z-0.125000 I-2.670241 J2.027681
G03 X122.778908 Y131.249774 Z-0.125000 I-10.374137 J2.457583
G01 X122.778908 Y145.988235 Z-0.125000
G01 X127.845560 Y145.988235 Z-0.125000
G01 X127.845560 Y130.916613 Z-0.125000
G00 Z5.000000

(End cutting path id: path8214)


(Start cutting path id: path8212)
(ZZZanette)
(Change tool to Default tool)

G00 Z5.000000
G00 X107.263924 Y129.790206

G01 Z-0.125000 F100.0(Penetrate)
G02 X106.603223 Y126.595956 Z-0.125000 I-8.051868 J0.000000 F400.000000
G02 X104.809354 Y124.110583 Z-0.125000 I-6.526498 J2.820565
G02 X102.127554 Y122.568562 Z-0.125000 I-5.038523 J5.659700
G02 X98.167577 Y121.937098 Z-0.125000 I-3.959977 J12.100975
G02 X95.759016 Y122.080788 Z-0.125000 I0.000000 J20.258205
G02 X93.927867 Y122.444771 Z-0.125000 I1.442036 J12.042818
G02 X92.160091 Y123.045798 Z-0.125000 I5.876167 J20.183583
G02 X90.554473 Y123.761557 Z-0.125000 I6.775801 J17.358516
G01 X90.554473 Y129.425312 Z-0.125000
G01 X91.105768 Y129.425312 Z-0.125000
G03 X92.776607 Y128.083446 Z-0.125000 I8.196189 J8.494406
G03 X94.597296 Y127.109045 Z-0.125000 I6.059369 J9.133855
G03 X96.577431 Y126.487415 Z-0.125000 I4.416741 J10.604498
G03 X98.325090 Y126.299935 Z-0.125000 I1.747659 J8.051955
G03 X98.783358 Y126.317969 Z-0.125000 I0.000000 J5.831731
G03 X99.532686 Y126.395125 Z-0.125000 I-1.236325 J15.684303
G03 X100.267372 Y126.536742 Z-0.125000 I-0.739684 J5.813887
G03 X100.753408 Y126.712422 Z-0.125000 I-0.703436 J2.706293
G03 X101.293690 Y127.045963 Z-0.125000 I-1.501095 J3.035882
G03 X101.698484 Y127.426342 Z-0.125000 I-1.562327 J2.068184
G03 X101.962279 Y127.899114 Z-0.125000 I-0.937422 J0.833040
G03 X102.079138 Y128.695531 Z-0.125000 I-2.655439 J0.796417
G03 X101.936380 Y129.414077 Z-0.125000 I-1.879706 J-0.000000
G03 X101.527845 Y130.028178 Z-0.125000 I-1.760685 J-0.728365
G03 X100.925683 Y130.494307 Z-0.125000 I-1.779396 J-1.676677
G03 X99.939595 Y130.900745 Z-0.125000 I-2.309419 J-4.203616
G03 X98.832215 Y131.199098 Z-0.125000 I-9.312410 J-32.360048
G03 X97.603158 Y131.487747 Z-0.125000 I-9.942937 J-39.575773
G02 X96.395877 Y131.816117 Z-0.125000 I3.984970 J17.034583
G02 X95.306102 Y132.201666 Z-0.125000 I4.432348 J14.261203
G02 X93.058571 Y133.441420 Z-0.125000 I3.605184 J9.192919
G02 X91.748943 Y134.819370 Z-0.125000 I3.210344 J4.362488
G02 X90.976649 Y136.574859 Z-0.125000 I5.080564 J3.282722
G02 X90.672609 Y138.944236 Z-0.125000 I9.080226 J2.369377
G02 X91.321671 Y141.944262 Z-0.125000 I7.257734 J-0.000000
G02 X93.114053 Y144.322423 Z-0.125000 I6.220660 J-2.823887
G02 X95.785141 Y145.829211 Z-0.125000 I5.196311 J-6.090599
G02 X99.414553 Y146.416586 Z-0.125000 I3.629412 J-10.919452
G02 X101.330151 Y146.301241 Z-0.125000 I-0.000000 J-15.964373
G02 X103.221104 Y145.956506 Z-0.125000 I-1.921697 J-15.899485
G02 X105.077999 Y145.419816 Z-0.125000 I-4.377529 J-18.626521
G02 X106.489490 Y144.830099 Z-0.125000 I-3.904881 J-11.330418
G01 X106.489490 Y139.388451 Z-0.125000
G01 X105.951320 Y139.388451 Z-0.125000
G03 X104.683612 Y140.402496 Z-0.125000 I-6.017434 J-6.223260
G03 X103.050465 Y141.292235 Z-0.125000 I-6.233803 J-9.498639
G03 X101.302461 Y141.877865 Z-0.125000 I-3.673911 J-8.064428
G03 X99.558938 Y142.069613 Z-0.125000 I-1.743524 J-7.830896
G03 X98.931302 Y142.042009 Z-0.125000 I-0.000000 J-7.149214
G03 X98.298839 Y141.958559 Z-0.125000 I0.647173 J-7.343296
G03 X97.696568 Y141.817009 Z-0.125000 I0.607348 J-3.936226
G03 X97.104368 Y141.577801 Z-0.125000 I1.289117 J-4.044072
G03 X96.638469 Y141.283165 Z-0.125000 I0.904873 J-1.946525
G03 X96.224923 Y140.848020 Z-0.125000 I1.625645 J-1.959033
G03 X95.953151 Y140.339404 Z-0.125000 I1.374370 J-1.061294
G03 X95.857395 Y139.753342 Z-0.125000 I1.745575 J-0.586062
G03 X96.026228 Y138.894829 Z-0.125000 I2.267180 J0.000000
G03 X96.448067 Y138.309641 Z-0.125000 I1.426381 J0.583587
G03 X97.092520 Y137.923621 Z-0.125000 I1.560330 J1.873976
G03 X98.679493 Y137.405342 Z-0.125000 I4.523304 J11.161596
G02 X99.755384 Y137.133882 Z-0.125000 I-82.607806 J-329.671802
G02 X100.740283 Y136.881801 Z-0.125000 I-70.249151 J-276.518546
G02 X101.727461 Y136.595507 Z-0.125000 I-3.828921 J-15.047666
G02 X102.879826 Y136.183746 Z-0.125000 I-6.826478 J-20.923191
G02 X104.929828 Y135.050527 Z-0.125000 I-3.374392 J-8.525146
G02 X106.187589 Y133.756421 Z-0.125000 I-3.219700 J-4.387548
G02 X106.951529 Y132.134150 Z-0.125000 I-4.202734 J-2.970106
G02 X107.263924 Y129.790206 Z-0.125000 I-8.637264 J-2.343944
G01 X107.263924 Y129.790206 Z-0.125000
G00 Z5.000000

(End cutting path id: path8212)


(Start cutting path id: path8210)
(ZZZanette)
(Change tool to Default tool)

G00 Z5.000000
G00 X88.585568 Y141.419154

G01 Z-0.125000 F100.0(Penetrate)
G01 X82.481957 Y141.419154 Z-0.125000 F400.000000
G01 X82.481957 Y122.365449 Z-0.125000
G01 X77.441556 Y122.365449 Z-0.125000
G01 X77.441556 Y141.419154 Z-0.125000
G01 X71.337949 Y141.419154 Z-0.125000
G01 X71.337949 Y145.988235 Z-0.125000
G01 X88.585568 Y145.988235 Z-0.125000
G01 X88.585568 Y141.419154 Z-0.125000
G00 Z5.000000

(End cutting path id: path8210)


(Start cutting path id: path8208)
(ZZZanette)
(Change tool to Default tool)

G00 Z5.000000
G00 X70.458504 Y122.365449

G01 Z-0.125000 F100.0(Penetrate)
G01 X65.247467 Y122.365449 Z-0.125000 F400.000000
G01 X63.895483 Y127.140773 Z-0.125000
G01 X56.649907 Y127.140773 Z-0.125000
G01 X55.297926 Y122.365449 Z-0.125000
G01 X50.218148 Y122.365449 Z-0.125000
G01 X57.437470 Y145.988235 Z-0.125000
G01 X63.239182 Y145.988235 Z-0.125000
G01 X70.458504 Y122.365449 Z-0.125000
G00 Z5.000000

(End cutting path id: path8208)


(Start cutting path id: path8208)
(ZZZanette)
(Change tool to Default tool)

G00 Z5.000000
G00 X62.674761 Y131.471882

G01 Z-0.125000 F100.0(Penetrate)
G01 X60.272696 Y139.943721 Z-0.125000 F400.000000
G01 X57.870629 Y131.471882 Z-0.125000
G01 X62.674761 Y131.471882 Z-0.125000
G00 Z5.000000

(End cutting path id: path8208)


(Start cutting path id: path8206)
(ZZZanette)
(Change tool to Default tool)

G00 Z5.000000
G00 X47.422301 Y122.365449

G01 Z-0.125000 F100.0(Penetrate)
G01 X42.408154 Y122.365449 Z-0.125000 F400.000000
G01 X42.408154 Y138.182720 Z-0.125000
G01 X38.785365 Y127.918151 Z-0.125000
G01 X35.306963 Y127.918151 Z-0.125000
G01 X31.684176 Y138.182720 Z-0.125000
G01 X31.684176 Y122.365449 Z-0.125000
G01 X26.932550 Y122.365449 Z-0.125000
G01 X26.932550 Y145.988235 Z-0.125000
G01 X32.786762 Y145.988235 Z-0.125000
G01 X37.183988 Y134.137179 Z-0.125000
G01 X41.568086 Y145.988235 Z-0.125000
G01 X47.422301 Y145.988235 Z-0.125000
G01 X47.422301 Y122.365449 Z-0.125000
G00 Z5.000000

(End cutting path id: path8206)


(Start cutting path id: path1044)
(ZZZanette)
(Change tool to Default tool)

G00 Z5.000000
G00 X67.726331 Y100.381110

G01 Z-0.125000 F100.0(Penetrate)
G01 X68.257398 Y101.135118 Z-0.125000 F400.000000
G01 X69.086029 Y100.756203 Z-0.125000
G01 X69.091816 Y99.845137 Z-0.125000
G02 X68.378897 Y99.353031 Z-0.125000 I-0.897953 J0.538415
G02 X67.197261 Y99.285861 Z-0.125000 I-0.707488 J2.018821
G02 X66.254944 Y100.102150 Z-0.125000 I0.293384 J1.290727
G01 X66.223166 Y101.078470 Z-0.125000
G01 X66.011293 Y101.906371 Z-0.125000
G01 X66.155303 Y102.817866 Z-0.125000
G01 X66.964339 Y103.144100 Z-0.125000
G02 X67.946171 Y102.843911 Z-0.125000 I0.027854 J-1.664635
G03 X68.987615 Y102.686960 Z-0.125000 I0.678881 J0.970983
G03 X69.877831 Y103.389669 Z-0.125000 I-0.147288 J1.101823
G01 X69.572400 Y104.514588 Z-0.125000
G01 X68.987802 Y104.717817 Z-0.125000
G01 X69.003742 Y104.440754 Z-0.125000
G01 X69.437699 Y103.644144 Z-0.125000
G01 X68.760357 Y103.053637 Z-0.125000
G01 X67.760611 Y103.530620 Z-0.125000
G01 X68.024562 Y104.643688 Z-0.125000
G01 X68.488790 Y104.869160 Z-0.125000
G01 X68.733195 Y105.274613 Z-0.125000
G02 X69.259184 Y106.330307 Z-0.125000 I1.209030 J0.056495
G02 X70.380765 Y106.417277 Z-0.125000 I0.636346 J-0.930890
G02 X71.453137 Y107.547133 Z-0.125000 I1.618371 J-0.462199
G02 X72.946939 Y107.285866 Z-0.125000 I0.509773 J-1.486423
G01 X73.759421 Y107.076417 Z-0.125000
G01 X74.717224 Y106.863728 Z-0.125000
G02 X75.129220 Y105.870502 Z-0.125000 I-0.659679 J-0.855702
G01 X74.366640 Y105.119586 Z-0.125000
G01 X73.748979 Y105.696630 Z-0.125000
G01 X74.337203 Y106.347889 Z-0.125000
G01 X73.128683 Y105.993846 Z-0.125000
G01 X73.695260 Y104.800545 Z-0.125000
G03 X74.980271 Y105.155109 Z-0.125000 I0.423454 J0.971169
G03 X75.567250 Y106.321241 Z-0.125000 I-3.441780 J2.463236
G01 X76.319063 Y106.245431 Z-0.125000
G01 X76.680075 Y106.096674 Z-0.125000
G01 X77.618574 Y106.119980 Z-0.125000
G01 X78.100922 Y105.264289 Z-0.125000
G01 X78.455342 Y104.620239 Z-0.125000
G01 X79.064827 Y103.968781 Z-0.125000
G02 X78.808392 Y103.041679 Z-0.125000 I-1.045733 J-0.209768
G01 X77.881066 Y102.894902 Z-0.125000
G01 X77.444235 Y103.586587 Z-0.125000
G01 X78.137905 Y103.659942 Z-0.125000
G01 X78.601733 Y103.580085 Z-0.125000
G01 X78.267548 Y104.347804 Z-0.125000
G01 X77.312704 Y104.364593 Z-0.125000
G03 X76.908939 Y103.470899 Z-0.125000 I0.743808 J-0.874104
G01 X77.280357 Y102.462944 Z-0.125000
G01 X78.325107 Y102.423241 Z-0.125000
G03 X79.589950 Y103.247994 Z-0.125000 I-7.475495 J12.846702
G02 X81.065057 Y103.632472 Z-0.125000 I1.227850 J-1.688853
G02 X82.442948 Y102.805163 Z-0.125000 I-0.263886 J-2.000604
G03 X83.765205 Y101.868074 Z-0.125000 I2.012438 J1.438188
G01 X83.716911 Y101.653107 Z-0.125000
G02 X82.944445 Y102.072132 Z-0.125000 I0.153522 J1.204542
G02 X82.022003 Y102.615842 Z-0.125000 I12.399007 J22.090143
G03 X80.998667 Y102.936610 Z-0.125000 I-1.139811 J-1.843557
G03 X79.802405 Y102.811499 Z-0.125000 I-0.404152 J-1.917293
G03 X78.780035 Y102.170547 Z-0.125000 I1.701750 J-3.850286
G02 X77.503864 Y101.577462 Z-0.125000 I-3.370097 J5.582065
G02 X76.081187 Y101.706538 Z-0.125000 I-0.565805 J1.668604
G01 X75.807884 Y101.980413 Z-0.125000
G01 X75.904790 Y102.339197 Z-0.125000
G03 X75.590991 Y104.100750 Z-0.125000 I-1.389926 J0.661128
G03 X73.882814 Y104.274459 Z-0.125000 I-0.963069 J-0.984814
G02 X73.256320 Y104.798457 Z-0.125000 I0.985747 J1.815079
G01 X72.384051 Y105.170420 Z-0.125000
G03 X71.500649 Y104.910601 Z-0.125000 I-0.080033 J-1.359608
G03 X70.968221 Y104.109534 Z-0.125000 I0.819896 J-1.122415
G03 X70.160001 Y103.362656 Z-0.125000 I0.900495 J-1.785193
G01 X70.267598 Y102.168466 Z-0.125000
G01 X70.999940 Y101.914342 Z-0.125000
G01 X71.675609 Y101.524269 Z-0.125000
G03 X73.220716 Y100.182908 Z-0.125000 I3.853358 J2.878083
G03 X75.148427 Y99.660446 Z-0.125000 I2.050583 J3.748429
G03 X73.536714 Y99.675915 Z-0.125000 I-2.651746 J-192.316045
G02 X71.967952 Y100.205333 Z-0.125000 I0.014228 J2.631133
G03 X70.447063 Y101.230128 Z-0.125000 I-12.529811 J-16.954419
G03 X68.687626 Y101.722779 Z-0.125000 I-1.748062 J-2.854846
G03 X67.780663 Y101.425038 Z-0.125000 I-0.103104 J-1.216173
G01 X67.726331 Y100.381110 Z-0.125000
G01 X67.726331 Y100.381110 Z-0.125000
G00 Z5.000000

(End cutting path id: path1044)


(Start cutting path id: path1048)
(ZZZanette)
(Change tool to Default tool)

G00 Z5.000000
G00 X71.425712 Y102.374420

G01 Z-0.125000 F100.0(Penetrate)
G01 X70.365885 Y102.490049 Z-0.125000 F400.000000
G01 X70.568679 Y103.554417 Z-0.125000
G03 X70.997510 Y103.778422 Z-0.125000 I-1.889011 J4.138755
G01 X71.261596 Y104.201003 Z-0.125000
G02 X72.388739 Y104.841120 Z-0.125000 I1.101666 J-0.627439
G02 X73.500115 Y104.168341 Z-0.125000 I-0.026077 J-1.297419
G01 X74.019212 Y104.095198 Z-0.125000
G01 X74.879265 Y104.160489 Z-0.125000
G02 X75.814628 Y103.195391 Z-0.125000 I-0.354739 J-1.279630
G02 X75.291485 Y101.937738 Z-0.125000 I-1.118009 J-0.272576
G01 X74.414481 Y101.956307 Z-0.125000
G01 X74.279342 Y102.844255 Z-0.125000
G01 X74.915768 Y102.508593 Z-0.125000
G01 X75.009823 Y102.414568 Z-0.125000
G01 X74.605921 Y103.200034 Z-0.125000
G01 X73.886548 Y102.661193 Z-0.125000
G01 X74.357149 Y101.669880 Z-0.125000
G03 X75.241773 Y101.654342 Z-0.125000 I0.460072 J1.003357
G03 X77.005165 Y101.173354 Z-0.125000 I1.423949 J1.747509
G03 X78.694660 Y101.791065 Z-0.125000 I-0.683886 J4.489809
G02 X80.095205 Y102.503991 Z-0.125000 I6.817880 J-11.661581
G02 X81.688808 Y102.510239 Z-0.125000 I0.804014 J-1.836563
G02 X83.017158 Y101.831289 Z-0.125000 I-1.891927 J-5.340432
G03 X84.496999 Y101.565719 Z-0.125000 I1.031779 J1.493543
G01 X84.580534 Y101.358580 Z-0.125000
G02 X83.665566 Y101.168570 Z-0.125000 I-0.672726 J0.941463
G02 X82.107271 Y101.491989 Z-0.125000 I-0.311367 J2.415570
G03 X80.613871 Y101.984320 Z-0.125000 I-1.852594 J-3.108364
G03 X79.660185 Y101.546664 Z-0.125000 I0.075961 J-1.423429
G02 X78.828781 Y100.890648 Z-0.125000 I-2.757913 J2.640398
G02 X76.688178 Y99.861105 Z-0.125000 I-3.543988 J4.628467
G02 X74.332198 Y99.928129 Z-0.125000 I-1.057638 J4.264065
G02 X72.644414 Y100.831101 Z-0.125000 I1.207692 J4.286188
G02 X71.425712 Y102.374420 Z-0.125000 I3.307521 J3.864670
G01 X71.425712 Y102.374420 Z-0.125000
G00 Z5.000000

(End cutting path id: path1048)


(Start cutting path id: path1052)
(ZZZanette)
(Change tool to Default tool)

G00 Z5.000000
G00 X82.329564 Y103.641820

G01 Z-0.125000 F100.0(Penetrate)
G01 X81.776058 Y104.089596 Z-0.125000 F400.000000
G01 X81.205828 Y104.481472 Z-0.125000
G01 X81.243322 Y105.043357 Z-0.125000
G01 X81.758690 Y105.068951 Z-0.125000
G01 X81.765121 Y104.869524 Z-0.125000
G01 X81.583453 Y104.879363 Z-0.125000
G01 X81.381351 Y104.441227 Z-0.125000
G01 X81.869564 Y104.291612 Z-0.125000
G01 X82.215705 Y104.879273 Z-0.125000
G01 X81.814481 Y105.418748 Z-0.125000
G01 X81.080485 Y105.419886 Z-0.125000
G01 X80.610214 Y104.818347 Z-0.125000
G01 X80.557063 Y104.643224 Z-0.125000
G01 X80.415064 Y104.708427 Z-0.125000
G01 X80.460357 Y105.038768 Z-0.125000
G01 X80.258782 Y105.178676 Z-0.125000
G01 X80.118915 Y104.476375 Z-0.125000
G01 X80.611682 Y103.985134 Z-0.125000
G03 X81.224745 Y103.886732 Z-0.125000 I0.471105 J0.976132
G01 X81.834600 Y103.694907 Z-0.125000
G01 X82.209784 Y103.362105 Z-0.125000
G01 X82.508317 Y103.218233 Z-0.125000
G01 X82.444283 Y103.443456 Z-0.125000
G01 X82.329564 Y103.641820 Z-0.125000
G01 X82.329564 Y103.641820 Z-0.125000
G00 Z5.000000

(End cutting path id: path1052)


(Start cutting path id: path1068)
(ZZZanette)
(Change tool to Default tool)

G00 Z5.000000
G00 X81.357271 Y91.268130

G01 Z-0.125000 F100.0(Penetrate)
G03 X80.407076 Y91.563125 Z-0.125000 I-1.478290 J-3.083839 F400.000000
G03 X79.415397 Y91.506871 Z-0.125000 I-0.364971 J-2.335142
G02 X78.758491 Y91.410531 Z-0.125000 I-0.956119 J4.231645
G01 X78.112420 Y91.639079 Z-0.125000
G02 X77.731942 Y92.510711 Z-0.125000 I0.878868 J0.902495
G02 X78.095178 Y93.392796 Z-0.125000 I1.182285 J0.028975
G01 X78.542869 Y93.525873 Z-0.125000
G01 X78.923537 Y93.256592 Z-0.125000
G02 X79.097951 Y92.940161 Z-0.125000 I-1.191625 J-0.863095
G02 X79.215605 Y92.595332 Z-0.125000 I-3.263269 J-1.305901
G03 X78.832943 Y92.881621 Z-0.125000 I-0.947091 J-0.867026
G01 X78.350751 Y92.833365 Z-0.125000
G01 X78.218703 Y92.313828 Z-0.125000
G01 X78.521854 Y91.886595 Z-0.125000
G01 X79.134734 Y91.688344 Z-0.125000
G01 X79.708683 Y91.996668 Z-0.125000
G03 X80.005185 Y92.784158 Z-0.125000 I-0.873008 J0.778265
G03 X79.715931 Y93.573792 Z-0.125000 I-1.249342 J-0.009855
G03 X78.897562 Y94.148500 Z-0.125000 I-1.313248 J-1.000007
G03 X77.913526 Y94.059461 Z-0.125000 I-0.385153 J-1.225567
G03 X76.996053 Y93.369447 Z-0.125000 I1.075632 J-2.385168
G03 X76.582728 Y92.241293 Z-0.125000 I1.321512 J-1.123958
G03 X76.673947 Y91.604847 Z-0.125000 I4.099750 J0.262835
G03 X76.985917 Y91.048865 Z-0.125000 I1.085347 J0.243489
G01 X77.049721 Y90.987576 Z-0.125000
G01 X77.024760 Y90.940660 Z-0.125000
G02 X76.283709 Y91.301198 Z-0.125000 I0.075031 J1.096069
G02 X75.985052 Y92.110709 Z-0.125000 I0.863792 J0.778531
G01 X76.011264 Y92.396580 Z-0.125000
G01 X75.901247 Y92.479696 Z-0.125000
G03 X75.511825 Y91.752060 Z-0.125000 I0.642707 J-0.811994
G03 X75.693585 Y90.941440 Z-0.125000 I1.391335 J-0.113717
G03 X76.172007 Y90.307121 Z-0.125000 I2.626884 J1.483694
G03 X76.818776 Y89.874788 Z-0.125000 I1.371991 J1.352546
G01 X77.552434 Y89.890312 Z-0.125000
G03 X78.194594 Y90.232172 Z-0.125000 I-1.989266 J4.510753
G02 X79.239609 Y90.663860 Z-0.125000 I1.629852 J-2.464776
G02 X80.348623 Y90.771274 Z-0.125000 I1.075719 J-5.327607
G02 X81.437216 Y90.687428 Z-0.125000 I-0.024337 J-7.424592
G02 X82.465948 Y90.272773 Z-0.125000 I-0.360500 J-2.377812
G01 X82.472271 Y90.381835 Z-0.125000
G03 X82.125556 Y90.728469 Z-0.125000 I-3.078654 J-2.732661
G03 X81.759818 Y91.028790 Z-0.125000 I-2.128251 J-2.218977
G03 X81.357271 Y91.268130 Z-0.125000 I-1.814460 J-2.593550
G01 X81.357271 Y91.268130 Z-0.125000
G00 Z5.000000

(End cutting path id: path1068)


(Start cutting path id: path1028)
(ZZZanette)
(Change tool to Default tool)

G00 Z5.000000
G00 X88.567425 Y91.268006

G01 Z-0.125000 F100.0(Penetrate)
G02 X99.672370 Y109.307320 Z-0.125000 I30.072965 J-6.075081 F400.000000
G02 X126.510855 Y118.597846 Z-0.125000 I26.838485 J-34.120262
G02 X141.692981 Y115.128372 Z-0.125000 I-0.000000 J-34.952588
G02 X155.735623 Y102.309015 Z-0.125000 I-14.414212 J-29.890695
G00 Z5.000000

(End cutting path id: path1028)


(Start cutting path id: path1028)
(ZZZanette)
(Change tool to Default tool)

G00 Z5.000000
G00 X159.537543 Y94.463721

G01 Z-0.125000 F100.0(Penetrate)
G02 X161.665766 Y87.841693 Z-0.125000 I-13.858869 J-8.107042 F400.000000
G02 X160.507603 Y74.972804 Z-0.125000 I-35.467888 J-3.294553
G00 Z5.000000

(End cutting path id: path1028)


(Start cutting path id: path5955)
(ZZZanette)
(Change tool to Default tool)

G00 Z5.000000
G00 X171.532520 Y68.225430

G01 Z-0.125000 F100.0(Penetrate)
G02 X169.698680 Y69.426886 Z-0.125000 I56.050286 J87.552502 F400.000000
G02 X168.353540 Y70.354670 Z-0.125000 I34.303468 J51.173621
G03 X163.418740 Y73.461196 Z-0.125000 I-30.996189 J-43.765480
G03 X157.760820 Y76.472620 Z-0.125000 I-84.945930 J-152.777207
G01 X157.760820 Y76.474620 Z-0.125000
G01 X157.758820 Y76.474620 Z-0.125000
G03 X151.491131 Y79.593447 Z-0.125000 I-219.593987 J-433.445400
G02 X148.094660 Y81.429890 Z-0.125000 I20.606711 J42.170856
G01 X148.092660 Y81.429890 Z-0.125000
G02 X147.639109 Y81.710573 Z-0.125000 I19.172046 J31.486642
G02 X147.294070 Y81.937060 Z-0.125000 I5.644101 J8.974483
G03 X143.293473 Y83.430911 Z-0.125000 I-5.007148 J-7.305547
G03 X141.278640 Y83.652310 Z-0.125000 I-25.893058 J-226.360265
G03 X139.392971 Y83.842531 Z-0.125000 I-13.411373 J-123.506088
G03 X137.079540 Y83.856180 Z-0.125000 I-1.234952 J-13.253765
G01 X137.079590 Y83.856110 Z-0.125000
G03 X136.332584 Y83.784887 Z-0.125000 I1.821713 J-23.059507
G03 X135.297360 Y83.652240 Z-0.125000 I3.586168 J-32.093765
G02 X129.989681 Y83.236589 Z-0.125000 I-6.056534 J43.243040
G02 X127.647430 Y83.606740 Z-0.125000 I-0.117530 J6.852040
G03 X127.006266 Y83.629769 Z-0.125000 I-0.358548 J-1.045526
G03 X125.790530 Y83.180450 Z-0.125000 I1.738631 J-6.573660
G03 X124.596146 Y82.536741 Z-0.125000 I6.565424 J-13.611884
G03 X122.701650 Y81.357370 Z-0.125000 I32.563618 J-54.420252
G03 X118.955660 Y78.871641 Z-0.125000 I106.763130 J-164.957366
G02 X112.574800 Y74.658120 Z-0.125000 I-157.092259 J230.958642
G01 X112.572800 Y74.658120 Z-0.125000
G02 X94.284152 Y63.867161 Z-0.125000 I-117.288312 J177.888254
G02 X76.348996 Y54.858660 Z-0.125000 I-262.856423 J500.966779
G02 X47.175038 Y42.003541 Z-0.125000 I-208.941079 J434.647958
G02 X36.085274 Y37.957260 Z-0.125000 I-68.502166 J170.525787
G02 X27.501096 Y35.338593 Z-0.125000 I-65.312910 J198.721255
G02 X18.758695 Y32.959520 Z-0.125000 I-137.426313 J487.749370
G00 Z5.000000

(End cutting path id: path5955)


(Start cutting path id: path1028)
(ZZZanette)
(Change tool to Default tool)

G00 Z5.000000
G00 X93.239004 Y63.936772

G01 Z-0.125000 F100.0(Penetrate)
G02 X89.879750 Y71.462432 Z-0.125000 I26.518674 J16.349799 F400.000000
G02 X89.332391 Y74.298667 Z-0.125000 I14.371317 J4.244421
G00 Z5.000000

(End cutting path id: path1028)


(Start cutting path id: path1076)
(ZZZanette)
(Change tool to Default tool)

G00 Z5.000000
G00 X92.587635 Y75.270390

G01 Z-0.125000 F100.0(Penetrate)
G02 X88.888668 Y77.305709 Z-0.125000 I1.225091 J6.605357 F400.000000
G02 X86.925653 Y81.221770 Z-0.125000 I5.740054 J5.327367
G01 X85.961450 Y80.991950 Z-0.125000
G03 X86.962095 Y79.572467 Z-0.125000 I1.513743 J0.004656
G03 X89.036548 Y76.595735 Z-0.125000 I6.188467 J2.101479
G03 X92.222143 Y75.176700 Z-0.125000 I4.240525 J5.234370
G01 X92.596746 Y74.931430 Z-0.125000
G01 X92.426802 Y74.660022 Z-0.125000
G02 X89.081309 Y75.815179 Z-0.125000 I0.223946 J6.070663
G02 X86.588492 Y78.436491 Z-0.125000 I5.857313 J8.066156
G02 X85.887467 Y80.090949 Z-0.125000 I5.556064 J3.329958
G03 X84.584416 Y81.193624 Z-0.125000 I-1.445669 J-0.387116
G02 X83.258070 Y83.306915 Z-0.125000 I1.553827 J2.448083
G02 X84.264652 Y85.636124 Z-0.125000 I2.520267 J0.292956
G02 X87.074058 Y86.737858 Z-0.125000 I2.775622 J-2.944959
G02 X89.737358 Y85.180430 Z-0.125000 I-0.025882 J-3.100180
G02 X91.936813 Y84.944448 Z-0.125000 I0.920037 J-1.792791
G02 X93.095983 Y83.486305 Z-0.125000 I-2.820498 J-3.432011
G02 X94.822496 Y81.976705 Z-0.125000 I-0.313296 J-2.100411
G02 X93.985683 Y79.762297 Z-0.125000 I-1.895506 J-0.549015
G02 X91.922170 Y79.025088 Z-0.125000 I-1.521087 J1.001075
G02 X91.168901 Y81.005124 Z-0.125000 I0.401280 J1.285961
G01 X91.859449 Y81.424502 Z-0.125000
G01 X92.390002 Y81.207866 Z-0.125000
G01 X92.387824 Y81.067588 Z-0.125000
G01 X91.976574 Y81.034936 Z-0.125000
G01 X91.930201 Y79.795148 Z-0.125000
G03 X93.538861 Y80.326912 Z-0.125000 I0.562696 J0.996859
G03 X93.586310 Y82.277585 Z-0.125000 I-0.969910 J0.999506
G03 X92.155238 Y83.205644 Z-0.125000 I-2.581905 J-2.413919
G03 X90.520920 Y84.372826 Z-0.125000 I-1.291379 J-0.080425
G02 X88.822171 Y85.095606 Z-0.125000 I-0.393714 J1.432327
G03 X86.336051 Y85.699045 Z-0.125000 I-2.062836 J-3.075695
G03 X84.241261 Y84.059051 Z-0.125000 I0.291029 J-2.529587
G03 X84.768029 Y82.045097 Z-0.125000 I1.066681 J-0.796867
G01 X86.038654 Y83.128219 Z-0.125000
G02 X87.558733 Y82.250553 Z-0.125000 I0.135431 J-1.520627
G02 X88.163471 Y80.335398 Z-0.125000 I-7.087218 J-3.290949
G03 X89.870480 Y77.618385 Z-0.125000 I5.536296 J1.583536
G03 X92.589356 Y76.165764 Z-0.125000 I4.368979 J4.906660
G03 X95.064075 Y75.734239 Z-0.125000 I3.138283 J10.685697
G03 X97.564626 Y75.651417 Z-0.125000 I2.812165 J47.114529
G02 X95.098890 Y75.191783 Z-0.125000 I-5.381731 J22.027055
G02 X92.587635 Y75.270390 Z-0.125000 I-1.012466 J7.807626
G01 X92.587635 Y75.270390 Z-0.125000
G00 Z5.000000

(End cutting path id: path1076)


(Start cutting path id: path1076)
(ZZZanette)
(Change tool to Default tool)

G00 Z5.000000
G00 X108.738814 Y84.319772

G01 Z-0.125000 F100.0(Penetrate)
G03 X103.345061 Y80.065518 Z-0.125000 I4.769217 J-11.593012 F400.000000
G02 X97.769636 Y76.046337 Z-0.125000 I-8.835888 J6.380461
G02 X93.828192 Y76.441777 Z-0.125000 I-1.407478 J5.811711
G02 X90.655005 Y78.922706 Z-0.125000 I3.808984 J8.141577
G02 X92.561092 Y78.062739 Z-0.125000 I-0.299045 J-3.205192
G03 X94.421441 Y77.050536 Z-0.125000 I2.861201 J3.042973
G03 X97.588243 Y76.795008 Z-0.125000 I1.974862 J4.723670
G03 X100.400038 Y78.358223 Z-0.125000 I-1.391719 J5.813751
G03 X103.582329 Y81.654652 Z-0.125000 I-18.231379 J20.784393
G02 X107.502562 Y84.015592 Z-0.125000 I5.256286 J-4.292667
G01 X107.917881 Y84.223874 Z-0.125000
G01 X107.799355 Y84.441479 Z-0.125000
G03 X104.184154 Y83.034249 Z-0.125000 I0.905065 J-7.672505
G03 X101.381423 Y80.241491 Z-0.125000 I7.328010 J-10.156924
G02 X99.314784 Y78.758437 Z-0.125000 I-3.817110 J3.137693
G02 X96.791634 Y79.079475 Z-0.125000 I-0.959674 J2.533268
G02 X95.227517 Y81.234167 Z-0.125000 I1.192230 J2.510505
G02 X96.742810 Y83.283561 Z-0.125000 I1.824913 J0.235575
G01 X97.378571 Y82.964922 Z-0.125000
G01 X97.074894 Y82.571843 Z-0.125000
G01 X96.896122 Y80.990807 Z-0.125000
G03 X98.765397 Y81.276100 Z-0.125000 I0.804493 J0.995372
G03 X99.899061 Y83.165106 Z-0.125000 I-0.683772 J1.695038
G02 X99.807715 Y84.468466 Z-0.125000 I17.872687 J1.907488
G03 X99.625619 Y86.614536 Z-0.125000 I-0.966712 J0.998735
G03 X97.390436 Y86.284024 Z-0.125000 I-0.938993 J-1.373079
G03 X97.340336 Y86.822413 Z-0.125000 I-3.178726 J-0.024274
G01 X96.418606 Y87.271191 Z-0.125000
G03 X94.337460 Y85.973521 Z-0.125000 I1.773246 J-5.161515
G02 X91.855943 Y85.372579 Z-0.125000 I-1.734621 J1.738875
G02 X90.791913 Y86.809782 Z-0.125000 I0.155809 J1.227831
G01 X92.304443 Y87.421128 Z-0.125000
G01 X92.045747 Y87.009606 Z-0.125000
G01 X91.421565 Y86.473082 Z-0.125000
G03 X93.403684 Y86.020097 Z-0.125000 I1.157460 J0.501622
G03 X94.159963 Y88.127365 Z-0.125000 I-1.489125 J1.723777
G03 X92.644134 Y89.836247 Z-0.125000 I-1.568145 J0.135742
G02 X90.654543 Y90.405959 Z-0.125000 I0.141434 J4.252881
G03 X89.180556 Y90.915508 Z-0.125000 I-2.252734 J-4.129856
G03 X87.699477 Y90.216858 Z-0.125000 I-0.237601 J-1.415512
G03 X85.444482 Y90.830652 Z-0.125000 I-1.505081 J-1.080294
G02 X83.309737 Y90.218502 Z-0.125000 I-3.279726 J7.409039
G03 X82.692781 Y87.967923 Z-0.125000 I0.876864 J-1.450230
G03 X84.636319 Y87.907925 Z-0.125000 I0.989054 J0.529909
G03 X84.352553 Y88.564317 Z-0.125000 I-1.101899 J-0.086832
G01 X84.596537 Y88.957953 Z-0.125000
G02 X84.685461 Y87.012918 Z-0.125000 I-0.725956 J-1.007740
G02 X82.700150 Y87.375327 Z-0.125000 I-0.847736 J0.975087
G03 X81.130996 Y88.522987 Z-0.125000 I-1.738760 J-0.730791
G03 X79.575527 Y87.380814 Z-0.125000 I-0.131078 J-1.451736
G02 X78.676345 Y86.131653 Z-0.125000 I-1.363604 J0.033351
G03 X78.060214 Y84.528907 Z-0.125000 I0.386942 J-1.068549
G02 X78.712928 Y82.360301 Z-0.125000 I-1.644291 J-1.677434
G03 X79.372617 Y80.314695 Z-0.125000 I2.105404 J-0.450201
G03 X81.453750 Y79.599969 Z-0.125000 I1.811638 J1.887833
G03 X83.170513 Y81.097405 Z-0.125000 I-0.203606 J1.966252
G03 X81.930121 Y82.447786 Z-0.125000 I-1.165427 J0.174369
G01 X81.346886 Y81.853862 Z-0.125000
G02 X83.087735 Y82.612790 Z-0.125000 I1.095399 J-0.136588
G02 X83.787609 Y80.538780 Z-0.125000 I-1.100108 J-1.526322
G03 X87.700316 Y74.949543 Z-0.125000 I9.761095 J2.669037
G03 X94.047332 Y73.281831 Z-0.125000 I5.393877 J7.616478
G03 X99.504803 Y75.174261 Z-0.125000 I-0.693962 J10.816736
G03 X103.694241 Y79.332806 Z-0.125000 I-9.449978 J13.709734
G02 X108.518237 Y83.187932 Z-0.125000 I11.616366 J-9.590048
G02 X114.236965 Y85.087586 Z-0.125000 I9.270717 J-18.350944
G03 X114.906256 Y85.267010 Z-0.125000 I-0.132316 J1.831576
G03 X115.689776 Y85.710955 Z-0.125000 I-3.084247 J6.356783
G01 X115.680826 Y85.808576 Z-0.125000
G01 X115.295380 Y85.817173 Z-0.125000
G02 X112.008287 Y85.105310 Z-0.125000 I-4.512354 J12.891052
G03 X108.738814 Y84.319772 Z-0.125000 I1.036987 J-11.512686
G01 X108.738814 Y84.319772 Z-0.125000
G00 Z5.000000

(End cutting path id: path1076)


(Start cutting path id: path1072)
(ZZZanette)
(Change tool to Default tool)

G00 Z5.000000
G00 X118.546480 Y88.102790

G01 Z-0.125000 F100.0(Penetrate)
G03 X117.342706 Y88.414129 Z-0.125000 I-1.246914 J-2.338292 F400.000000
G03 X116.121158 Y88.245729 Z-0.125000 I-0.065742 J-4.037789
G01 X115.396177 Y88.399896 Z-0.125000
G01 X114.978996 Y89.056875 Z-0.125000
G02 X115.012049 Y89.827928 Z-0.125000 I1.336722 J0.328935
G01 X115.547104 Y90.360026 Z-0.125000
G01 X116.097004 Y90.146526 Z-0.125000
G01 X116.326193 Y89.578230 Z-0.125000
G03 X115.912154 Y89.741154 Z-0.125000 I-0.796302 J-1.416088
G01 X115.477076 Y89.581112 Z-0.125000
G01 X115.465970 Y89.001788 Z-0.125000
G01 X115.868454 Y88.618248 Z-0.125000
G01 X116.562494 Y88.572185 Z-0.125000
G01 X117.061773 Y89.080649 Z-0.125000
G03 X117.154383 Y89.932991 Z-0.125000 I-1.119232 J0.552811
G03 X116.704594 Y90.640566 Z-0.125000 I-1.278605 J-0.316032
G03 X115.730007 Y91.032193 Z-0.125000 I-1.046147 J-1.194926
G03 X114.733920 Y90.694630 Z-0.125000 I-0.065219 J-1.445970
G03 X113.949188 Y89.837896 Z-0.125000 I1.115716 J-1.809704
G03 X113.818148 Y88.640580 Z-0.125000 I1.545481 J-0.774973
G01 X113.973395 Y88.182765 Z-0.125000
G02 X114.227793 Y87.787157 Z-0.125000 I-2.325425 J-1.774978
G02 X113.346881 Y88.258452 Z-0.125000 I-0.008555 J1.042926
G02 X113.228949 Y89.296193 Z-0.125000 I0.970354 J0.635846
G01 X112.842200 Y89.057176 Z-0.125000
G03 X112.722994 Y88.611159 Z-0.125000 I1.043029 J-0.517707
G03 X112.993614 Y87.560443 Z-0.125000 I1.578511 J-0.153651
G03 X113.750645 Y86.843711 Z-0.125000 I2.047212 J1.404157
G01 X114.402177 Y86.658305 Z-0.125000
G03 X115.038131 Y86.860476 Z-0.125000 I-0.134896 J1.525660
G02 X115.885225 Y87.326687 Z-0.125000 I4.455794 J-7.093380
G02 X116.818032 Y87.560372 Z-0.125000 I1.043069 J-2.185046
G02 X118.022475 Y87.595467 Z-0.125000 I0.770819 J-5.768760
G02 X119.208057 Y87.358316 Z-0.125000 I-0.367561 J-4.919631
G01 X119.392407 Y87.317929 Z-0.125000
G01 X119.397806 Y87.482041 Z-0.125000
G03 X118.994743 Y87.829493 Z-0.125000 I-1.626571 J-1.479401
G03 X118.546480 Y88.102790 Z-0.125000 I-3.428650 J-5.119411
G01 X118.546480 Y88.102790 Z-0.125000
G00 Z5.000000

(End cutting path id: path1072)


(Start cutting path id: path1056)
(ZZZanette)
(Change tool to Default tool)

G00 Z5.000000
G00 X119.454930 Y103.044170

G01 Z-0.125000 F100.0(Penetrate)
G01 X120.046584 Y103.942161 Z-0.125000 F400.000000
G01 X121.041331 Y103.589037 Z-0.125000
G02 X121.164512 Y102.503307 Z-0.125000 I-0.851122 J-0.646417
G02 X120.352087 Y101.837789 Z-0.125000 I-1.076376 J0.485338
G02 X118.875135 Y101.704883 Z-0.125000 I-0.969121 J2.496658
G02 X117.676695 Y102.706968 Z-0.125000 I0.305789 J1.583385
G02 X117.638045 Y103.886879 Z-0.125000 I1.048524 J0.624936
G01 X117.381998 Y104.887647 Z-0.125000
G02 X117.556137 Y105.989391 Z-0.125000 I0.972850 J0.410867
G02 X118.534004 Y106.383819 Z-0.125000 I0.873106 J-0.755227
G02 X119.677616 Y106.036735 Z-0.125000 I0.055003 J-1.876357
G03 X120.873708 Y105.810129 Z-0.125000 I0.844189 J1.185914
G03 X122.003965 Y106.576474 Z-0.125000 I-0.088769 J1.347583
G03 X121.768574 Y107.968576 Z-0.125000 I-1.108465 J0.528522
G01 X120.987268 Y108.320984 Z-0.125000
G01 X120.998914 Y107.950614 Z-0.125000
G01 X121.523339 Y106.987828 Z-0.125000
G01 X120.704717 Y106.274213 Z-0.125000
G02 X119.496288 Y106.850738 Z-0.125000 I-0.251400 J1.027783
G02 X119.815530 Y108.196118 Z-0.125000 I1.002481 J0.472690
G01 X120.376591 Y108.468516 Z-0.125000
G01 X120.671877 Y108.958453 Z-0.125000
G02 X121.307599 Y110.234469 Z-0.125000 I1.460791 J0.068590
G02 X122.663178 Y110.339673 Z-0.125000 I0.769236 J-1.125719
G02 X123.894982 Y111.681076 Z-0.125000 I1.963969 J-0.567222
G02 X125.651377 Y111.466419 Z-0.125000 I0.675959 J-1.762109
G01 X126.682794 Y111.155129 Z-0.125000
G01 X127.823147 Y110.946485 Z-0.125000
G02 X128.416628 Y109.908668 Z-0.125000 I-0.766930 J-1.127174
G02 X127.789909 Y108.875064 Z-0.125000 I-1.051752 J-0.069083
G01 X126.802826 Y109.250882 Z-0.125000
G01 X127.336172 Y110.208717 Z-0.125000
G01 X126.647787 Y110.626584 Z-0.125000
G01 X125.986534 Y109.380335 Z-0.125000
G03 X127.134714 Y108.242479 Z-0.125000 I1.197563 J0.060202
G03 X128.473040 Y109.132711 Z-0.125000 I0.056323 J1.366425
G02 X129.189884 Y110.237087 Z-0.125000 I1.277144 J-0.044150
G01 X130.192632 Y109.898158 Z-0.125000
G02 X131.367013 Y110.006201 Z-0.125000 I0.672601 J-0.874350
G02 X131.993872 Y108.946097 Z-0.125000 I-0.523520 J-1.024955
G01 X132.422284 Y108.167668 Z-0.125000
G01 X133.158820 Y107.380251 Z-0.125000
G02 X132.848457 Y106.255857 Z-0.125000 I-1.259624 J-0.257341
G01 X131.728097 Y106.082325 Z-0.125000
G01 X131.199903 Y106.918473 Z-0.125000
G01 X132.038461 Y107.007192 Z-0.125000
G01 X132.599093 Y106.910627 Z-0.125000
G01 X132.195276 Y107.838349 Z-0.125000
G01 X131.143403 Y107.929044 Z-0.125000
G03 X130.587003 Y107.008099 Z-0.125000 I0.682603 J-1.040953
G03 X130.765918 Y105.767290 Z-0.125000 I1.416531 J-0.429051
G01 X131.945195 Y105.395457 Z-0.125000
G03 X133.404104 Y106.256384 Z-0.125000 I-1.481902 J4.177786
G02 X134.966303 Y106.957610 Z-0.125000 I1.900793 J-2.143851
G02 X136.259188 Y106.750750 Z-0.125000 I0.385339 J-1.735340
G02 X137.283674 Y105.922260 Z-0.125000 I-2.340526 J-3.941892
G03 X138.163812 Y105.185431 Z-0.125000 I4.482536 J4.460286
G03 X139.198713 Y104.721052 Z-0.125000 I1.762796 J2.543155
G02 X137.379114 Y105.365747 Z-0.125000 I-0.118590 J2.555471
G03 X135.607347 Y106.115875 Z-0.125000 I-1.992095 J-2.237758
G03 X134.177719 Y106.030753 Z-0.125000 I-0.570188 J-2.471564
G03 X132.936657 Y105.289059 Z-0.125000 I1.277049 J-3.546033
G02 X131.345110 Y104.507414 Z-0.125000 I-4.377739 J6.902599
G02 X129.552754 Y104.646036 Z-0.125000 I-0.743045 J2.049297
G01 X129.222389 Y104.977082 Z-0.125000
G01 X129.339575 Y105.410826 Z-0.125000
G03 X128.960070 Y107.539784 Z-0.125000 I-1.679623 J0.798897
G03 X126.895533 Y107.749750 Z-0.125000 I-1.164058 J-1.190867
G02 X126.138382 Y108.383413 Z-0.125000 I1.199474 J2.202408
G03 X125.084242 Y108.832913 Z-0.125000 I-0.946497 J-0.758864
G03 X124.016714 Y108.518435 Z-0.125000 I-0.095762 J-1.644077
G03 X123.373177 Y107.550306 Z-0.125000 I0.992103 J-1.357425
G03 X122.443807 Y106.710624 Z-0.125000 I1.449484 J-2.538465
G03 X122.435769 Y105.332106 Z-0.125000 I0.973168 J-0.694957
G01 X123.374921 Y104.917662 Z-0.125000
G01 X124.228027 Y104.425871 Z-0.125000
G03 X126.095597 Y102.804613 Z-0.125000 I4.656652 J3.477838
G03 X128.425592 Y102.173165 Z-0.125000 I2.478648 J4.531550
G03 X126.477425 Y102.191728 Z-0.125000 I-3.495769 J-264.640259
G02 X124.581403 Y102.831869 Z-0.125000 I0.018613 J3.183098
G03 X122.743169 Y104.070473 Z-0.125000 I-15.120793 J-20.457648
G03 X120.616674 Y104.665987 Z-0.125000 I-2.113358 J-3.452041
G03 X119.520463 Y104.305955 Z-0.125000 I-0.124383 J-1.470151
G01 X119.454930 Y103.044170 Z-0.125000
G01 X119.454930 Y103.044170 Z-0.125000
G00 Z5.000000

(End cutting path id: path1056)


(Start cutting path id: path1060)
(ZZZanette)
(Change tool to Default tool)

G00 Z5.000000
G00 X123.925880 Y105.453440

G01 Z-0.125000 F100.0(Penetrate)
G02 X123.225947 Y105.223183 Z-0.125000 I-0.781612 J1.196986 F400.000000
G01 X122.584240 Y105.675588 Z-0.125000
G01 X122.686089 Y106.713324 Z-0.125000
G01 X123.609834 Y107.075542 Z-0.125000
G02 X124.212197 Y108.205761 Z-0.125000 I1.204199 J0.083836
G02 X125.414052 Y108.369876 Z-0.125000 I0.802707 J-1.395626
G01 X126.240102 Y107.831036 Z-0.125000
G01 X126.666544 Y107.424921 Z-0.125000
G02 X128.080762 Y107.639855 Z-0.125000 I0.915806 J-1.265708
G02 X129.091484 Y106.556625 Z-0.125000 I-0.497212 J-1.477079
G02 X129.081596 Y105.428547 Z-0.125000 I-1.439455 J-0.551466
G01 X128.170512 Y104.814947 Z-0.125000
G01 X127.200336 Y105.379499 Z-0.125000
G01 X127.892121 Y106.078433 Z-0.125000
G01 X128.133008 Y105.783132 Z-0.125000
G01 X128.337610 Y105.779044 Z-0.125000
G01 X127.725400 Y106.528696 Z-0.125000
G01 X126.951502 Y105.970547 Z-0.125000
G03 X127.041977 Y104.924728 Z-0.125000 I0.997582 J-0.440522
G01 X127.956364 Y104.505475 Z-0.125000
G01 X128.908977 Y104.368213 Z-0.125000
G03 X129.905984 Y104.012790 Z-0.125000 I0.880243 J0.893118
G03 X131.983519 Y104.384488 Z-0.125000 I0.464625 J3.394912
G02 X133.841089 Y105.370357 Z-0.125000 I228.656182 J-428.589932
G02 X135.203091 Y105.786335 Z-0.125000 I1.659127 J-2.994607
G02 X136.603562 Y105.504230 Z-0.125000 I0.219989 J-2.525171
G02 X138.001771 Y104.762131 Z-0.125000 I-4.022478 J-9.267106
G03 X139.553539 Y104.429773 Z-0.125000 I1.223644 J1.924401
G01 X139.657173 Y104.239721 Z-0.125000
G02 X138.982076 Y104.040035 Z-0.125000 I-0.633549 J0.900875
G02 X137.093068 Y104.280964 Z-0.125000 I-0.622720 J2.643418
G03 X135.334391 Y104.950261 Z-0.125000 I-3.621732 J-6.871399
G03 X134.170774 Y104.666003 Z-0.125000 I-0.312972 J-1.242620
G02 X133.237643 Y103.928224 Z-0.125000 I-6.941472 J7.820465
G02 X131.046720 Y102.647130 Z-0.125000 I-5.588433 J7.043318
G02 X128.558358 Y102.291196 Z-0.125000 I-1.954695 J4.789297
G02 X125.862459 Y103.233681 Z-0.125000 I0.366616 J5.375611
G02 X123.925880 Y105.453440 Z-0.125000 I3.398691 J4.919755
G01 X123.925880 Y105.453440 Z-0.125000
G00 Z5.000000

(End cutting path id: path1060)


(Start cutting path id: path1064)
(ZZZanette)
(Change tool to Default tool)

G00 Z5.000000
G00 X137.104600 Y106.985070

G01 Z-0.125000 F100.0(Penetrate)
G01 X136.407566 Y107.542440 Z-0.125000 F400.000000
G02 X135.717927 Y108.008403 Z-0.125000 I0.216266 J1.063405
G01 X135.829771 Y108.762769 Z-0.125000
G01 X136.476314 Y108.605774 Z-0.125000
G01 X136.399530 Y108.433013 Z-0.125000
G01 X136.230420 Y108.485116 Z-0.125000
G01 X135.883229 Y107.986123 Z-0.125000
G01 X136.540128 Y107.769675 Z-0.125000
G01 X136.967286 Y108.382895 Z-0.125000
G01 X136.608061 Y109.039022 Z-0.125000
G01 X135.553276 Y109.149686 Z-0.125000
G01 X135.033564 Y108.169378 Z-0.125000
G01 X134.643018 Y108.337970 Z-0.125000
G01 X134.884189 Y108.916711 Z-0.125000
G01 X134.401944 Y108.711095 Z-0.125000
G01 X134.452307 Y108.032550 Z-0.125000
G01 X134.961195 Y107.427226 Z-0.125000
G03 X135.676687 Y107.343495 Z-0.125000 I0.596949 J2.002149
G02 X136.532631 Y107.032525 Z-0.125000 I-0.310973 J-2.189427
G02 X137.243114 Y106.432227 Z-0.125000 I-1.690707 J-2.721635
G01 X137.513648 Y106.579908 Z-0.125000
G01 X137.104600 Y106.985070 Z-0.125000
G01 X137.104600 Y106.985070 Z-0.125000
G00 Z5.000000

(End cutting path id: path1064)


(Start cutting path id: path1036)
(ZZZanette)
(Change tool to Default tool)

G00 Z5.000000
G00 X146.171360 Y95.904340

G01 Z-0.125000 F100.0(Penetrate)
G02 X145.220360 Y95.591525 Z-0.125000 I-1.061899 J1.626324 F400.000000
G01 X144.348550 Y96.206334 Z-0.125000
G02 X144.486907 Y97.616112 Z-0.125000 I1.237363 J0.590242
G02 X145.741854 Y98.108025 Z-0.125000 I1.022870 J-0.762761
G02 X146.560186 Y99.643689 Z-0.125000 I1.636473 J0.113819
G02 X148.193116 Y99.866773 Z-0.125000 I1.090651 J-1.895439
G02 X149.315554 Y99.134419 Z-0.125000 I-0.009581 J-1.241011
G03 X149.894767 Y98.582614 Z-0.125000 I0.965953 J0.434038
G02 X151.816232 Y98.874968 Z-0.125000 I1.244642 J-1.719790
G02 X153.189588 Y97.403187 Z-0.125000 I-0.674895 J-2.006409
G02 X153.176050 Y95.870360 Z-0.125000 I-1.955104 J-0.749205
G02 X151.937879 Y95.036987 Z-0.125000 I-1.235048 J0.498469
G02 X150.625624 Y95.748883 Z-0.125000 I-0.258527 J1.088855
G01 X151.469153 Y96.796720 Z-0.125000
G01 X151.883570 Y96.361682 Z-0.125000
G01 X152.165408 Y96.346685 Z-0.125000
G01 X151.333567 Y97.365107 Z-0.125000
G01 X150.282097 Y96.607064 Z-0.125000
G03 X150.404935 Y95.186076 Z-0.125000 I1.355420 J-0.598634
G03 X151.647400 Y94.616492 Z-0.125000 I1.083046 J0.722587
G02 X152.941615 Y94.429909 Z-0.125000 I0.520520 J-0.971349
G03 X154.296217 Y93.946849 Z-0.125000 I1.196060 J1.213178
G03 X157.044119 Y94.418476 Z-0.125000 I0.624997 J4.599540
G03 X159.501705 Y95.720698 Z-0.125000 I-51.888363 J100.895116
G02 X161.412088 Y96.348914 Z-0.125000 I2.474592 J-4.306332
G02 X163.395899 Y95.973568 Z-0.125000 I0.387006 J-3.384738
G02 X165.295494 Y94.965286 Z-0.125000 I-5.468382 J-12.595944
G03 X167.403686 Y94.513622 Z-0.125000 I1.662714 J2.614960
G01 X167.544446 Y94.255461 Z-0.125000
G02 X166.627199 Y93.984142 Z-0.125000 I-0.860919 J1.224382
G02 X164.060682 Y94.311292 Z-0.125000 I-0.846230 J3.592106
G03 X161.671281 Y95.220767 Z-0.125000 I-4.927187 J-9.351369
G03 X160.090398 Y94.834501 Z-0.125000 I-0.425127 J-1.688265
G02 X158.822728 Y93.832118 Z-0.125000 I-9.432039 J10.625515
G02 X155.846065 Y92.091711 Z-0.125000 I-7.592463 J9.569850
G02 X152.465385 Y91.608041 Z-0.125000 I-2.656067 J6.508253
G02 X148.802545 Y92.888436 Z-0.125000 I0.498242 J7.304685
G02 X146.171360 Y95.904340 Z-0.125000 I4.615970 J6.682865
G01 X146.171360 Y95.904340 Z-0.125000
G00 Z5.000000

(End cutting path id: path1036)


(Start cutting path id: path1032)
(ZZZanette)
(Change tool to Default tool)

G00 Z5.000000
G00 X140.096810 Y92.631100

G01 Z-0.125000 F100.0(Penetrate)
G02 X141.165076 Y93.893062 Z-0.125000 I1.214027 J0.055443 F400.000000
G02 X142.487288 Y92.878889 Z-0.125000 I0.142885 J-1.182710
G02 X141.923836 Y91.304494 Z-0.125000 I-1.486315 J-0.356094
G02 X140.461155 Y90.781716 Z-0.125000 I-1.561548 J2.061451
G02 X138.660302 Y91.065523 Z-0.125000 I-0.505034 J2.650804
G02 X137.496477 Y92.563946 Z-0.125000 I1.144047 J2.089764
G02 X137.651488 Y93.999117 Z-0.125000 I9.833959 J-0.336200
G03 X137.201607 Y95.375262 Z-0.125000 I-1.493565 J0.273341
G02 X138.009583 Y97.020231 Z-0.125000 I1.508199 J0.280119
G02 X139.750610 Y96.983036 Z-0.125000 I0.836095 J-1.629687
G03 X141.681117 Y96.365695 Z-0.125000 I2.099345 J3.237781
G03 X143.491411 Y97.509947 Z-0.125000 I0.082085 J1.874273
G03 X143.342384 Y99.327674 Z-0.125000 I-1.313190 J0.807311
G03 X141.667720 Y99.510651 Z-0.125000 I-0.936100 J-0.812474
G02 X142.866976 Y98.442537 Z-0.125000 I-0.062083 J-1.277013
G02 X141.994041 Y97.047215 Z-0.125000 I-1.226848 J-0.203186
G02 X140.170712 Y97.684660 Z-0.125000 I-0.550242 J1.352524
G02 X140.586784 Y99.630500 Z-0.125000 I1.311906 J0.736883
G02 X141.368137 Y100.027113 Z-0.125000 I1.858654 J-2.693704
G01 X141.756349 Y100.925631 Z-0.125000
G02 X142.997134 Y102.582749 Z-0.125000 I1.810381 J-0.062458
G02 X144.506600 Y102.699932 Z-0.125000 I0.991701 J-2.993887
G02 X146.383014 Y104.494758 Z-0.125000 I2.642259 J-0.884101
G02 X148.810825 Y103.753033 Z-0.125000 I0.641573 J-2.244221
G03 X150.477641 Y103.609483 Z-0.125000 I1.187719 J4.042286
G02 X152.086735 Y102.539123 Z-0.125000 I0.170374 J-1.488546
G02 X151.897203 Y100.688611 Z-0.125000 I-1.295853 J-0.802239
G02 X150.221801 Y100.828205 Z-0.125000 I-0.781795 J0.740775
G01 X150.445792 Y102.031518 Z-0.125000
G01 X150.674010 Y102.577936 Z-0.125000
G03 X149.172778 Y102.154176 Z-0.125000 I-0.481313 J-1.165926
G03 X149.187513 Y100.495064 Z-0.125000 I1.126357 J-0.819618
G03 X151.013782 Y99.688639 Z-0.125000 I1.495737 J0.916177
G03 X152.376705 Y101.181405 Z-0.125000 I-0.318376 J1.659254
G02 X153.240971 Y102.496100 Z-0.125000 I1.490633 J-0.038498
G02 X154.685511 Y101.942951 Z-0.125000 I0.453234 J-0.979158
G02 X156.559391 Y101.948490 Z-0.125000 I0.940414 J-1.172592
G02 X157.023269 Y100.071925 Z-0.125000 I-0.980990 J-1.238113
G03 X158.139445 Y99.262697 Z-0.125000 I4.464673 J4.983774
G02 X158.653230 Y97.707419 Z-0.125000 I-0.616214 J-1.066069
G02 X157.232813 Y96.464391 Z-0.125000 I-1.446912 J0.220323
G02 X156.023069 Y97.748858 Z-0.125000 I-0.021575 J1.191597
G01 X156.909453 Y98.197639 Z-0.125000
G02 X157.479345 Y97.557771 Z-0.125000 I-0.481051 J-1.002162
G01 X157.715371 Y99.028611 Z-0.125000
G03 X156.303972 Y99.414635 Z-0.125000 I-0.973974 J-0.787862
G03 X154.990282 Y97.753502 Z-0.125000 I0.608614 J-1.831341
G03 X155.959297 Y95.857785 Z-0.125000 I1.993517 J-0.176513
G03 X157.873307 Y96.187207 Z-0.125000 I0.633475 J2.044484
G02 X159.466473 Y97.284824 Z-0.125000 I15.203706 J-20.362826
G02 X161.654125 Y97.984814 Z-0.125000 I2.203182 J-3.117034
G02 X163.798898 Y97.050404 Z-0.125000 I0.011806 J-2.901583
G03 X165.216835 Y95.751182 Z-0.125000 I12.822812 J12.571112
G03 X166.921430 Y94.909347 Z-0.125000 I2.654568 J3.228422
G02 X164.348240 Y95.840160 Z-0.125000 I-0.122089 J3.684632
G03 X161.796504 Y96.851446 Z-0.125000 I-2.661171 J-2.989833
G03 X159.685120 Y96.502375 Z-0.125000 I-0.581315 J-3.043837
G03 X157.895316 Y95.365650 Z-0.125000 I10.592585 J-18.655722
G02 X155.817384 Y94.526168 Z-0.125000 I-3.519711 J5.720736
G02 X153.580051 Y94.912190 Z-0.125000 I-0.645340 J2.936351
G01 X153.462120 Y95.944207 Z-0.125000
G01 X153.634858 Y97.300557 Z-0.125000
G03 X152.331296 Y99.042630 Z-0.125000 I-2.824605 J-0.754849
G03 X150.206139 Y99.024251 Z-0.125000 I-1.047783 J-1.720025
G02 X148.882085 Y100.090582 Z-0.125000 I9.946778 J13.706040
G03 X147.165718 Y100.448594 Z-0.125000 I-1.168968 J-1.310943
G03 X145.643276 Y99.272373 Z-0.125000 I0.364343 J-2.044985
G02 X144.379898 Y97.873031 Z-0.125000 I-2.870727 J1.321816
G03 X143.935751 Y95.973092 Z-0.125000 I1.111172 J-1.261641
G03 X145.649371 Y95.208624 Z-0.125000 I1.257570 J0.516103
G02 X146.996733 Y94.132957 Z-0.125000 I-0.252535 J-1.697995
G03 X148.396354 Y92.760981 Z-0.125000 I2.217943 J0.862735
G03 X150.256721 Y91.818145 Z-0.125000 I4.368365 J6.312666
G03 X152.284808 Y91.447848 Z-0.125000 I2.220989 J6.425199
G02 X149.470565 Y91.488930 Z-0.125000 I-0.301681 J75.747179
G02 X146.772905 Y92.552619 Z-0.125000 I0.143239 J4.315934
G03 X144.193467 Y94.218290 Z-0.125000 I-15.104670 J-20.560830
G03 X141.191292 Y94.789226 Z-0.125000 I-2.347635 J-4.165967
G03 X139.994842 Y94.103450 Z-0.125000 I0.208400 J-1.750179
G03 X140.096810 Y92.631100 Z-0.125000 I0.894532 J-0.677755
G01 X140.096810 Y92.631100 Z-0.125000
G00 Z5.000000

(End cutting path id: path1032)


(Start cutting path id: path1040)
(ZZZanette)
(Change tool to Default tool)

G00 Z5.000000
G00 X164.076420 Y97.985360

G01 Z-0.125000 F100.0(Penetrate)
G03 X163.467528 Y98.590012 Z-0.125000 I-1.339056 J-0.739539 F400.000000
G03 X162.719148 Y98.947225 Z-0.125000 I-3.787995 J-6.973484
G02 X162.456940 Y99.063302 Z-0.125000 I270.334009 J611.017021
G01 X162.241512 Y99.272015 Z-0.125000
G01 X162.187416 Y100.035349 Z-0.125000
G01 X162.768824 Y100.493569 Z-0.125000
G01 X163.112547 Y100.397779 Z-0.125000
G01 X163.244874 Y100.050964 Z-0.125000
G01 X163.192288 Y99.856886 Z-0.125000
G01 X163.014832 Y99.910579 Z-0.125000
G01 X162.733976 Y100.041525 Z-0.125000
G01 X162.512520 Y99.789490 Z-0.125000
G01 X162.533607 Y99.317161 Z-0.125000
G01 X162.875448 Y99.007691 Z-0.125000
G01 X163.295049 Y99.044388 Z-0.125000
G01 X163.650131 Y99.299345 Z-0.125000
G01 X163.863317 Y99.943783 Z-0.125000
G01 X163.607407 Y100.572029 Z-0.125000
G03 X162.819776 Y101.012424 Z-0.125000 I-0.900363 J-0.685744
G03 X161.955992 Y100.840278 Z-0.125000 I-0.150140 J-1.499833
G03 X161.565747 Y100.534738 Z-0.125000 I0.554963 J-1.110802
G03 X161.315200 Y100.094398 Z-0.125000 I1.030012 J-0.877509
G01 X161.255507 Y99.774096 Z-0.125000
G01 X161.217001 Y99.454349 Z-0.125000
G01 X160.978347 Y99.625764 Z-0.125000
G01 X160.899639 Y99.955794 Z-0.125000
G01 X160.969080 Y100.301381 Z-0.125000
G03 X161.044108 Y100.643692 Z-0.125000 I-1.016776 J0.402236
G01 X160.832978 Y100.688743 Z-0.125000
G03 X160.638287 Y100.480984 Z-0.125000 I2.649064 J-2.677542
G03 X160.421555 Y99.858782 Z-0.125000 I0.847228 J-0.643962
G03 X160.530697 Y99.209145 Z-0.125000 I1.772219 J-0.036247
G01 X160.790707 Y98.759471 Z-0.125000
G01 X161.235987 Y98.539552 Z-0.125000
G03 X161.710799 Y98.480345 Z-0.125000 I0.453576 J1.703993
G02 X162.185515 Y98.464080 Z-0.125000 I0.061806 J-5.131837
G02 X163.273762 Y98.059857 Z-0.125000 I-0.502961 J-3.021072
G02 X164.194550 Y97.321491 Z-0.125000 I-2.373094 J-3.902712
G01 X164.291696 Y97.161115 Z-0.125000
G01 X164.412701 Y97.232425 Z-0.125000
G03 X164.274900 Y97.624782 Z-0.125000 I-1.824933 J-0.420563
G03 X164.076420 Y97.985360 Z-0.125000 I-3.423725 J-1.649673
G01 X164.076420 Y97.985360 Z-0.125000
G00 Z5.000000

(End cutting path id: path1040)


(Start cutting path id: path8218)
(ZZZanette)
(Change tool to Default tool)

G00 Z5.000000
G00 X164.191572 Y122.365449

G01 Z-0.125000 F100.0(Penetrate)
G01 X152.745663 Y122.365449 Z-0.125000 F400.000000
G01 X152.745663 Y126.553772 Z-0.125000
G01 X155.948416 Y126.553772 Z-0.125000
G01 X155.948416 Y141.799912 Z-0.125000
G01 X152.745663 Y141.799912 Z-0.125000
G01 X152.745663 Y145.988235 Z-0.125000
G01 X164.191572 Y145.988235 Z-0.125000
G01 X164.191572 Y141.799912 Z-0.125000
G01 X160.988817 Y141.799912 Z-0.125000
G01 X160.988817 Y126.553772 Z-0.125000
G01 X164.191572 Y126.553772 Z-0.125000
G01 X164.191572 Y122.365449 Z-0.125000
G00 Z5.000000

(End cutting path id: path8218)


(Start cutting path id: path8216)
(ZZZanette)
(Change tool to Default tool)

G00 Z5.000000
G00 X151.393684 Y122.365449

G01 Z-0.125000 F100.0(Penetrate)
G01 X145.237572 Y122.365449 Z-0.125000 F400.000000
G01 X139.908398 Y131.027667 Z-0.125000
G01 X137.585088 Y131.027667 Z-0.125000
G01 X137.585088 Y122.365449 Z-0.125000
G01 X132.570940 Y122.365449 Z-0.125000
G01 X132.570940 Y145.988235 Z-0.125000
G01 X141.024110 Y145.988235 Z-0.125000
G02 X142.750240 Y145.919414 Z-0.125000 I-0.000000 J-21.681414
G02 X144.003721 Y145.750263 Z-0.125000 I-0.925358 J-11.586263
G02 X145.193177 Y145.379569 Z-0.125000 I-1.030714 J-5.400948
G02 X146.340158 Y144.719045 Z-0.125000 I-2.505715 J-5.677218
G02 X147.315958 Y143.817245 Z-0.125000 I-3.178869 J-4.418558
G02 X148.085921 Y142.656614 Z-0.125000 I-4.565276 J-3.864320
G02 X148.551268 Y141.356317 Z-0.125000 I-4.424231 J-2.316748
G02 X148.742225 Y139.499505 Z-0.125000 I-8.932085 J-1.856812
G02 X148.446226 Y136.965255 Z-0.125000 I-10.996730 J-0.000000
G02 X147.731518 Y135.231854 Z-0.125000 I-5.778499 J1.368520
G02 X146.555485 Y133.762659 Z-0.125000 I-6.154171 J3.720893
G02 X144.870040 Y132.487232 Z-0.125000 I-6.279532 J6.546891
G01 X151.393684 Y122.365449 Z-0.125000
G00 Z5.000000

(End cutting path id: path8216)


(Start cutting path id: path1160)
(ZZZanette)
(Change tool to Default tool)

G00 Z5.000000
G00 X171.967996 Y43.359888

G01 Z-0.125000 F100.0(Penetrate)
G02 X163.754653 Y47.198381 Z-0.125000 I24.144945 J62.370113 F400.000000
G03 X159.718723 Y49.216322 Z-0.125000 I-26.390799 J-47.737267
G03 X156.640143 Y46.927886 Z-0.125000 I-0.902159 J-2.001335
G02 X156.019989 Y43.529226 Z-0.125000 I-5.585230 J-0.736771
G01 X154.650016 Y43.360224 Z-0.125000
G03 X151.038014 Y46.863514 Z-0.125000 I-29.581031 J-26.885289
G03 X147.508582 Y47.609817 Z-0.125000 I-2.449320 J-2.864489
G02 X142.034223 Y48.350491 Z-0.125000 I-1.919221 J6.415912
G03 X134.213309 Y50.914684 Z-0.125000 I-9.087666 J-14.508641
G03 X124.831707 Y48.350491 Z-0.125000 I-1.076327 J-14.506357
G02 X115.462881 Y46.545636 Z-0.125000 I-6.719270 J9.660314
G02 X107.793078 Y50.367923 Z-0.125000 I4.139551 J17.912682
G03 X104.323052 Y51.479629 Z-0.125000 I-3.097069 J-3.695605
G03 X99.979736 Y50.492967 Z-0.125000 I1.184428 J-15.266922
G03 X95.420009 Y48.428965 Z-0.125000 I16.217032 J-41.894748
G02 X91.584142 Y46.863514 Z-0.125000 I-10.281004 J19.709526
G02 X88.701147 Y46.727611 Z-0.125000 I-1.710928 J5.647661
G02 X87.801925 Y47.322830 Z-0.125000 I0.285317 J1.407895
G02 X87.034417 Y48.506690 Z-0.125000 I22.265340 J15.275571
G03 X84.967407 Y50.538046 Z-0.125000 I-5.095160 J-3.117266
G03 X81.607162 Y50.792367 Z-0.125000 I-1.940375 J-3.311466
G03 X72.165677 Y46.697651 Z-0.125000 I62.908001 J-157.983908
G03 X62.559442 Y42.073667 Z-0.125000 I248.062646 J-527.635538
G02 X61.172489 Y42.357844 Z-0.125000 I-0.510343 J1.035886
G01 X61.349110 Y43.456909 Z-0.125000
G02 X68.087497 Y47.437830 Z-0.125000 I175.475412 J-289.328596
G03 X75.067041 Y51.556646 Z-0.125000 I-182.395155 J317.050955
G03 X76.445600 Y53.456613 Z-0.125000 I-1.564501 J2.585259
G03 X76.502746 Y54.308246 Z-0.125000 I-2.582064 J0.600994
G03 X76.349438 Y54.858377 Z-0.125000 I-1.613574 J-0.153237
G00 Z5.000000

(End cutting path id: path1160)


(Footer)
M5
G00 X0.0000 Y0.0000
M2
(Using default footer. To add your own footer create file "footer" in the output dir.)
(end)
%