%
(Header)
(Generated by gcodetools from Inkscape.)
(Using default header. To add your own header create file "header" in the output dir.)
M3
(Header end.)
G21 (All units in mm)

(Start cutting path id: rect5863)
(ZZZanette)
(Change tool to Default tool)

G00 Z5.000000
G00 X18.557288 Y178.427220

G01 Z-0.125000 F100.0(Penetrate)
G01 X18.557288 Y178.211550 Z-0.125000 F400.000000
G01 X18.557288 Y9.921530 Z-0.125000
G01 X171.892000 Y9.921530 Z-0.125000
G01 X171.892000 Y178.427220 Z-0.125000
G01 X18.557288 Y178.427220 Z-0.125000
G00 Z5.000000

(End cutting path id: rect5863)


(Start cutting path id: rect5863)
(ZZZanette)
(Change tool to Default tool)

G00 Z5.000000
G00 X18.972817 Y177.995890

G01 Z-0.125000 F100.0(Penetrate)
G01 X171.476470 Y177.995890 Z-0.125000 F400.000000
G01 X171.476470 Y10.352870 Z-0.125000
G01 X18.972817 Y10.352870 Z-0.125000
G01 X18.972817 Y177.995890 Z-0.125000
G00 Z5.000000

(End cutting path id: rect5863)


(Start cutting path id: path8191)
(ZZZanette)
(Change tool to Default tool)

G00 Z5.000000
G00 X38.482547 Y168.746347

G01 Z-0.125000 F100.0(Penetrate)
G03 X38.266848 Y169.857553 Z-0.125000 I-2.970118 J0.000000 F400.000000
G03 X37.708110 Y170.665996 Z-0.125000 I-2.076114 J-0.837559
G03 X36.866423 Y171.176703 Z-0.125000 I-1.631325 J-1.739617
G03 X35.673571 Y171.379915 Z-0.125000 I-1.192852 J-3.399409
G03 X35.205833 Y171.345720 Z-0.125000 I-0.000000 J-3.216121
G03 X34.702244 Y171.237132 Z-0.125000 I0.564379 J-3.839352
G03 X34.232310 Y171.060558 Z-0.125000 I0.964406 J-3.280307
G03 X33.809674 Y170.824645 Z-0.125000 I1.333371 J-2.885250
G03 X33.469252 Y170.518722 Z-0.125000 I1.146523 J-1.618185
G03 X33.179625 Y170.110726 Z-0.125000 I1.777045 J-1.568283
G03 X32.997269 Y169.664280 Z-0.125000 I1.499003 J-0.872751
G03 X32.930229 Y169.127104 Z-0.125000 I2.118638 J-0.537176
G03 X33.059435 Y168.237598 Z-0.125000 I3.126473 J0.000000
G03 X33.363389 Y167.667536 Z-0.125000 I1.548346 J0.459507
G03 X33.860669 Y167.207824 Z-0.125000 I2.175532 J1.854503
G03 X34.807255 Y166.620455 Z-0.125000 I4.541324 J6.262230
G03 X35.177745 Y166.436180 Z-0.125000 I5.806475 J11.209496
G03 X35.804833 Y166.144509 Z-0.125000 I15.185673 J31.829021
G03 X36.450222 Y165.880309 Z-0.125000 I15.855725 J37.812008
G03 X37.353707 Y165.525779 Z-0.125000 I29.461144 J73.750415
G03 X37.910622 Y166.407528 Z-0.125000 I-8.426650 J5.939044
G03 X38.220026 Y167.064671 Z-0.125000 I-4.357572 J2.453094
G03 X38.406105 Y167.761061 Z-0.125000 I-3.171805 J1.220578
G03 X38.482547 Y168.746347 Z-0.125000 I-6.311621 J0.985286
G01 X38.482547 Y168.746347 Z-0.125000
G00 Z5.000000

(End cutting path id: path8191)


(Start cutting path id: path8191)
(ZZZanette)
(Change tool to Default tool)

G00 Z5.000000
G00 X38.889452 Y157.561615

G01 Z-0.125000 F100.0(Penetrate)
G03 X38.743115 Y158.652304 Z-0.125000 I-4.137771 J0.000000 F400.000000
G03 X38.416916 Y159.290888 Z-0.125000 I-1.694756 J-0.463104
G03 X37.876201 Y159.794517 Z-0.125000 I-2.017958 J-1.624475
G03 X36.474262 Y160.639399 Z-0.125000 I-7.248738 J-10.442469
G03 X36.033949 Y160.862599 Z-0.125000 I-3.578706 J-6.513911
G03 X35.214160 Y161.226401 Z-0.125000 I-10.359477 J-22.238432
G02 X34.388922 Y161.579330 Z-0.125000 I36.792645 J87.171878
G02 X33.822800 Y161.829265 Z-0.125000 I17.883090 J41.272685
G03 X33.307503 Y161.176322 Z-0.125000 I4.306257 J-3.928267
G03 X32.798970 Y160.322102 Z-0.125000 I6.887376 J-4.678656
G03 X32.472074 Y159.420775 Z-0.125000 I3.427519 J-1.753047
G03 X32.352685 Y158.354860 Z-0.125000 I4.698592 J-1.065915
G03 X32.627142 Y156.817587 Z-0.125000 I4.442482 J0.000000
G03 X33.324012 Y155.721292 Z-0.125000 I2.884313 J1.063808
G03 X34.418053 Y155.021338 Z-0.125000 I2.207867 J2.245958
G03 X35.883590 Y154.753536 Z-0.125000 I1.465537 J3.876136
G03 X36.299884 Y154.783568 Z-0.125000 I-0.000000 J2.900281
G03 X36.868042 Y154.896318 Z-0.125000 I-0.801788 J5.528135
G03 X37.408346 Y155.102663 Z-0.125000 I-0.862970 J3.070203
G03 X37.839369 Y155.372263 Z-0.125000 I-1.084278 J2.212839
G03 X38.269938 Y155.774122 Z-0.125000 I-1.930538 J2.500056
G03 X38.600680 Y156.228968 Z-0.125000 I-2.152791 J1.913077
G03 X38.801945 Y156.744569 Z-0.125000 I-1.509457 J0.886298
G03 X38.889452 Y157.561615 Z-0.125000 I-3.770566 J0.817046
G01 X38.889452 Y157.561615 Z-0.125000
G00 Z5.000000

(End cutting path id: path8191)


(Start cutting path id: path8191)
(ZZZanette)
(Change tool to Default tool)

G00 Z5.000000
G00 X43.903602 Y157.831319

G01 Z-0.125000 F100.0(Penetrate)
G02 X43.309337 Y154.954517 Z-0.125000 I-7.260350 J0.000000 F400.000000
G02 X41.685299 Y152.691101 Z-0.125000 I-5.995085 J2.587228
G02 X39.255020 Y151.275622 Z-0.125000 I-4.552223 J5.021800
G02 X35.621069 Y150.692128 Z-0.125000 I-3.633951 J11.024216
G02 X33.481411 Y150.846667 Z-0.125000 I-0.000000 J14.889522
G02 X31.906397 Y151.231533 Z-0.125000 I1.222227 J8.416996
G02 X30.439780 Y151.906529 Z-0.125000 I2.763584 J7.935472
G02 X29.346820 Y152.722830 Z-0.125000 I3.020049 J5.183440
G02 X28.475537 Y153.744052 Z-0.125000 I4.150385 J4.423302
G02 X27.863577 Y154.912183 Z-0.125000 I4.846093 J3.283132
G02 X27.514600 Y156.188027 Z-0.125000 I6.624650 J2.497667
G02 X27.391041 Y157.609212 Z-0.125000 I8.111496 J1.421185
G02 X27.619317 Y159.320576 Z-0.125000 I6.529084 J0.000000
G02 X28.244234 Y160.750453 Z-0.125000 I5.147113 J-1.398009
G02 X29.290567 Y161.930404 Z-0.125000 I4.067447 J-2.552951
G02 X31.223845 Y163.161914 Z-0.125000 I6.382331 J-7.886035
G01 X31.223845 Y163.257103 Z-0.125000
G02 X29.694560 Y164.385660 Z-0.125000 I3.657744 J6.556967
G02 X28.716770 Y165.652698 Z-0.125000 I3.678033 J3.849191
G02 X28.133951 Y167.152772 Z-0.125000 I5.197825 J2.882751
G02 X27.916082 Y169.000185 Z-0.125000 I7.723594 J1.847413
G02 X28.481605 Y171.543280 Z-0.125000 I6.000775 J0.000000
G02 X30.068752 Y173.600997 Z-0.125000 I5.408090 J-2.530386
G02 X32.405927 Y174.883864 Z-0.125000 I4.460783 J-5.356413
G02 X35.673571 Y175.393727 Z-0.125000 I3.267644 J-10.216014
G02 X39.125689 Y174.906239 Z-0.125000 I-0.000000 J-12.466734
G02 X41.344022 Y173.759645 Z-0.125000 I-1.771017 J-6.145634
G02 X42.852888 Y171.873075 Z-0.125000 I-3.265087 J-4.158071
G02 X43.404812 Y169.428536 Z-0.125000 I-5.137623 J-2.444538
G02 X43.176426 Y167.815252 Z-0.125000 I-5.812205 J0.000000
G02 X42.538493 Y166.430077 Z-0.125000 I-4.891472 J1.413251
G02 X41.519926 Y165.282594 Z-0.125000 I-4.464925 J2.937497
G02 X39.887033 Y164.193130 Z-0.125000 I-5.640893 J6.686169
G01 X39.887033 Y164.097941 Z-0.125000
G02 X41.735415 Y162.935658 Z-0.125000 I-3.433560 J-7.511286
G02 X42.919147 Y161.575427 Z-0.125000 I-3.602366 J-4.330118
G02 X43.634598 Y159.912260 Z-0.125000 I-5.177104 J-3.212523
G02 X43.903602 Y157.831319 Z-0.125000 I-7.914292 J-2.080940
G01 X43.903602 Y157.831319 Z-0.125000
G00 Z5.000000

(End cutting path id: path8191)


(Start cutting path id: path8193)
(ZZZanette)
(Change tool to Default tool)

G00 Z5.000000
G00 X55.651409 Y168.714618

G01 Z-0.125000 F100.0(Penetrate)
G03 X55.452942 Y169.945997 Z-0.125000 I-3.919258 J0.000000 F400.000000
G03 X54.916352 Y170.935699 Z-0.125000 I-3.031380 J-1.003222
G03 X54.078117 Y171.635149 Z-0.125000 I-1.994632 J-1.538404
G03 X53.104957 Y171.871726 Z-0.125000 I-0.973160 J-1.883254
G03 X52.139792 Y171.640635 Z-0.125000 I-0.000000 J-2.131077
G03 X51.293563 Y170.951564 Z-0.125000 I1.167004 J-2.297316
G03 X50.758111 Y169.961463 Z-0.125000 I2.479711 J-1.980879
G03 X50.558505 Y168.714618 Z-0.125000 I3.794434 J-1.246846
G03 X50.761479 Y167.438192 Z-0.125000 I4.114977 J-0.000000
G03 X51.293563 Y166.461806 Z-0.125000 I2.895584 J0.944784
G03 X52.145336 Y165.796036 Z-0.125000 I2.007498 J1.690596
G03 X53.104957 Y165.573374 Z-0.125000 I0.959621 J1.956539
G03 X54.080761 Y165.807013 Z-0.125000 I-0.000000 J2.154567
G03 X54.916352 Y166.493536 Z-0.125000 I-1.133542 J2.231446
G03 X55.452942 Y167.483238 Z-0.125000 I-2.494789 J1.992923
G03 X55.651409 Y168.714618 Z-0.125000 I-3.720792 J1.231380
G01 X55.651409 Y168.714618 Z-0.125000
G00 Z5.000000

(End cutting path id: path8193)


(Start cutting path id: path8193)
(ZZZanette)
(Change tool to Default tool)

G00 Z5.000000
G00 X58.644146 Y168.714618

G01 Z-0.125000 F100.0(Penetrate)
G02 X58.205678 Y166.082273 Z-0.125000 I-8.120871 J0.000000 F400.000000
G02 X57.029644 Y164.002752 Z-0.125000 I-6.156999 J2.109671
G02 X55.201170 Y162.568290 Z-0.125000 I-4.274010 J3.565390
G02 X53.104957 Y162.083103 Z-0.125000 I-2.096213 J4.285668
G02 X51.007063 Y162.567224 Z-0.125000 I-0.000000 J4.787571
G02 X49.167145 Y164.002752 Z-0.125000 I2.464704 J5.055894
G02 X48.001209 Y166.080178 Z-0.125000 I5.003986 J4.174338
G02 X47.565768 Y168.714618 Z-0.125000 I7.751534 J2.634439
G02 X48.001209 Y171.349057 Z-0.125000 I8.186974 J-0.000000
G02 X49.167145 Y173.426483 Z-0.125000 I6.169922 J-2.096912
G02 X51.007063 Y174.862010 Z-0.125000 I4.304622 J-3.620367
G02 X53.104957 Y175.346132 Z-0.125000 I2.097894 J-4.303450
G02 X55.213630 Y174.859523 Z-0.125000 I-0.000000 J-4.812171
G02 X57.042770 Y173.426483 Z-0.125000 I-2.431084 J-4.986931
G02 X58.208706 Y171.349057 Z-0.125000 I-5.003986 J-4.174338
G02 X58.644146 Y168.714618 Z-0.125000 I-7.751534 J-2.634439
G01 X58.644146 Y168.714618 Z-0.125000
G00 Z5.000000

(End cutting path id: path8193)


(Start cutting path id: path8195)
(ZZZanette)
(Change tool to Default tool)

G00 Z5.000000
G00 X87.980852 Y170.285239

G01 Z-0.125000 F100.0(Penetrate)
G01 X81.877242 Y170.285239 Z-0.125000 F400.000000
G01 X81.877242 Y151.231533 Z-0.125000
G01 X76.836841 Y151.231533 Z-0.125000
G01 X76.836841 Y170.285239 Z-0.125000
G01 X70.733230 Y170.285239 Z-0.125000
G01 X70.733230 Y174.854321 Z-0.125000
G01 X87.980852 Y174.854321 Z-0.125000
G01 X87.980852 Y170.285239 Z-0.125000
G00 Z5.000000

(End cutting path id: path8195)


(Start cutting path id: path8197)
(ZZZanette)
(Change tool to Default tool)

G00 Z5.000000
G00 X103.338320 Y157.053939

G01 Z-0.125000 F100.0(Penetrate)
G03 X103.958222 Y158.183924 Z-0.125000 I-5.536275 J3.772194 F400.000000
G03 X104.427783 Y159.592318 Z-0.125000 I-8.168210 J3.505766
G03 X104.681454 Y161.079679 Z-0.125000 I-10.987764 J2.639291
G03 X104.782186 Y163.050860 Z-0.125000 I-19.236331 J1.971181
G03 X104.663876 Y165.160901 Z-0.125000 I-18.875412 J-0.000000
G03 X104.375277 Y166.668050 Z-0.125000 I-9.889448 J-1.112493
G03 X103.863951 Y168.109810 Z-0.125000 I-9.921272 J-2.707070
G03 X103.312068 Y169.079509 Z-0.125000 I-5.005860 J-2.207076
G03 X102.555228 Y169.928788 Z-0.125000 I-4.054748 J-2.851549
G03 X101.763195 Y170.459753 Z-0.125000 I-2.317158 J-2.600255
G03 X100.871798 Y170.780805 Z-0.125000 I-1.854026 J-3.749675
G03 X99.951800 Y170.888104 Z-0.125000 I-0.919998 J-3.890449
G03 X99.017655 Y170.783088 Z-0.125000 I-0.000000 J-4.207216
G03 X98.140408 Y170.475618 Z-0.125000 I0.913473 J-4.011424
G03 X97.380030 Y169.967280 Z-0.125000 I1.521611 J-3.098904
G03 X96.591534 Y169.111239 Z-0.125000 I3.694823 J-4.194448
G03 X96.046611 Y168.169173 Z-0.125000 I3.922001 J-2.897251
G03 X95.515200 Y166.652185 Z-0.125000 I9.743897 J-4.264930
G03 X95.223103 Y165.082653 Z-0.125000 I10.738065 J-2.810347
G03 X95.108292 Y163.034995 Z-0.125000 I18.202549 J-2.047658
G03 X95.222500 Y160.939792 Z-0.125000 I19.275808 J-0.000000
G03 X95.502074 Y159.433671 Z-0.125000 I10.212302 J1.116652
G03 X96.010561 Y158.006098 Z-0.125000 I10.003954 J2.758963
G03 X96.565283 Y157.022210 Z-0.125000 I5.274865 J2.325680
G03 X97.307134 Y156.185010 Z-0.125000 I4.040340 J2.832906
G03 X98.101029 Y155.641967 Z-0.125000 I2.438882 J2.713653
G03 X99.007103 Y155.309535 Z-0.125000 I1.878469 J3.718936
G03 X99.951800 Y155.197751 Z-0.125000 I0.944697 J3.935969
G03 X100.896500 Y155.309536 Z-0.125000 I-0.000000 J4.047770
G03 X101.802574 Y155.641967 Z-0.125000 I-0.972392 J4.051363
G03 X102.595728 Y156.199527 Z-0.125000 I-1.723922 J3.295283
G03 X103.338320 Y157.053939 Z-0.125000 I-3.431541 J3.732350
G01 X103.338320 Y157.053939 Z-0.125000
G00 Z5.000000

(End cutting path id: path8197)


(Start cutting path id: path8197)
(ZZZanette)
(Change tool to Default tool)

G00 Z5.000000
G00 X110.019477 Y163.034995

G01 Z-0.125000 F100.0(Penetrate)
G02 X109.235574 Y157.663081 Z-0.125000 I-18.798219 J0.000000 F400.000000
G02 X107.341763 Y154.055480 Z-0.125000 I-10.147308 J3.025953
G02 X104.226236 Y151.656043 Z-0.125000 I-6.564659 J5.301438
G02 X99.938674 Y150.739724 Z-0.125000 I-4.287561 J9.572838
G02 X95.663665 Y151.654841 Z-0.125000 I-0.000000 J10.443005
G02 X92.548714 Y154.055480 Z-0.125000 I3.459255 J7.709782
G02 X90.654903 Y157.663081 Z-0.125000 I8.253498 J6.633553
G02 X89.871000 Y163.034995 Z-0.125000 I18.014316 J5.371914
G02 X90.659951 Y168.450653 Z-0.125000 I18.982046 J0.000000
G02 X92.548714 Y172.030375 Z-0.125000 I9.950535 J-2.962041
G02 X95.663665 Y174.431015 Z-0.125000 I6.574207 J-5.309142
G02 X99.938674 Y175.346132 Z-0.125000 I4.275009 J-9.527884
G02 X104.202992 Y174.433304 Z-0.125000 I0.000000 J-10.416887
G02 X107.328638 Y172.030375 Z-0.125000 I-3.485360 J-7.767964
G02 X109.227152 Y168.448388 Z-0.125000 I-8.037822 J-6.554300
G02 X110.019477 Y163.034995 Z-0.125000 I-18.096780 J-5.413393
G01 X110.019477 Y163.034995 Z-0.125000
G00 Z5.000000

(End cutting path id: path8197)


(Start cutting path id: path8199)
(ZZZanette)
(Change tool to Default tool)

G00 Z5.000000
G00 X122.817372 Y159.449535

G01 Z-0.125000 F100.0(Penetrate)
G01 X112.802201 Y159.449535 Z-0.125000 F400.000000
G01 X112.802201 Y164.018617 Z-0.125000
G01 X122.817372 Y164.018617 Z-0.125000
G01 X122.817372 Y159.449535 Z-0.125000
G00 Z5.000000

(End cutting path id: path8199)


(Start cutting path id: path8201)
(ZZZanette)
(Change tool to Default tool)

G00 Z5.000000
G00 X142.414551 Y158.656293

G01 Z-0.125000 F100.0(Penetrate)
G02 X141.753849 Y155.462041 Z-0.125000 I-8.051875 J0.000000 F400.000000
G02 X139.959981 Y152.976670 Z-0.125000 I-6.526482 J2.820558
G02 X137.278180 Y151.434647 Z-0.125000 I-5.038527 J5.659695
G02 X133.318203 Y150.803182 Z-0.125000 I-3.959977 J12.100956
G02 X130.909643 Y150.946873 Z-0.125000 I-0.000000 J20.258076
G02 X129.078493 Y151.310858 Z-0.125000 I1.442037 J12.042751
G02 X127.310717 Y151.911884 Z-0.125000 I5.876222 J20.183772
G02 X125.705099 Y152.627641 Z-0.125000 I6.775839 J17.358655
G01 X125.705099 Y158.291400 Z-0.125000
G01 X126.256395 Y158.291400 Z-0.125000
G03 X127.927231 Y156.949533 Z-0.125000 I8.196179 J8.494382
G03 X129.747922 Y155.975129 Z-0.125000 I6.059395 J9.133881
G03 X131.728058 Y155.353499 Z-0.125000 I4.416741 J10.604498
G03 X133.475716 Y155.166019 Z-0.125000 I1.747659 J8.051955
G03 X133.933985 Y155.184053 Z-0.125000 I-0.000000 J5.831731
G03 X134.683313 Y155.261209 Z-0.125000 I-1.236325 J15.684303
G03 X135.417999 Y155.402826 Z-0.125000 I-0.739684 J5.813887
G03 X135.904035 Y155.578506 Z-0.125000 I-0.703436 J2.706293
G03 X136.444317 Y155.912047 Z-0.125000 I-1.501095 J3.035882
G03 X136.849110 Y156.292426 Z-0.125000 I-1.562327 J2.068184
G03 X137.112906 Y156.765198 Z-0.125000 I-0.937422 J0.833040
G03 X137.229765 Y157.561615 Z-0.125000 I-2.655439 J0.796417
G03 X137.087006 Y158.280164 Z-0.125000 I-1.879718 J0.000000
G03 X136.678472 Y158.894265 Z-0.125000 I-1.760681 J-0.728362
G03 X136.076310 Y159.360392 Z-0.125000 I-1.779403 J-1.676693
G03 X135.090221 Y159.766832 Z-0.125000 I-2.309451 J-4.203674
G03 X133.982841 Y160.065185 Z-0.125000 I-9.312410 J-32.360048
G03 X132.753785 Y160.353834 Z-0.125000 I-9.942937 J-39.575773
G02 X131.546504 Y160.682202 Z-0.125000 I3.984858 J17.034292
G02 X130.456728 Y161.067750 Z-0.125000 I4.432257 J14.260973
G02 X128.209197 Y162.307505 Z-0.125000 I3.605198 J9.192938
G02 X126.899570 Y163.685455 Z-0.125000 I3.210347 J4.362491
G02 X126.127275 Y165.440945 Z-0.125000 I5.080583 J3.282729
G02 X125.823235 Y167.810320 Z-0.125000 I9.080217 J2.369375
G02 X126.472297 Y170.810347 Z-0.125000 I7.257740 J-0.000000
G02 X128.264679 Y173.188510 Z-0.125000 I6.220667 J-2.823889
G02 X130.935767 Y174.695298 Z-0.125000 I5.196310 J-6.090600
G02 X134.565179 Y175.282672 Z-0.125000 I3.629412 J-10.919455
G02 X136.480777 Y175.167327 Z-0.125000 I-0.000000 J-15.964340
G02 X138.371730 Y174.822591 Z-0.125000 I-1.921697 J-15.899455
G02 X140.228626 Y174.285902 Z-0.125000 I-4.377561 J-18.626630
G02 X141.640116 Y173.696186 Z-0.125000 I-3.904897 J-11.330474
G01 X141.640116 Y168.254536 Z-0.125000
G01 X141.101946 Y168.254536 Z-0.125000
G03 X139.834239 Y169.268580 Z-0.125000 I-6.017439 J-6.223269
G03 X138.201091 Y170.158320 Z-0.125000 I-6.233816 J-9.498659
G03 X136.453088 Y170.743951 Z-0.125000 I-3.673912 J-8.064417
G03 X134.709564 Y170.935699 Z-0.125000 I-1.743524 J-7.830883
G03 X134.081929 Y170.908095 Z-0.125000 I0.000000 J-7.149193
G03 X133.449465 Y170.824645 Z-0.125000 I0.647173 J-7.343276
G03 X132.847195 Y170.683096 Z-0.125000 I0.607348 J-3.936238
G03 X132.254994 Y170.443888 Z-0.125000 I1.289116 J-4.044080
G03 X131.789096 Y170.149252 Z-0.125000 I0.904872 J-1.946518
G03 X131.375550 Y169.714104 Z-0.125000 I1.625652 J-1.959033
G03 X131.103777 Y169.205489 Z-0.125000 I1.374361 J-1.061291
G03 X131.008021 Y168.619428 Z-0.125000 I1.745570 J-0.586061
G03 X131.176854 Y167.760915 Z-0.125000 I2.267184 J0.000000
G03 X131.598694 Y167.175725 Z-0.125000 I1.426391 J0.583590
G03 X132.243143 Y166.789706 Z-0.125000 I1.560318 J1.873958
G03 X133.830119 Y166.271428 Z-0.125000 I4.523306 J11.161619
G02 X134.906010 Y165.999969 Z-0.125000 I-82.579066 J-329.558679
G02 X135.890909 Y165.747887 Z-0.125000 I-70.225110 J-276.423912
G02 X136.878088 Y165.461592 Z-0.125000 I-3.829042 J-15.048064
G02 X138.030453 Y165.049833 Z-0.125000 I-6.826634 J-20.923710
G02 X140.080454 Y163.916614 Z-0.125000 I-3.374404 J-8.525163
G02 X141.338216 Y162.622508 Z-0.125000 I-3.219702 J-4.387551
G02 X142.102155 Y161.000237 Z-0.125000 I-4.202734 J-2.970106
G02 X142.414551 Y158.656293 Z-0.125000 I-8.637264 J-2.343944
G01 X142.414551 Y158.656293 Z-0.125000
G00 Z5.000000

(End cutting path id: path8201)


(Start cutting path id: path8203)
(ZZZanette)
(Change tool to Default tool)

G00 Z5.000000
G00 X156.157519 Y160.337966

G01 Z-0.125000 F100.0(Penetrate)
G01 X153.755452 Y168.809807 Z-0.125000 F400.000000
G01 X151.353387 Y160.337966 Z-0.125000
G01 X156.157519 Y160.337966 Z-0.125000
G00 Z5.000000

(End cutting path id: path8203)


(Start cutting path id: path8203)
(ZZZanette)
(Change tool to Default tool)

G00 Z5.000000
G00 X163.941262 Y151.231533

G01 Z-0.125000 F100.0(Penetrate)
G01 X158.730222 Y151.231533 Z-0.125000 F400.000000
G01 X157.378241 Y156.006857 Z-0.125000
G01 X150.132665 Y156.006857 Z-0.125000
G01 X148.780682 Y151.231533 Z-0.125000
G01 X143.700903 Y151.231533 Z-0.125000
G01 X150.920228 Y174.854321 Z-0.125000
G01 X156.721938 Y174.854321 Z-0.125000
G01 X163.941262 Y151.231533 Z-0.125000
G00 Z5.000000

(End cutting path id: path8203)


(Start cutting path id: path8216)
(ZZZanette)
(Change tool to Default tool)

G00 Z5.000000
G00 X143.531185 Y138.753857

G01 Z-0.125000 F100.0(Penetrate)
G03 X143.445870 Y139.623029 Z-0.125000 I-4.470148 J-0.000000 F400.000000
G03 X143.229287 Y140.276883 Z-0.125000 I-2.727424 J-0.540636
G03 X142.836684 Y140.822280 Z-0.125000 I-1.695978 J-0.806840
G03 X142.192329 Y141.276371 Z-0.125000 I-1.793440 J-1.860673
G03 X141.664434 Y141.471320 Z-0.125000 I-1.175163 J-2.369969
G03 X140.997859 Y141.577801 Z-0.125000 I-0.931338 J-3.690599
G03 X140.314466 Y141.623191 Z-0.125000 I-1.201595 J-12.923806
G03 X139.409608 Y141.641262 Z-0.125000 I-0.904858 J-22.646138
G01 X137.585088 Y141.641262 Z-0.125000
G01 X137.585088 Y135.279450 Z-0.125000
G01 X139.133961 Y135.279450 Z-0.125000
G03 X140.337861 Y135.321916 Z-0.125000 I-0.000000 J17.086371
G03 X141.155372 Y135.422233 Z-0.125000 I-0.562792 J7.967582
G03 X141.919183 Y135.666207 Z-0.125000 I-0.512927 J2.923448
G03 X142.520481 Y136.072692 Z-0.125000 I-1.046102 J2.195439
G03 X142.984811 Y136.606072 Z-0.125000 I-2.379419 J2.540186
G03 X143.281790 Y137.151506 Z-0.125000 I-2.193217 J1.547733
G03 X143.455039 Y137.769497 Z-0.125000 I-2.499428 J1.033975
G03 X143.531185 Y138.753857 Z-0.125000 I-6.324460 J0.984360
G01 X143.531185 Y138.753857 Z-0.125000
G00 Z5.000000

(End cutting path id: path8216)


(Start cutting path id: path8214)
(ZZZanette)
(Change tool to Default tool)

G00 Z5.000000
G00 X127.845560 Y130.916613

G01 Z-0.125000 F100.0(Penetrate)
G02 X127.186559 Y126.800137 Z-0.125000 I-13.186359 J-0.000000 F400.000000
G02 X125.640386 Y124.205772 Z-0.125000 I-6.574747 J2.160454
G02 X123.135922 Y122.568532 Z-0.125000 I-4.680740 J4.425922
G02 X119.142995 Y121.873637 Z-0.125000 I-3.992926 J11.124397
G02 X115.150067 Y122.568532 Z-0.125000 I0.000000 J11.819305
G02 X112.645603 Y124.205772 Z-0.125000 I2.176274 J6.063160
G02 X111.108226 Y126.797286 Z-0.125000 I5.052736 J4.749229
G02 X110.453554 Y130.900745 Z-0.125000 I12.532818 J4.103459
G01 X110.453554 Y145.988235 Z-0.125000
G01 X115.520206 Y145.988235 Z-0.125000
G01 X115.520206 Y131.249774 Z-0.125000
G03 X115.792719 Y128.877383 Z-0.125000 I10.462822 J-0.000000
G03 X116.373400 Y127.584989 Z-0.125000 I3.587332 J0.835162
G03 X117.412992 Y126.739506 Z-0.125000 I2.034371 J1.439555
G03 X119.142995 Y126.379260 Z-0.125000 I1.730003 J3.973871
G03 X120.859860 Y126.725282 Z-0.125000 I-0.000000 J4.432315
G03 X121.899463 Y127.537396 Z-0.125000 I-0.974085 J2.318411
G03 X122.491786 Y128.792191 Z-0.125000 I-2.670241 J2.027681
G03 X122.778908 Y131.249774 Z-0.125000 I-10.374137 J2.457583
G01 X122.778908 Y145.988235 Z-0.125000
G01 X127.845560 Y145.988235 Z-0.125000
G01 X127.845560 Y130.916613 Z-0.125000
G00 Z5.000000

(End cutting path id: path8214)


(Start cutting path id: path8212)
(ZZZanette)
(Change tool to Default tool)

G00 Z5.000000
G00 X107.263924 Y129.790206

G01 Z-0.125000 F100.0(Penetrate)
G02 X106.603223 Y126.595956 Z-0.125000 I-8.051868 J0.000000 F400.000000
G02 X104.809354 Y124.110583 Z-0.125000 I-6.526498 J2.820565
G02 X102.127554 Y122.568562 Z-0.125000 I-5.038523 J5.659700
G02 X98.167577 Y121.937098 Z-0.125000 I-3.959977 J12.100975
G02 X95.759016 Y122.080788 Z-0.125000 I0.000000 J20.258205
G02 X93.927867 Y122.444771 Z-0.125000 I1.442036 J12.042818
G02 X92.160091 Y123.045798 Z-0.125000 I5.876167 J20.183583
G02 X90.554473 Y123.761557 Z-0.125000 I6.775801 J17.358516
G01 X90.554473 Y129.425312 Z-0.125000
G01 X91.105768 Y129.425312 Z-0.125000
G03 X92.776607 Y128.083446 Z-0.125000 I8.196189 J8.494406
G03 X94.597296 Y127.109045 Z-0.125000 I6.059369 J9.133855
G03 X96.577431 Y126.487415 Z-0.125000 I4.416741 J10.604498
G03 X98.325090 Y126.299935 Z-0.125000 I1.747659 J8.051955
G03 X98.783358 Y126.317969 Z-0.125000 I0.000000 J5.831731
G03 X99.532686 Y126.395125 Z-0.125000 I-1.236325 J15.684303
G03 X100.267372 Y126.536742 Z-0.125000 I-0.739684 J5.813887
G03 X100.753408 Y126.712422 Z-0.125000 I-0.703436 J2.706293
G03 X101.293690 Y127.045963 Z-0.125000 I-1.501095 J3.035882
G03 X101.698484 Y127.426342 Z-0.125000 I-1.562327 J2.068184
G03 X101.962279 Y127.899114 Z-0.125000 I-0.937422 J0.833040
G03 X102.079138 Y128.695531 Z-0.125000 I-2.655439 J0.796417
G03 X101.936380 Y129.414077 Z-0.125000 I-1.879706 J-0.000000
G03 X101.527845 Y130.028178 Z-0.125000 I-1.760685 J-0.728365
G03 X100.925683 Y130.494307 Z-0.125000 I-1.779396 J-1.676677
G03 X99.939595 Y130.900745 Z-0.125000 I-2.309419 J-4.203616
G03 X98.832215 Y131.199098 Z-0.125000 I-9.312410 J-32.360048
G03 X97.603158 Y131.487747 Z-0.125000 I-9.942937 J-39.575773
G02 X96.395877 Y131.816117 Z-0.125000 I3.984970 J17.034583
G02 X95.306102 Y132.201666 Z-0.125000 I4.432348 J14.261203
G02 X93.058571 Y133.441420 Z-0.125000 I3.605184 J9.192919
G02 X91.748943 Y134.819370 Z-0.125000 I3.210344 J4.362488
G02 X90.976649 Y136.574859 Z-0.125000 I5.080564 J3.282722
G02 X90.672609 Y138.944236 Z-0.125000 I9.080226 J2.369377
G02 X91.321671 Y141.944262 Z-0.125000 I7.257734 J-0.000000
G02 X93.114053 Y144.322423 Z-0.125000 I6.220660 J-2.823887
G02 X95.785141 Y145.829211 Z-0.125000 I5.196311 J-6.090599
G02 X99.414553 Y146.416586 Z-0.125000 I3.629412 J-10.919452
G02 X101.330151 Y146.301241 Z-0.125000 I-0.000000 J-15.964373
G02 X103.221104 Y145.956506 Z-0.125000 I-1.921697 J-15.899485
G02 X105.077999 Y145.419816 Z-0.125000 I-4.377529 J-18.626521
G02 X106.489490 Y144.830099 Z-0.125000 I-3.904881 J-11.330418
G01 X106.489490 Y139.388451 Z-0.125000
G01 X105.951320 Y139.388451 Z-0.125000
G03 X104.683612 Y140.402496 Z-0.125000 I-6.017434 J-6.223260
G03 X103.050465 Y141.292235 Z-0.125000 I-6.233803 J-9.498639
G03 X101.302461 Y141.877865 Z-0.125000 I-3.673911 J-8.064428
G03 X99.558938 Y142.069613 Z-0.125000 I-1.743524 J-7.830896
G03 X98.931302 Y142.042009 Z-0.125000 I-0.000000 J-7.149214
G03 X98.298839 Y141.958559 Z-0.125000 I0.647173 J-7.343296
G03 X97.696568 Y141.817009 Z-0.125000 I0.607348 J-3.936226
G03 X97.104368 Y141.577801 Z-0.125000 I1.289117 J-4.044072
G03 X96.638469 Y141.283165 Z-0.125000 I0.904873 J-1.946525
G03 X96.224923 Y140.848020 Z-0.125000 I1.625645 J-1.959033
G03 X95.953151 Y140.339404 Z-0.125000 I1.374370 J-1.061294
G03 X95.857395 Y139.753342 Z-0.125000 I1.745575 J-0.586062
G03 X96.026228 Y138.894829 Z-0.125000 I2.267180 J0.000000
G03 X96.448067 Y138.309641 Z-0.125000 I1.426381 J0.583587
G03 X97.092520 Y137.923621 Z-0.125000 I1.560330 J1.873976
G03 X98.679493 Y137.405342 Z-0.125000 I4.523304 J11.161596
G02 X99.755384 Y137.133882 Z-0.125000 I-82.607806 J-329.671802
G02 X100.740283 Y136.881801 Z-0.125000 I-70.249151 J-276.518546
G02 X101.727461 Y136.595507 Z-0.125000 I-3.828921 J-15.047666
G02 X102.879826 Y136.183746 Z-0.125000 I-6.826478 J-20.923191
G02 X104.929828 Y135.050527 Z-0.125000 I-3.374392 J-8.525146
G02 X106.187589 Y133.756421 Z-0.125000 I-3.219700 J-4.387548
G02 X106.951529 Y132.134150 Z-0.125000 I-4.202734 J-2.970106
G02 X107.263924 Y129.790206 Z-0.125000 I-8.637264 J-2.343944
G01 X107.263924 Y129.790206 Z-0.125000
G00 Z5.000000

(End cutting path id: path8212)


(Start cutting path id: path8210)
(ZZZanette)
(Change tool to Default tool)

G00 Z5.000000
G00 X88.585568 Y141.419154

G01 Z-0.125000 F100.0(Penetrate)
G01 X82.481957 Y141.419154 Z-0.125000 F400.000000
G01 X82.481957 Y122.365449 Z-0.125000
G01 X77.441556 Y122.365449 Z-0.125000
G01 X77.441556 Y141.419154 Z-0.125000
G01 X71.337949 Y141.419154 Z-0.125000
G01 X71.337949 Y145.988235 Z-0.125000
G01 X88.585568 Y145.988235 Z-0.125000
G01 X88.585568 Y141.419154 Z-0.125000
G00 Z5.000000

(End cutting path id: path8210)


(Start cutting path id: path8208)
(ZZZanette)
(Change tool to Default tool)

G00 Z5.000000
G00 X70.458504 Y122.365449

G01 Z-0.125000 F100.0(Penetrate)
G01 X65.247467 Y122.365449 Z-0.125000 F400.000000
G01 X63.895483 Y127.140773 Z-0.125000
G01 X56.649907 Y127.140773 Z-0.125000
G01 X55.297926 Y122.365449 Z-0.125000
G01 X50.218148 Y122.365449 Z-0.125000
G01 X57.437470 Y145.988235 Z-0.125000
G01 X63.239182 Y145.988235 Z-0.125000
G01 X70.458504 Y122.365449 Z-0.125000
G00 Z5.000000

(End cutting path id: path8208)


(Start cutting path id: path8208)
(ZZZanette)
(Change tool to Default tool)

G00 Z5.000000
G00 X62.674761 Y131.471882

G01 Z-0.125000 F100.0(Penetrate)
G01 X60.272696 Y139.943721 Z-0.125000 F400.000000
G01 X57.870629 Y131.471882 Z-0.125000
G01 X62.674761 Y131.471882 Z-0.125000
G00 Z5.000000

(End cutting path id: path8208)


(Start cutting path id: path8206)
(ZZZanette)
(Change tool to Default tool)

G00 Z5.000000
G00 X47.422301 Y122.365449

G01 Z-0.125000 F100.0(Penetrate)
G01 X42.408154 Y122.365449 Z-0.125000 F400.000000
G01 X42.408154 Y138.182720 Z-0.125000
G01 X38.785365 Y127.918151 Z-0.125000
G01 X35.306963 Y127.918151 Z-0.125000
G01 X31.684176 Y138.182720 Z-0.125000
G01 X31.684176 Y122.365449 Z-0.125000
G01 X26.932550 Y122.365449 Z-0.125000
G01 X26.932550 Y145.988235 Z-0.125000
G01 X32.786762 Y145.988235 Z-0.125000
G01 X37.183988 Y134.137179 Z-0.125000
G01 X41.568086 Y145.988235 Z-0.125000
G01 X47.422301 Y145.988235 Z-0.125000
G01 X47.422301 Y122.365449 Z-0.125000
G00 Z5.000000

(End cutting path id: path8206)


(Start cutting path id: path1044)
(ZZZanette)
(Change tool to Default tool)

G00 Z5.000000
G00 X67.726331 Y100.381110

G01 Z-0.125000 F100.0(Penetrate)
G01 X68.028435 Y101.011463 Z-0.125000 F400.000000
G01 X68.700855 Y101.102382 Z-0.125000
G01 X69.177115 Y100.602753 Z-0.125000
G01 X69.106906 Y99.884436 Z-0.125000
G02 X68.552716 Y99.412585 Z-0.125000 I-0.900966 J0.496812
G02 X67.820441 Y99.246247 Z-0.125000 I-1.053472 J2.942707
G02 X67.341506 Y99.255516 Z-0.125000 I-0.202028 J1.939141
G02 X66.884617 Y99.401458 Z-0.125000 I0.205314 J1.430911
G02 X66.417377 Y99.854304 Z-0.125000 I0.514602 J0.998427
G02 X66.368917 Y101.527537 Z-0.125000 I1.589716 J0.883360
G01 X65.933448 Y102.074980 Z-0.125000
G01 X66.149619 Y102.798133 Z-0.125000
G01 X66.782483 Y103.135407 Z-0.125000
G02 X67.508500 Y103.041601 Z-0.125000 I0.180596 J-1.458689
G02 X67.807615 Y102.899511 Z-0.125000 I-0.978003 J-2.444689
G03 X68.106583 Y102.757961 Z-0.125000 I1.250245 J2.254147
G03 X68.810589 Y102.654589 Z-0.125000 I0.571195 J1.441103
G03 X69.467515 Y102.914693 Z-0.125000 I-0.105413 J1.225862
G03 X69.868832 Y103.517094 Z-0.125000 I-0.722474 J0.916186
G01 X69.801445 Y104.236417 Z-0.125000
G01 X69.253399 Y104.691064 Z-0.125000
G01 X68.588861 Y104.548056 Z-0.125000
G02 X68.923802 Y104.476902 Z-0.125000 I-0.073174 J-1.168368
G01 X69.213037 Y104.289980 Z-0.125000
G01 X69.366128 Y103.992331 Z-0.125000
G02 X69.376337 Y103.638705 Z-0.125000 I-1.225310 J-0.212335
G01 X69.090097 Y103.196262 Z-0.125000
G01 X68.225027 Y103.130162 Z-0.125000
G02 X68.053453 Y103.217540 Z-0.125000 I0.412354 J1.021826
G01 X67.908688 Y103.346544 Z-0.125000
G01 X67.704306 Y103.875475 Z-0.125000
G01 X67.840377 Y104.429365 Z-0.125000
G01 X68.265321 Y104.795477 Z-0.125000
G01 X68.809917 Y104.834434 Z-0.125000
G02 X68.755734 Y105.546967 Z-0.125000 I1.198025 J0.449429
G02 X69.089609 Y106.166506 Z-0.125000 I1.215744 J-0.255442
G02 X69.701189 Y106.493343 Z-0.125000 I0.836004 J-0.828723
G02 X70.380765 Y106.417277 Z-0.125000 I0.218257 J-1.123805
G02 X70.876239 Y107.190099 Z-0.125000 I1.676084 J-0.529336
G02 X71.668990 Y107.585617 Z-0.125000 I1.100786 J-1.214115
G02 X72.547922 Y107.507519 Z-0.125000 I0.302440 J-1.581181
G02 X73.273846 Y106.970253 Z-0.125000 I-0.604267 J-1.575498
G02 X74.889729 Y106.621213 Z-0.125000 I0.587116 J-1.196830
G01 X75.007408 Y105.568184 Z-0.125000
G01 X74.629630 Y105.177787 Z-0.125000
G01 X74.123769 Y105.136030 Z-0.125000
G01 X73.846111 Y105.393190 Z-0.125000
G01 X73.811242 Y105.795827 Z-0.125000
G01 X74.007162 Y106.139353 Z-0.125000
G01 X74.337203 Y106.347889 Z-0.125000
G01 X73.788437 Y106.497733 Z-0.125000
G01 X73.289971 Y106.193592 Z-0.125000
G01 X73.121434 Y105.623041 Z-0.125000
G01 X73.342450 Y105.064511 Z-0.125000
G01 X73.835708 Y104.746482 Z-0.125000
G03 X74.416948 Y104.752264 Z-0.125000 I0.280410 J1.029218
G03 X74.918451 Y105.049880 Z-0.125000 I-0.332250 J1.131209
G03 X75.250453 Y105.557228 Z-0.125000 I-1.048871 J1.048668
G03 X75.434043 Y106.098319 Z-0.125000 I-5.697349 J2.234778
G01 X75.766446 Y106.476927 Z-0.125000
G01 X76.238213 Y106.429497 Z-0.125000
G01 X76.545420 Y106.000644 Z-0.125000
G01 X77.150484 Y106.229233 Z-0.125000
G01 X77.758591 Y106.008556 Z-0.125000
G01 X78.091816 Y105.437811 Z-0.125000
G01 X77.994306 Y104.773263 Z-0.125000
G02 X78.931893 Y103.245173 Z-0.125000 I-0.165874 J-1.153457
G01 X78.097505 Y102.823393 Z-0.125000
G02 X77.683310 Y102.984909 Z-0.125000 I1.065144 J3.343314
G01 X77.404139 Y103.299676 Z-0.125000
G01 X77.441948 Y103.697685 Z-0.125000
G01 X77.753607 Y103.906215 Z-0.125000
G01 X78.100733 Y103.758637 Z-0.125000
G01 X78.146759 Y103.376369 Z-0.125000
G01 X78.457186 Y103.437820 Z-0.125000
G01 X78.602944 Y103.760134 Z-0.125000
G01 X78.507262 Y104.092958 Z-0.125000
G03 X78.267548 Y104.347804 Z-0.125000 I-0.872532 J-0.580560
G03 X77.938169 Y104.517811 Z-0.125000 I-0.658553 J-0.871829
G01 X77.581218 Y104.523405 Z-0.125000
G01 X77.308342 Y104.366226 Z-0.125000
G03 X77.105390 Y104.105858 Z-0.125000 I0.837406 J-0.862022
G03 X76.898586 Y103.375334 Z-0.125000 I1.333573 J-0.772056
G03 X77.065518 Y102.633488 Z-0.125000 I1.546539 J-0.041698
G01 X77.493955 Y102.309599 Z-0.125000
G03 X78.060564 Y102.326415 Z-0.125000 I0.246308 J1.255024
G03 X78.572493 Y102.559380 Z-0.125000 I-0.410013 J1.579930
G03 X79.043590 Y102.891868 Z-0.125000 I-11.331661 J16.555670
G02 X79.615120 Y103.267550 Z-0.125000 I4.267336 J-5.869380
G02 X80.230375 Y103.541926 Z-0.125000 I1.496557 J-2.528837
G02 X80.896832 Y103.644047 Z-0.125000 I0.667186 J-2.128403
G02 X81.548797 Y103.499320 Z-0.125000 I0.000503 J-1.538575
G02 X82.035345 Y103.169152 Z-0.125000 I-0.784379 J-1.679473
G03 X82.477292 Y102.762222 Z-0.125000 I18.188235 J19.309903
G03 X83.080122 Y102.265411 Z-0.125000 I6.110057 J6.799798
G03 X84.062213 Y101.768570 Z-0.125000 I1.870416 J2.478143
G02 X83.305250 Y101.929789 Z-0.125000 I-0.020835 J1.759847
G02 X82.040750 Y102.619185 Z-0.125000 I4.457985 J9.681287
G03 X81.379441 Y102.884905 Z-0.125000 I-1.039530 J-1.631351
G03 X80.668970 Y102.967343 Z-0.125000 I-0.861283 J-4.319998
G03 X79.825829 Y102.822748 Z-0.125000 I-0.071907 J-2.111205
G03 X79.069683 Y102.380891 Z-0.125000 I1.034885 J-2.638908
G02 X78.227553 Y101.855483 Z-0.125000 I-2.488243 J3.050594
G02 X77.312667 Y101.530885 Z-0.125000 I-2.246629 J4.880560
G02 X76.411046 Y101.565915 Z-0.125000 I-0.391995 J1.531351
G02 X75.588780 Y102.018429 Z-0.125000 I0.869815 J2.553875
G01 X75.906607 Y102.333487 Z-0.125000
G03 X76.027961 Y102.793264 Z-0.125000 I-1.011629 J0.512915
G03 X75.962525 Y103.253897 Z-0.125000 I-1.249379 J0.057481
G03 X75.761755 Y103.673703 Z-0.125000 I-1.872635 J-0.637663
G03 X74.957539 Y104.373204 Z-0.125000 I-1.571438 J-0.994629
G03 X73.984803 Y104.328022 Z-0.125000 I-0.442077 J-0.976164
G02 X73.882683 Y104.273863 Z-0.125000 I-0.887299 J1.549709
G01 X73.775767 Y104.263808 Z-0.125000
G01 X73.693416 Y104.319852 Z-0.125000
G02 X73.632696 Y104.408366 Z-0.125000 I0.963941 J0.726332
G03 X73.091063 Y104.949794 Z-0.125000 I-1.442888 J-0.901801
G03 X72.384051 Y105.170420 Z-0.125000 I-0.775405 J-1.241700
G03 X71.661059 Y105.007658 Z-0.125000 I-0.066036 J-1.393828
G03 X71.116642 Y104.478059 Z-0.125000 I0.643827 J-1.206463
G01 X71.021750 Y104.231730 Z-0.125000
G01 X70.898811 Y104.009993 Z-0.125000
G01 X70.722293 Y103.875325 Z-0.125000
G03 X70.069410 Y103.104294 Z-0.125000 I0.753923 J-1.300331
G01 X70.045421 Y102.615223 Z-0.125000
G03 X70.267598 Y102.168466 Z-0.125000 I1.215105 J0.325661
G01 X70.766552 Y101.916931 Z-0.125000
G03 X71.352650 Y102.019950 Z-0.125000 I0.036647 J1.510231
G03 X72.973016 Y100.320129 Z-0.125000 I4.156372 J2.339867
G03 X75.148427 Y99.660446 Z-0.125000 I2.297567 J3.659871
G01 X74.242507 Y99.655881 Z-0.125000
G02 X73.516987 Y99.670534 Z-0.125000 I-0.079579 J14.029160
G02 X72.805348 Y99.794353 Z-0.125000 I0.132106 J2.866201
G02 X71.708307 Y100.381158 Z-0.125000 I0.955825 J3.105801
G03 X70.666614 Y101.113034 Z-0.125000 I-5.641954 J-6.923033
G03 X70.019989 Y101.435168 Z-0.125000 I-2.349633 J-3.906407
G03 X69.335879 Y101.649271 Z-0.125000 I-1.684810 J-4.183356
G03 X68.596696 Y101.720508 Z-0.125000 I-0.647448 J-2.847542
G03 X67.908395 Y101.492235 Z-0.125000 I0.039991 J-1.272420
G01 X67.554801 Y100.961302 Z-0.125000
G01 X67.726331 Y100.381110 Z-0.125000
G00 Z5.000000

(End cutting path id: path1044)


(Start cutting path id: path1048)
(ZZZanette)
(Change tool to Default tool)

G00 Z5.000000
G00 X71.425712 Y102.374420

G01 Z-0.125000 F100.0(Penetrate)
G02 X71.177257 Y102.259692 Z-0.125000 I-1.020736 J1.884119 F400.000000
G02 X70.917634 Y102.178124 Z-0.125000 I-0.763393 J1.975842
G02 X70.814635 Y102.158565 Z-0.125000 I-0.245369 J1.011156
G01 X70.710944 Y102.160777 Z-0.125000
G01 X70.593028 Y102.207358 Z-0.125000
G01 X70.491354 Y102.289511 Z-0.125000
G01 X70.256321 Y102.744139 Z-0.125000
G01 X70.326587 Y103.257598 Z-0.125000
G01 X70.676926 Y103.629996 Z-0.125000
G01 X71.164197 Y103.716534 Z-0.125000
G01 X71.215073 Y104.112048 Z-0.125000
G02 X71.447994 Y104.442068 Z-0.125000 I1.012293 J-0.467249
G02 X72.013678 Y104.770922 Z-0.125000 I0.931144 J-0.950760
G02 X72.657060 Y104.787487 Z-0.125000 I0.353800 J-1.238787
G02 X73.231339 Y104.491691 Z-0.125000 I-0.295063 J-1.278229
G02 X73.611354 Y103.942959 Z-0.125000 I-0.927778 J-1.048471
G02 X74.370025 Y104.240147 Z-0.125000 I0.818932 J-0.973622
G02 X75.156403 Y104.026347 Z-0.125000 I0.062709 J-1.322437
G02 X75.671005 Y103.394947 Z-0.125000 I-0.733835 J-1.123495
G02 X75.733964 Y102.560064 Z-0.125000 I-1.317030 J-0.519132
G02 X75.670707 Y102.361071 Z-0.125000 I-1.239092 J0.284335
G01 X75.571250 Y102.181168 Z-0.125000
G01 X75.289987 Y101.935451 Z-0.125000
G01 X74.937399 Y101.846096 Z-0.125000
G01 X74.583136 Y101.928447 Z-0.125000
G01 X74.297391 Y102.168386 Z-0.125000
G01 X74.197587 Y102.351672 Z-0.125000
G01 X74.163409 Y102.558542 Z-0.125000
G01 X74.218031 Y102.762939 Z-0.125000
G01 X74.360131 Y102.906396 Z-0.125000
G01 X74.593284 Y102.937652 Z-0.125000
G01 X74.803416 Y102.815400 Z-0.125000
G01 X74.918401 Y102.599352 Z-0.125000
G01 X74.928897 Y102.347639 Z-0.125000
G01 X75.063726 Y102.513721 Z-0.125000
G01 X75.073727 Y102.763664 Z-0.125000
G01 X75.018657 Y102.986987 Z-0.125000
G01 X74.896354 Y103.174515 Z-0.125000
G01 X74.709654 Y103.297517 Z-0.125000
G01 X74.493527 Y103.318161 Z-0.125000
G01 X74.369118 Y103.276815 Z-0.125000
G01 X74.255173 Y103.207383 Z-0.125000
G03 X74.112568 Y103.084110 Z-0.125000 I0.615315 J-0.855934
G01 X73.995125 Y102.933787 Z-0.125000
G01 X73.862566 Y102.363538 Z-0.125000
G01 X74.107119 Y101.836966 Z-0.125000
G01 X74.617810 Y101.587549 Z-0.125000
G01 X75.164025 Y101.724058 Z-0.125000
G03 X75.872277 Y101.297417 Z-0.125000 I1.316914 J1.384972
G03 X76.682981 Y101.162561 Z-0.125000 I0.825062 J2.455699
G03 X77.494317 Y101.272067 Z-0.125000 I0.017851 J2.928110
G03 X78.269367 Y101.567021 Z-0.125000 I-1.261001 J4.479303
G03 X79.630707 Y102.311206 Z-0.125000 I-7.104546 J14.613602
G02 X81.058664 Y102.655625 Z-0.125000 I1.249086 J-2.046342
G02 X82.284535 Y102.234089 Z-0.125000 I-0.190846 J-2.548251
G03 X83.476503 Y101.630931 Z-0.125000 I3.114095 J4.674745
G03 X84.062202 Y101.504763 Z-0.125000 I0.749337 J2.056035
G03 X84.632504 Y101.625149 Z-0.125000 I0.078075 J1.041173
G02 X83.879775 Y101.200580 Z-0.125000 I-1.020194 J0.929177
G02 X83.003607 Y101.197255 Z-0.125000 I-0.446670 J2.260767
G02 X82.168975 Y101.459740 Z-0.125000 I0.696221 J3.671986
G03 X81.355360 Y101.804402 Z-0.125000 I-8.488643 J-18.905821
G03 X80.864492 Y101.958900 Z-0.125000 I-1.278857 J-3.206107
G03 X80.364418 Y101.955656 Z-0.125000 I-0.243315 J-1.037687
G03 X79.985500 Y101.780298 Z-0.125000 I0.270326 J-1.081193
G03 X79.643786 Y101.518632 Z-0.125000 I3.963753 J-5.530286
G02 X78.439489 Y100.626668 Z-0.125000 I-9.975537 J12.209621
G02 X77.118937 Y99.979309 Z-0.125000 I-3.058502 J4.568479
G02 X75.468430 Y99.743143 Z-0.125000 I-1.475238 J4.424501
G02 X73.836808 Y100.102868 Z-0.125000 I0.175924 J4.678113
G02 X72.448170 Y101.011085 Z-0.125000 I1.762210 J4.210074
G02 X71.425712 Y102.374420 Z-0.125000 I3.574569 J3.745886
G00 Z5.000000

(End cutting path id: path1048)


(Start cutting path id: path1052)
(ZZZanette)
(Change tool to Default tool)

G00 Z5.000000
G00 X82.329564 Y103.641820

G01 Z-0.125000 F100.0(Penetrate)
G03 X82.094683 Y103.911201 Z-0.125000 I-1.536351 J-1.102496 F400.000000
G03 X81.801843 Y104.105930 Z-0.125000 I-0.706093 J-0.744291
G03 X81.479129 Y104.223280 Z-0.125000 I-1.059506 J-2.411240
G01 X81.214901 Y104.419394 Z-0.125000
G01 X81.152292 Y104.721675 Z-0.125000
G01 X81.282332 Y105.014672 Z-0.125000
G01 X81.473829 Y105.164963 Z-0.125000
G01 X81.693074 Y105.153144 Z-0.125000
G01 X81.822803 Y104.927433 Z-0.125000
G02 X81.790116 Y104.624516 Z-0.125000 I-1.296488 J-0.013324
G03 X81.750879 Y104.737166 Z-0.125000 I-1.163488 J-0.342103
G01 X81.689556 Y104.835724 Z-0.125000
G01 X81.593690 Y104.901592 Z-0.125000
G01 X81.483452 Y104.900547 Z-0.125000
G01 X81.423018 Y104.858141 Z-0.125000
G01 X81.380547 Y104.794334 Z-0.125000
G01 X81.388584 Y104.464142 Z-0.125000
G01 X81.652323 Y104.270879 Z-0.125000
G01 X81.964242 Y104.337279 Z-0.125000
G01 X82.164212 Y104.610821 Z-0.125000
G01 X82.172525 Y104.949458 Z-0.125000
G01 X82.016450 Y105.251444 Z-0.125000
G01 X81.913878 Y105.352083 Z-0.125000
G01 X81.793341 Y105.425219 Z-0.125000
G01 X81.356679 Y105.497691 Z-0.125000
G01 X80.661381 Y104.953501 Z-0.125000
G03 X80.601044 Y104.689800 Z-0.125000 I1.278406 J-0.431262
G01 X80.668124 Y104.451349 Z-0.125000
G01 X80.482601 Y104.619860 Z-0.125000
G01 X80.398400 Y104.864331 Z-0.125000
G01 X80.439461 Y105.119787 Z-0.125000
G01 X80.593657 Y105.320224 Z-0.125000
G01 X80.328173 Y105.251754 Z-0.125000
G01 X80.151251 Y105.015890 Z-0.125000
G01 X80.108314 Y104.726605 Z-0.125000
G03 X80.161219 Y104.433394 Z-0.125000 I1.342203 J0.090800
G03 X80.255367 Y104.208172 Z-0.125000 I1.122873 J0.337101
G01 X80.413059 Y104.037759 Z-0.125000
G01 X80.711442 Y103.954137 Z-0.125000
G02 X81.032544 Y103.952850 Z-0.125000 I0.142840 J-4.417132
G02 X81.411376 Y103.881556 Z-0.125000 I-0.052660 J-1.321951
G02 X81.764903 Y103.720034 Z-0.125000 I-0.658919 J-1.909844
G02 X82.266998 Y103.393092 Z-0.125000 I-1.109301 J-2.252600
G01 X82.552966 Y102.996327 Z-0.125000
G01 X82.493664 Y103.330069 Z-0.125000
G03 X82.329564 Y103.641820 Z-0.125000 I-1.248650 J-0.458203
G00 Z5.000000

(End cutting path id: path1052)


(Start cutting path id: path1068)
(ZZZanette)
(Change tool to Default tool)

G00 Z5.000000
G00 X81.357271 Y91.268130

G01 Z-0.125000 F100.0(Penetrate)
G03 X80.599430 Y91.529289 Z-0.125000 I-1.708725 J-3.728296 F400.000000
G03 X79.801668 Y91.575508 Z-0.125000 I-0.528741 J-2.218343
G03 X79.028851 Y91.430372 Z-0.125000 I0.689647 J-5.802353
G02 X78.292094 Y91.513119 Z-0.125000 I-0.260047 J1.005933
G01 X77.841190 Y92.036825 Z-0.125000
G02 X77.780205 Y92.778237 Z-0.125000 I1.452128 J0.492658
G02 X77.999517 Y93.306142 Z-0.125000 I1.233654 J-0.202999
G01 X78.448358 Y93.534508 Z-0.125000
G01 X78.950990 Y93.237637 Z-0.125000
G02 X79.215605 Y92.595332 Z-0.125000 I-2.560134 J-1.430380
G03 X79.015050 Y92.773722 Z-0.125000 I-1.848965 J-1.876762
G01 X78.786099 Y92.898449 Z-0.125000
G01 X78.525559 Y92.917633 Z-0.125000
G01 X78.304994 Y92.786150 Z-0.125000
G01 X78.230674 Y92.630756 Z-0.125000
G01 X78.214989 Y92.454121 Z-0.125000
G01 X78.593326 Y91.809136 Z-0.125000
G01 X79.325254 Y91.729501 Z-0.125000
G01 X79.876330 Y92.225113 Z-0.125000
G03 X79.975816 Y93.005575 Z-0.125000 I-1.134000 J0.541123
G03 X79.621450 Y93.692158 Z-0.125000 I-1.349729 J-0.261893
G03 X78.986047 Y94.108787 Z-0.125000 I-1.210815 J-1.153781
G03 X78.672992 Y94.189293 Z-0.125000 I-0.559210 J-1.525610
G03 X78.352782 Y94.194305 Z-0.125000 I-0.178359 J-1.163758
G03 X77.403242 Y93.831532 Z-0.125000 I0.252663 J-2.085406
G03 X76.609545 Y91.930057 Z-0.125000 I1.099361 J-1.575272
G03 X76.776353 Y91.331112 Z-0.125000 I3.029234 J0.520947
G01 X77.168050 Y90.937623 Z-0.125000
G02 X76.615318 Y91.057332 Z-0.125000 I-0.052957 J1.091394
G02 X76.182385 Y91.444644 Z-0.125000 I0.527096 J1.024803
G02 X75.986905 Y91.998051 Z-0.125000 I1.000471 J0.664625
G02 X76.076548 Y92.581333 Z-0.125000 I1.210177 J0.112541
G01 X75.620434 Y92.135295 Z-0.125000
G03 X75.525666 Y91.457730 Z-0.125000 I1.160994 J-0.507793
G03 X75.755891 Y90.828252 Z-0.125000 I1.543440 J0.207657
G03 X76.177694 Y90.308868 Z-0.125000 I2.467587 J1.573013
G03 X76.608963 Y89.971129 Z-0.125000 I1.761237 J1.804755
G03 X77.109121 Y89.815238 Z-0.125000 I0.551065 J0.887731
G03 X77.791344 Y89.995110 Z-0.125000 I0.057923 J1.164019
G02 X78.435165 Y90.370952 Z-0.125000 I5.412097 J-8.531621
G02 X79.271489 Y90.672567 Z-0.125000 I1.449211 J-2.708106
G02 X80.147032 Y90.763544 Z-0.125000 I0.903549 J-4.437083
G02 X81.501035 Y90.699774 Z-0.125000 I0.415625 J-5.581589
G02 X82.503011 Y90.243436 Z-0.125000 I-0.360481 J-2.119687
G03 X82.021295 Y90.839947 Z-0.125000 I-1.873746 J-1.020395
G03 X81.357271 Y91.268130 Z-0.125000 I-1.872775 J-2.175313
G00 Z5.000000

(End cutting path id: path1068)


(Start cutting path id: path1028)
(ZZZanette)
(Change tool to Default tool)

G00 Z5.000000
G00 X88.567425 Y91.268006

G01 Z-0.125000 F100.0(Penetrate)
G02 X99.672370 Y109.307320 Z-0.125000 I30.072965 J-6.075081 F400.000000
G02 X126.510855 Y118.597846 Z-0.125000 I26.838485 J-34.120262
G02 X141.692981 Y115.128372 Z-0.125000 I-0.000000 J-34.952588
G02 X155.735623 Y102.309015 Z-0.125000 I-14.414212 J-29.890695
G00 Z5.000000

(End cutting path id: path1028)


(Start cutting path id: path1028)
(ZZZanette)
(Change tool to Default tool)

G00 Z5.000000
G00 X159.537543 Y94.463721

G01 Z-0.125000 F100.0(Penetrate)
G02 X161.665766 Y87.841693 Z-0.125000 I-13.858869 J-8.107042 F400.000000
G02 X160.507603 Y74.972804 Z-0.125000 I-35.467888 J-3.294553
G00 Z5.000000

(End cutting path id: path1028)


(Start cutting path id: path5955)
(ZZZanette)
(Change tool to Default tool)

G00 Z5.000000
G00 X171.532520 Y68.225430

G01 Z-0.125000 F100.0(Penetrate)
G02 X169.698680 Y69.426886 Z-0.125000 I56.050286 J87.552502 F400.000000
G02 X168.353540 Y70.354670 Z-0.125000 I34.303468 J51.173621
G03 X163.418740 Y73.461196 Z-0.125000 I-30.996189 J-43.765480
G03 X157.760820 Y76.472620 Z-0.125000 I-84.945930 J-152.777207
G01 X157.760820 Y76.474620 Z-0.125000
G01 X157.758820 Y76.474620 Z-0.125000
G03 X151.491131 Y79.593447 Z-0.125000 I-219.593987 J-433.445400
G02 X148.094660 Y81.429890 Z-0.125000 I20.606711 J42.170856
G01 X148.092660 Y81.429890 Z-0.125000
G02 X147.639109 Y81.710573 Z-0.125000 I19.172046 J31.486642
G02 X147.294070 Y81.937060 Z-0.125000 I5.644101 J8.974483
G03 X143.293473 Y83.430911 Z-0.125000 I-5.007148 J-7.305547
G03 X141.278640 Y83.652310 Z-0.125000 I-25.893058 J-226.360265
G03 X139.392971 Y83.842531 Z-0.125000 I-13.411373 J-123.506088
G03 X137.079540 Y83.856180 Z-0.125000 I-1.234952 J-13.253765
G01 X137.079590 Y83.856110 Z-0.125000
G03 X136.332584 Y83.784887 Z-0.125000 I1.821713 J-23.059507
G03 X135.297360 Y83.652240 Z-0.125000 I3.586168 J-32.093765
G02 X129.989681 Y83.236589 Z-0.125000 I-6.056534 J43.243040
G02 X127.647430 Y83.606740 Z-0.125000 I-0.117530 J6.852040
G03 X127.006266 Y83.629769 Z-0.125000 I-0.358548 J-1.045526
G03 X125.790530 Y83.180450 Z-0.125000 I1.738631 J-6.573660
G03 X124.596146 Y82.536741 Z-0.125000 I6.565424 J-13.611884
G03 X122.701650 Y81.357370 Z-0.125000 I32.563618 J-54.420252
G03 X118.955660 Y78.871641 Z-0.125000 I106.763130 J-164.957366
G02 X112.574800 Y74.658120 Z-0.125000 I-157.092259 J230.958642
G01 X112.572800 Y74.658120 Z-0.125000
G02 X94.284152 Y63.867161 Z-0.125000 I-117.288312 J177.888254
G02 X76.348996 Y54.858660 Z-0.125000 I-262.856423 J500.966779
G02 X47.175038 Y42.003541 Z-0.125000 I-208.941079 J434.647958
G02 X36.085274 Y37.957260 Z-0.125000 I-68.502166 J170.525787
G02 X27.501096 Y35.338593 Z-0.125000 I-65.312910 J198.721255
G02 X18.758695 Y32.959520 Z-0.125000 I-137.426313 J487.749370
G00 Z5.000000

(End cutting path id: path5955)


(Start cutting path id: path1028)
(ZZZanette)
(Change tool to Default tool)

G00 Z5.000000
G00 X93.239004 Y63.936772

G01 Z-0.125000 F100.0(Penetrate)
G02 X89.879750 Y71.462432 Z-0.125000 I26.518674 J16.349799 F400.000000
G02 X89.332391 Y74.298667 Z-0.125000 I14.371317 J4.244421
G00 Z5.000000

(End cutting path id: path1028)


(Start cutting path id: path1076)
(ZZZanette)
(Change tool to Default tool)

G00 Z5.000000
G00 X92.587635 Y75.270390

G01 Z-0.125000 F100.0(Penetrate)
G02 X89.321784 Y76.898005 Z-0.125000 I1.306873 J6.712587 F400.000000
G02 X87.258244 Y80.063047 Z-0.125000 I4.902169 J5.451323
G02 X86.991463 Y80.990349 Z-0.125000 I12.356522 J4.056951
G03 X86.692704 Y81.903966 Z-0.125000 I-6.394162 J-1.585281
G01 X86.390445 Y81.521118 Z-0.125000
G03 X86.348806 Y80.999788 Z-0.125000 I1.122388 J-0.351974
G03 X86.498177 Y80.510150 Z-0.125000 I1.676993 J0.243988
G03 X86.727006 Y80.049961 Z-0.125000 I16.873808 J8.103491
G02 X87.344985 Y78.768414 Z-0.125000 I-24.600199 J-12.652320
G03 X88.062432 Y77.559289 Z-0.125000 I5.737679 J2.587096
G03 X89.233640 Y76.435120 Z-0.125000 I4.107349 J3.107022
G03 X90.640346 Y75.660547 Z-0.125000 I4.438663 J6.396432
G03 X92.019034 Y75.212398 Z-0.125000 I3.295258 J7.792780
G02 X93.406481 Y74.833062 Z-0.125000 I-4.245903 J-18.256664
G01 X92.743640 Y74.587755 Z-0.125000
G03 X92.007729 Y74.685764 Z-0.125000 I-1.838597 J-10.993554
G02 X91.246865 Y74.820627 Z-0.125000 I0.496475 J5.014728
G02 X90.510175 Y75.064660 Z-0.125000 I1.431032 J5.553988
G02 X89.121900 Y75.830483 Z-0.125000 I2.584483 J6.326359
G02 X87.877436 Y76.854450 Z-0.125000 I6.880020 J9.629733
G02 X87.367919 Y77.367783 Z-0.125000 I7.464384 J7.918431
G02 X86.907896 Y77.931185 Z-0.125000 I4.186127 J3.887517
G02 X86.182137 Y79.301202 Z-0.125000 I4.745488 J3.391141
G02 X85.730200 Y80.813231 Z-0.125000 I11.679298 J4.314429
G01 X85.683218 Y80.858600 Z-0.125000
G02 X83.703167 Y82.163563 Z-0.125000 I0.604678 J3.072163
G02 X83.290231 Y83.401454 Z-0.125000 I1.964888 J1.343268
G02 X83.551301 Y84.699581 Z-0.125000 I2.751569 J0.121940
G02 X84.183224 Y85.559241 Z-0.125000 I2.516438 J-1.187706
G02 X85.042404 Y86.171646 Z-0.125000 I2.871302 J-3.119427
G02 X86.291127 Y86.625265 Z-0.125000 I2.167249 J-4.020449
G02 X87.601263 Y86.645799 Z-0.125000 I0.709384 J-3.455355
G02 X88.823382 Y86.161959 Z-0.125000 I-0.546020 J-3.164558
G02 X89.737358 Y85.180429 Z-0.125000 I-1.566463 J-2.374951
G02 X90.728598 Y85.307819 Z-0.125000 I1.258847 J-5.875093
G02 X91.696374 Y85.136909 Z-0.125000 I0.100577 J-2.255957
G02 X92.475304 Y84.505028 Z-0.125000 I-0.677113 J-1.630728
G02 X92.678227 Y83.531546 Z-0.125000 I-1.063535 J-0.729586
G02 X93.996975 Y83.075109 Z-0.125000 I-0.052794 J-2.285834
G02 X94.848624 Y81.903661 Z-0.125000 I-1.475399 J-1.967925
G02 X94.936667 Y81.537134 Z-0.125000 I-1.885937 J-0.646856
G02 X94.925437 Y81.163216 Z-0.125000 I-1.087659 J-0.154461
G02 X94.806811 Y80.840249 Z-0.125000 I-1.126287 J0.230417
G02 X94.626395 Y80.547547 Z-0.125000 I-3.005028 J1.650291
G02 X94.166479 Y79.960314 Z-0.125000 I-4.846239 J3.321811
G02 X93.617863 Y79.474465 Z-0.125000 I-2.322133 J2.069461
G02 X92.960545 Y79.149468 Z-0.125000 I-1.419466 J2.043699
G02 X92.247255 Y79.072743 Z-0.125000 I-0.541944 J1.684319
G02 X91.565320 Y79.305743 Z-0.125000 I0.151345 J1.557382
G02 X91.073957 Y79.850622 Z-0.125000 I0.718456 J1.141884
G02 X90.953555 Y80.589603 Z-0.125000 I1.149802 J0.566636
G02 X91.291495 Y81.231995 Z-0.125000 I1.050474 J-0.142532
G01 X91.964100 Y81.468788 Z-0.125000
G01 X92.581478 Y81.129130 Z-0.125000
G01 X92.701420 Y80.855213 Z-0.125000
G01 X92.660930 Y80.567938 Z-0.125000
G01 X92.410262 Y80.977044 Z-0.125000
G01 X91.957889 Y81.057003 Z-0.125000
G01 X91.594855 Y80.762828 Z-0.125000
G01 X91.565323 Y80.278516 Z-0.125000
G01 X91.954686 Y79.885134 Z-0.125000
G03 X92.525481 Y79.816232 Z-0.125000 I0.429481 J1.159159
G03 X93.238108 Y80.067758 Z-0.125000 I-0.193498 J1.683496
G03 X93.778524 Y80.622414 Z-0.125000 I-0.892083 J1.409780
G03 X94.011500 Y81.369236 Z-0.125000 I-1.434483 J0.857245
G03 X93.868530 Y82.137694 Z-0.125000 I-1.575808 J0.104353
G03 X93.702165 Y82.407691 Z-0.125000 I-1.224424 J-0.568204
G01 X93.472153 Y82.611543 Z-0.125000
G01 X93.197712 Y82.725911 Z-0.125000
G03 X92.905733 Y82.787144 Z-0.125000 I-1.083672 J-4.440553
G03 X92.578030 Y82.845101 Z-0.125000 I-302.219941 J-1709.138993
G03 X92.249894 Y82.903095 Z-0.125000 I-1520.715395 J-8571.547952
G01 X92.309902 Y83.062157 Z-0.125000
G01 X92.277159 Y83.246384 Z-0.125000
G03 X91.854273 Y83.976820 Z-0.125000 I-1.832180 J-0.573109
G03 X91.176862 Y84.436027 Z-0.125000 I-1.325404 J-1.225950
G03 X90.369920 Y84.544304 Z-0.125000 I-0.631074 J-1.642093
G03 X89.595167 Y84.277165 Z-0.125000 I0.178239 J-1.773961
G03 X86.566819 Y85.906498 Z-0.125000 I-2.791683 J-1.559766
G03 X84.164336 Y82.995613 Z-0.125000 I0.193431 J-2.606528
G03 X84.403002 Y82.393820 Z-0.125000 I1.246652 J0.146188
G03 X84.887313 Y81.985527 Z-0.125000 I1.106401 J0.821010
G01 X85.499110 Y81.887020 Z-0.125000
G01 X86.031294 Y82.193996 Z-0.125000
G01 X86.203269 Y82.810774 Z-0.125000
G01 X85.856853 Y83.313338 Z-0.125000
G02 X86.811707 Y82.912622 Z-0.125000 I-0.447458 J-2.404237
G02 X87.538816 Y82.135868 Z-0.125000 I-1.479162 J-2.113319
G02 X87.950440 Y81.131744 Z-0.125000 I-2.994886 J-1.814137
G03 X88.253584 Y80.070047 Z-0.125000 I12.025212 J2.859399
G03 X88.758460 Y78.964100 Z-0.125000 I5.474268 J1.830848
G03 X89.475550 Y78.003008 Z-0.125000 I4.821772 J2.849555
G03 X91.224225 Y76.703412 Z-0.125000 I4.378667 J4.065461
G03 X93.264583 Y75.991054 Z-0.125000 I3.977056 J8.113003
G03 X95.403590 Y75.710743 Z-0.125000 I2.703678 J12.329992
G03 X97.564626 Y75.651417 Z-0.125000 I2.794740 J62.412436
G02 X95.081766 Y75.189614 Z-0.125000 I-5.335762 J21.782081
G02 X92.587635 Y75.270390 Z-0.125000 I-0.996694 J7.771153
G00 Z5.000000

(End cutting path id: path1076)


(Start cutting path id: path1076)
(ZZZanette)
(Change tool to Default tool)

G00 Z5.000000
G00 X108.738814 Y84.319772

G01 Z-0.125000 F100.0(Penetrate)
G03 X103.808638 Y80.542526 Z-0.125000 I4.393039 J-10.840059 F400.000000
G02 X98.974226 Y76.521508 Z-0.125000 I-11.055316 J8.374969
G02 X98.015292 Y76.120556 Z-0.125000 I-3.377198 J6.729846
G02 X97.011399 Y75.897927 Z-0.125000 I-1.521724 J4.487150
G02 X96.000176 Y75.895971 Z-0.125000 I-0.514629 J4.660994
G02 X95.000197 Y76.076876 Z-0.125000 I0.739013 J6.939227
G02 X92.618332 Y77.129531 Z-0.125000 I1.995495 J7.736327
G02 X90.655005 Y78.922706 Z-0.125000 I4.563585 J6.968015
G01 X91.006007 Y78.997068 Z-0.125000
G02 X91.375637 Y78.806146 Z-0.125000 I-0.534031 J-1.487167
G03 X94.073807 Y77.203501 Z-0.125000 I12.304125 J17.642291
G03 X97.011106 Y76.683110 Z-0.125000 I2.348236 J4.704545
G03 X99.689177 Y77.786523 Z-0.125000 I-0.588193 J5.229243
G03 X101.928288 Y79.876186 Z-0.125000 I-11.711436 J14.793472
G02 X104.030332 Y82.097447 Z-0.125000 I59.283202 J-53.996181
G02 X106.493950 Y83.705016 Z-0.125000 I4.899378 J-4.816805
G02 X107.585831 Y84.056549 Z-0.125000 I4.013087 J-10.593380
G03 X108.628579 Y84.520937 Z-0.125000 I-0.934468 J3.501183
G03 X106.030594 Y83.992510 Z-0.125000 I0.396465 J-8.599855
G03 X103.681493 Y82.685801 Z-0.125000 I3.079815 J-8.301525
G03 X101.547760 Y80.428401 Z-0.125000 I6.225650 J-8.021711
G02 X99.176226 Y78.701151 Z-0.125000 I-3.645763 J2.513979
G02 X98.111946 Y78.604197 Z-0.125000 I-0.769914 J2.561609
G02 X97.088505 Y78.932141 Z-0.125000 I0.297923 J2.690697
G02 X96.154510 Y79.628920 Z-0.125000 I2.172521 J3.886521
G02 X95.576878 Y80.635500 Z-0.125000 I1.477094 J1.516667
G02 X96.485291 Y83.147144 Z-0.125000 I2.330002 J0.577383
G01 X97.003483 Y83.267079 Z-0.125000
G02 X97.368472 Y83.166673 Z-0.125000 I-0.381284 J-2.099606
G02 X97.694210 Y82.971875 Z-0.125000 I-0.367277 J-0.983902
G01 X97.919931 Y82.659284 Z-0.125000
G01 X97.956312 Y82.276471 Z-0.125000
G01 X97.451705 Y82.609274 Z-0.125000
G01 X96.869794 Y82.545807 Z-0.125000
G01 X96.477250 Y82.089260 Z-0.125000
G01 X96.525603 Y81.483071 Z-0.125000
G01 X96.699301 Y81.262092 Z-0.125000
G03 X96.927550 Y81.102958 Z-0.125000 I0.804192 J0.910210
G03 X97.618766 Y80.925098 Z-0.125000 I0.705524 J1.309811
G03 X98.326596 Y81.054568 Z-0.125000 I0.018271 J1.899732
G03 X98.947603 Y81.418819 Z-0.125000 I-0.825077 J2.118170
G03 X99.465299 Y81.945355 Z-0.125000 I-2.254453 J2.734370
G03 X99.694834 Y82.273245 Z-0.125000 I-2.509133 J2.000767
G03 X99.863728 Y82.638629 Z-0.125000 I-1.492126 J0.911445
G03 X99.908970 Y83.521627 Z-0.125000 I-1.591355 J0.524194
G03 X99.535662 Y84.324337 Z-0.125000 I-1.985831 J-0.435370
G01 X100.158580 Y84.819643 Z-0.125000
G03 X100.196192 Y85.685928 Z-0.125000 I-1.099170 J0.481682
G03 X99.696441 Y86.360280 Z-0.125000 I-1.296943 J-0.438790
G03 X98.930836 Y86.693275 Z-0.125000 I-1.159277 J-1.618730
G03 X98.000474 Y86.650721 Z-0.125000 I-0.379857 J-1.886725
G03 X97.277018 Y86.086128 Z-0.125000 I0.360538 J-1.207791
G02 X97.324841 Y86.644929 Z-0.125000 I1.116770 J0.185872
G02 X97.597755 Y87.136690 Z-0.125000 I1.560475 J-0.544411
G03 X96.701310 Y87.344807 Z-0.125000 I-0.711048 J-1.028043
G03 X95.791192 Y87.014348 Z-0.125000 I0.362462 J-2.416769
G03 X95.019363 Y86.432587 Z-0.125000 I2.560216 J-4.199544
G02 X94.253473 Y85.841139 Z-0.125000 I-3.784268 J4.108788
G02 X93.637165 Y85.525062 Z-0.125000 I-1.937837 J3.019623
G02 X92.977855 Y85.335640 Z-0.125000 I-1.298587 J3.277788
G02 X92.336877 Y85.286913 Z-0.125000 I-0.547873 J2.966753
G02 X91.708687 Y85.410202 Z-0.125000 I0.060897 J1.972327
G02 X91.158901 Y85.744616 Z-0.125000 I0.595731 J1.598536
G02 X90.790453 Y86.286380 Z-0.125000 I0.935580 J1.032448
G02 X90.724867 Y86.948477 Z-0.125000 I1.204672 J0.453631
G02 X91.022064 Y87.520760 Z-0.125000 I1.022820 J-0.167858
G01 X91.605235 Y87.775492 Z-0.125000
G01 X92.187447 Y87.552107 Z-0.125000
G02 X92.470388 Y87.142876 Z-0.125000 I-0.958567 J-0.965179
G01 X92.794326 Y86.797357 Z-0.125000
G01 X92.558894 Y86.730726 Z-0.125000
G01 X92.315273 Y86.857007 Z-0.125000
G02 X92.116311 Y87.045626 Z-0.125000 I1.783499 J2.080535
G01 X91.892510 Y87.179297 Z-0.125000
G01 X91.513181 Y87.083035 Z-0.125000
G01 X91.336058 Y86.688406 Z-0.125000
G01 X91.447685 Y86.278442 Z-0.125000
G03 X91.741230 Y85.968655 Z-0.125000 I0.959305 J0.615038
G03 X92.391090 Y85.731656 Z-0.125000 I0.746534 J1.037553
G03 X93.052029 Y85.895919 Z-0.125000 I0.082046 J1.081701
G03 X93.354103 Y86.163259 Z-0.125000 I-0.665422 J1.056210
G03 X93.597047 Y86.499718 Z-0.125000 I-2.742747 J2.236362
G03 X93.999234 Y87.283659 Z-0.125000 I-4.029819 J2.562565
G03 X94.181058 Y88.145559 Z-0.125000 I-2.364661 J0.948971
G03 X94.017742 Y89.023175 Z-0.125000 I-2.061166 J0.070441
G03 X93.465703 Y89.667230 Z-0.125000 I-1.293628 J-0.550194
G03 X92.612527 Y89.918215 Z-0.125000 I-0.881531 J-1.421005
G02 X91.706342 Y90.013258 Z-0.125000 I0.088353 J5.209874
G02 X91.006985 Y90.235837 Z-0.125000 I0.599996 J3.095227
G02 X90.331043 Y90.543713 Z-0.125000 I58.443976 J129.209700
G03 X89.639660 Y90.815520 Z-0.125000 I-2.819413 J-6.156400
G03 X88.919098 Y90.925044 Z-0.125000 I-0.681524 J-2.058702
G03 X88.208960 Y90.745275 Z-0.125000 I0.030006 J-1.611039
G03 X87.699477 Y90.216858 Z-0.125000 I0.525804 J-1.016786
G03 X87.098662 Y90.767713 Z-0.125000 I-1.518652 J-1.053307
G03 X86.337958 Y90.995650 Z-0.125000 I-0.870250 J-1.520991
G03 X85.524026 Y90.850790 Z-0.125000 I-0.109253 J-1.745207
G03 X84.838646 Y90.351374 Z-0.125000 I0.801190 J-1.819528
G01 X84.233009 Y90.563902 Z-0.125000
G03 X83.603487 Y90.363243 Z-0.125000 I0.044100 J-1.226178
G03 X83.137022 Y89.894964 Z-0.125000 I0.886375 J-1.349411
G03 X82.820994 Y89.285899 Z-0.125000 I2.918298 J-1.900747
G03 X82.692781 Y88.887408 Z-0.125000 I2.757295 J-1.107019
G03 X82.664437 Y88.473022 Z-0.125000 I1.175086 J-0.288539
G03 X82.904291 Y87.883893 Z-0.125000 I1.135968 J0.119100
G03 X83.380378 Y87.466284 Z-0.125000 I1.373137 J1.085236
G03 X83.805410 Y87.298053 Z-0.125000 I0.729757 J1.222679
G01 X84.237924 Y87.351246 Z-0.125000
G01 X84.582807 Y87.791183 Z-0.125000
G01 X84.508820 Y88.382939 Z-0.125000
G01 X84.110140 Y88.800460 Z-0.125000
G03 X83.563614 Y88.976696 Z-0.125000 I-0.704676 J-1.249737
G01 X84.332914 Y89.076811 Z-0.125000
G02 X84.965592 Y88.586539 Z-0.125000 I-0.301243 J-1.042102
G02 X85.117225 Y87.785200 Z-0.125000 I-1.031689 J-0.610237
G02 X84.736620 Y87.067606 Z-0.125000 I-1.246241 J0.201264
G02 X84.014828 Y86.736847 Z-0.125000 I-0.850210 J0.902415
G02 X83.237893 Y86.894136 Z-0.125000 I-0.137357 J1.319014
G02 X82.684497 Y87.368360 Z-0.125000 I0.865468 J1.569963
G03 X82.212063 Y87.956567 Z-0.125000 I-15.651897 J-12.087405
G03 X81.652371 Y88.466239 Z-0.125000 I-2.135860 J-1.783331
G01 X80.972800 Y88.633407 Z-0.125000
G01 X80.676629 Y88.549535 Z-0.125000
G03 X80.400516 Y88.400895 Z-0.125000 I1.069597 J-2.317651
G03 X79.960014 Y88.071676 Z-0.125000 I1.681749 J-2.709521
G03 X79.609815 Y87.641885 Z-0.125000 I1.165562 J-1.307286
G03 X79.428172 Y87.110747 Z-0.125000 I1.256812 J-0.726444
G03 X79.499580 Y86.560585 Z-0.125000 I1.053266 J-0.143007
G03 X78.412309 Y86.161365 Z-0.125000 I-0.081897 J-1.457148
G03 X77.916125 Y85.055956 Z-0.125000 I1.100531 J-1.158059
G03 X78.071031 Y84.276130 Z-0.125000 I1.751025 J-0.057473
G03 X78.506000 Y83.613716 Z-0.125000 I2.322774 J1.051215
G03 X78.693293 Y83.408537 Z-0.125000 I60.128520 J54.699145
G01 X78.841688 Y83.174561 Z-0.125000
G01 X78.868034 Y82.620595 Z-0.125000
G03 X78.733506 Y82.046090 Z-0.125000 I4.483220 J-1.352809
G03 X78.833526 Y81.085856 Z-0.125000 I1.777169 J-0.300212
G03 X79.376152 Y80.297080 Z-0.125000 I1.973639 J0.776701
G03 X80.189471 Y79.815421 Z-0.125000 I1.560095 J1.706832
G03 X81.114112 Y79.654631 Z-0.125000 I0.971276 J2.846409
G03 X81.801422 Y79.727280 Z-0.125000 I0.045258 J2.859336
G03 X82.436931 Y80.001876 Z-0.125000 I-0.430761 J1.869623
G03 X82.924701 Y80.502436 Z-0.125000 I-0.935734 J1.399759
G03 X83.136454 Y81.178737 Z-0.125000 I-1.165504 J0.736225
G03 X82.959368 Y81.873209 Z-0.125000 I-1.241445 J0.053254
G01 X82.427256 Y82.291992 Z-0.125000
G01 X81.757353 Y82.222447 Z-0.125000
G01 X81.362140 Y81.662933 Z-0.125000
G03 X81.365524 Y81.895381 Z-0.125000 I-1.106515 J0.132358
G02 X81.369177 Y82.127347 Z-0.125000 I1.095233 J0.098768
G02 X81.402629 Y82.340044 Z-0.125000 I2.935852 J-0.352768
G01 X81.478825 Y82.535155 Z-0.125000
G02 X81.715721 Y82.815173 Z-0.125000 I1.053831 J-0.651329
G01 X82.031173 Y82.951180 Z-0.125000
G02 X83.324240 Y82.220615 Z-0.125000 I0.121426 J-1.294700
G02 X83.576807 Y81.451116 Z-0.125000 I-2.780736 J-1.338900
G03 X85.559338 Y77.032855 Z-0.125000 I10.165549 J1.907490
G03 X89.239835 Y74.124876 Z-0.125000 I7.679565 J5.936565
G03 X92.514731 Y73.291104 Z-0.125000 I3.992103 J8.831746
G03 X95.877972 Y73.576161 Z-0.125000 I0.790624 J10.654939
G03 X99.000060 Y74.863646 Z-0.125000 I-2.758970 J11.119562
G03 X101.704593 Y76.995053 Z-0.125000 I-6.903486 J11.541393
G03 X103.077574 Y78.549711 Z-0.125000 I-14.420595 J14.119000
G02 X104.430856 Y80.126653 Z-0.125000 I21.859573 J-17.390054
G02 X108.850127 Y83.366156 Z-0.125000 I10.535411 J-9.738121
G02 X114.023642 Y85.026740 Z-0.125000 I8.946414 J-18.983083
G03 X115.910828 Y85.645491 Z-0.125000 I-1.312122 J7.189291
G01 X116.197264 Y86.184124 Z-0.125000
G02 X112.493497 Y85.185480 Z-0.125000 I-4.377223 J8.866647
G03 X108.738814 Y84.319772 Z-0.125000 I0.831597 J-12.181852
G00 Z5.000000

(End cutting path id: path1076)


(Start cutting path id: path1072)
(ZZZanette)
(Change tool to Default tool)

G00 Z5.000000
G00 X118.546480 Y88.102790

G01 Z-0.125000 F100.0(Penetrate)
G03 X117.788591 Y88.364064 Z-0.125000 I-1.703915 J-3.712757 F400.000000
G03 X116.990877 Y88.410168 Z-0.125000 I-0.528498 J-2.220095
G03 X116.218060 Y88.265032 Z-0.125000 I0.689647 J-5.802353
G02 X115.481303 Y88.347779 Z-0.125000 I-0.260047 J1.005933
G01 X115.030286 Y88.871465 Z-0.125000
G02 X114.969414 Y89.612897 Z-0.125000 I1.449472 J0.492217
G02 X115.188717 Y90.141075 Z-0.125000 I1.235234 J-0.203259
G01 X115.637274 Y90.369168 Z-0.125000
G01 X116.140053 Y90.072295 Z-0.125000
G02 X116.404521 Y89.429992 Z-0.125000 I-2.550038 J-1.425576
G03 X116.204330 Y89.608265 Z-0.125000 I-1.827749 J-1.850932
G01 X115.975015 Y89.733109 Z-0.125000
G01 X115.714833 Y89.752334 Z-0.125000
G01 X115.494203 Y89.620810 Z-0.125000
G01 X115.419868 Y89.465633 Z-0.125000
G01 X115.404198 Y89.288781 Z-0.125000
G01 X115.782423 Y88.643806 Z-0.125000
G01 X116.514170 Y88.564161 Z-0.125000
G01 X117.065525 Y89.059891 Z-0.125000
G03 X117.165025 Y89.840235 Z-0.125000 I-1.133665 J0.541067
G03 X116.810362 Y90.526926 Z-0.125000 I-1.351240 J-0.262955
G03 X116.175256 Y90.943447 Z-0.125000 I-1.210851 J-1.153829
G03 X115.862416 Y91.023962 Z-0.125000 I-0.558037 J-1.520208
G03 X115.541991 Y91.028965 Z-0.125000 I-0.178437 J-1.164892
G03 X114.592358 Y90.666219 Z-0.125000 I0.252740 J-2.086043
G03 X113.798754 Y88.764717 Z-0.125000 I1.098896 J-1.574990
G03 X113.965366 Y88.166072 Z-0.125000 I3.036498 J0.522592
G01 X114.357259 Y87.772587 Z-0.125000
G02 X113.804525 Y87.892037 Z-0.125000 I-0.053749 J1.089855
G02 X113.371594 Y88.279304 Z-0.125000 I0.526848 J1.024593
G02 X113.176114 Y88.832711 Z-0.125000 I1.000471 J0.664625
G02 X113.265757 Y89.415993 Z-0.125000 I1.210177 J0.112541
G01 X112.809598 Y88.969946 Z-0.125000
G03 X112.714582 Y88.292390 Z-0.125000 I1.162162 J-0.508414
G03 X112.945073 Y87.662899 Z-0.125000 I1.545482 J0.208941
G03 X113.366903 Y87.143528 Z-0.125000 I2.468428 J1.573857
G03 X113.798172 Y86.805789 Z-0.125000 I1.761237 J1.804755
G03 X114.298330 Y86.649898 Z-0.125000 I0.551065 J0.887731
G03 X114.980348 Y86.829944 Z-0.125000 I0.057265 J1.164850
G02 X115.624374 Y87.205917 Z-0.125000 I5.412216 J-8.531330
G02 X116.460432 Y87.507330 Z-0.125000 I1.450809 J-2.714010
G02 X117.336241 Y87.598204 Z-0.125000 I0.901379 J-4.421366
G02 X118.690244 Y87.534434 Z-0.125000 I0.415625 J-5.581589
G02 X119.692220 Y87.078096 Z-0.125000 I-0.360481 J-2.119687
G03 X119.210504 Y87.674607 Z-0.125000 I-1.873746 J-1.020395
G03 X118.546480 Y88.102790 Z-0.125000 I-1.872775 J-2.175313
G00 Z5.000000

(End cutting path id: path1072)


(Start cutting path id: path1056)
(ZZZanette)
(Change tool to Default tool)

G00 Z5.000000
G00 X119.454930 Y103.044170

G01 Z-0.125000 F100.0(Penetrate)
G01 X119.819865 Y103.805823 Z-0.125000 F400.000000
G01 X120.632919 Y103.915784 Z-0.125000
G01 X121.208296 Y103.311955 Z-0.125000
G02 X121.123406 Y102.443718 Z-0.125000 I-1.050555 J-0.335553
G02 X120.453608 Y101.873502 Z-0.125000 I-1.089090 J0.600795
G02 X119.568976 Y101.672231 Z-0.125000 I-1.276041 J3.563768
G02 X118.989904 Y101.683713 Z-0.125000 I-0.243018 J2.351733
G02 X118.437602 Y101.860005 Z-0.125000 I0.248835 J1.732868
G02 X117.872899 Y102.407406 Z-0.125000 I0.622653 J1.207311
G02 X117.814012 Y104.429500 Z-0.125000 I1.921366 J1.067857
G01 X117.287876 Y105.091471 Z-0.125000
G02 X117.549273 Y105.965475 Z-0.125000 I1.097133 J0.147962
G02 X118.314069 Y106.373212 Z-0.125000 I0.913654 J-0.792615
G02 X119.191949 Y106.259767 Z-0.125000 I0.218540 J-1.762258
G02 X119.553002 Y106.087968 Z-0.125000 I-1.180388 J-2.946008
G03 X119.914633 Y105.916782 Z-0.125000 I1.495027 J2.690676
G03 X120.765307 Y105.792082 Z-0.125000 I0.690071 J1.743609
G03 X121.559362 Y106.106078 Z-0.125000 I-0.127526 J1.483528
G03 X122.044307 Y106.834386 Z-0.125000 I-0.874085 J1.107616
G03 X121.963068 Y107.704137 Z-0.125000 I-1.177617 J0.328675
G03 X121.300524 Y108.253410 Z-0.125000 I-0.947109 J-0.468200
G01 X120.497471 Y108.080295 Z-0.125000
G02 X120.902257 Y107.994334 Z-0.125000 I-0.088975 J-1.415025
G01 X121.251818 Y107.768352 Z-0.125000
G01 X121.436876 Y107.408763 Z-0.125000
G02 X121.449127 Y106.981648 Z-0.125000 I-1.483170 J-0.256275
G01 X121.103030 Y106.446551 Z-0.125000
G02 X120.057704 Y106.366588 Z-0.125000 I-0.603277 J1.013855
G02 X119.850450 Y106.472311 Z-0.125000 I0.506534 J1.248990
G01 X119.675400 Y106.628011 Z-0.125000
G02 X119.428340 Y107.267581 Z-0.125000 I0.891093 J0.711725
G02 X119.592724 Y107.936953 Z-0.125000 I1.148537 J0.072813
G02 X120.106766 Y108.379552 Z-0.125000 I0.935701 J-0.566931
G02 X120.764850 Y108.426323 Z-0.125000 I0.398514 J-0.954118
G02 X120.699083 Y109.287755 Z-0.125000 I1.447136 J0.543709
G02 X121.102591 Y110.036556 Z-0.125000 I1.469059 J-0.308515
G02 X121.841859 Y110.431486 Z-0.125000 I1.010239 J-1.001679
G02 X122.663178 Y110.339673 Z-0.125000 I0.263799 J-1.359644
G02 X123.261812 Y111.273517 Z-0.125000 I2.027081 J-0.640649
G02 X124.220246 Y111.751784 Z-0.125000 I1.330188 J-1.466188
G02 X125.282402 Y111.657321 Z-0.125000 I0.365333 J-1.910875
G02 X126.159619 Y111.007991 Z-0.125000 I-0.730406 J-1.903955
G02 X128.112843 Y110.585940 Z-0.125000 I0.709557 J-1.446941
G02 X128.255256 Y109.313457 Z-0.125000 I-0.904575 J-0.745448
G02 X127.798360 Y108.841386 Z-0.125000 I-0.983753 J0.494988
G01 X127.186915 Y108.790915 Z-0.125000
G01 X126.851279 Y109.101873 Z-0.125000
G01 X126.809302 Y109.588576 Z-0.125000
G01 X127.046138 Y110.003706 Z-0.125000
G02 X127.445205 Y110.255981 Z-0.125000 I0.797774 J-0.820202
G01 X126.781773 Y110.436881 Z-0.125000
G01 X126.179555 Y110.069424 Z-0.125000
G03 X125.975578 Y109.379445 Z-0.125000 I0.846847 J-0.625491
G03 X126.242295 Y108.704484 Z-0.125000 I1.168930 J0.071736
G03 X126.838846 Y108.320294 Z-0.125000 I0.906437 J0.752226
G03 X127.541660 Y108.327110 Z-0.125000 I0.339371 J1.244543
G03 X128.147485 Y108.686836 Z-0.125000 I-0.403148 J1.368959
G03 X128.549020 Y109.300067 Z-0.125000 I-1.268054 J1.268379
G03 X128.770558 Y109.953727 Z-0.125000 I-6.969339 J2.726414
G01 X129.172610 Y110.411800 Z-0.125000
G01 X129.742279 Y110.354221 Z-0.125000
G01 X130.113712 Y109.835999 Z-0.125000
G02 X130.845390 Y110.112375 Z-0.125000 I0.739105 J-0.849997
G02 X131.579895 Y109.845738 Z-0.125000 I0.007415 J-1.124565
G02 X131.982895 Y109.155779 Z-0.125000 I-0.774051 J-0.914791
G02 X131.865157 Y108.352674 Z-0.125000 I-1.214940 J-0.232069
G02 X132.998174 Y106.505674 Z-0.125000 I-0.200613 J-1.394080
G01 X131.989758 Y105.996213 Z-0.125000
G02 X131.489252 Y106.191022 Z-0.125000 I1.257293 J3.970612
G01 X131.151562 Y106.571709 Z-0.125000
G01 X131.197392 Y107.052929 Z-0.125000
G01 X131.574031 Y107.304851 Z-0.125000
G01 X131.993317 Y107.126552 Z-0.125000
G01 X132.049273 Y106.664227 Z-0.125000
G01 X132.424501 Y106.738529 Z-0.125000
G01 X132.600741 Y107.128033 Z-0.125000
G01 X132.484886 Y107.530512 Z-0.125000
G03 X132.195276 Y107.838349 Z-0.125000 I-1.048175 J-0.695965
G03 X131.797054 Y108.043910 Z-0.125000 I-0.793156 J-1.048029
G01 X131.365875 Y108.050774 Z-0.125000
G01 X131.035864 Y107.860576 Z-0.125000
G03 X130.790660 Y107.545884 Z-0.125000 I1.013349 J-1.042466
G03 X130.540754 Y106.663110 Z-0.125000 I1.611182 J-0.932871
G03 X130.742578 Y105.766441 Z-0.125000 I1.869236 J-0.050317
G01 X131.260375 Y105.375051 Z-0.125000
G03 X131.945195 Y105.395457 Z-0.125000 I0.297517 J1.516799
G03 X132.563745 Y105.676697 Z-0.125000 I-0.493974 J1.907261
G03 X133.133152 Y106.078383 Z-0.125000 I-13.731101 J20.068835
G02 X133.823846 Y106.532764 Z-0.125000 I5.176534 J-7.116590
G02 X134.567673 Y106.864479 Z-0.125000 I1.802724 J-3.042545
G02 X135.373009 Y106.987690 Z-0.125000 I0.805555 J-2.571760
G02 X136.161095 Y106.812742 Z-0.125000 I0.000151 J-1.861839
G02 X136.748821 Y106.414211 Z-0.125000 I-0.945487 J-2.026971
G03 X137.283674 Y105.922260 Z-0.125000 I21.383853 J22.711984
G03 X138.011565 Y105.321805 Z-0.125000 I7.341150 J8.157770
G03 X139.198713 Y104.721052 Z-0.125000 I2.260564 J2.993762
G02 X138.283964 Y104.915965 Z-0.125000 I-0.025001 J2.126635
G02 X136.755660 Y105.749398 Z-0.125000 I5.389126 J11.700266
G03 X135.956353 Y106.070264 Z-0.125000 I-1.257791 J-1.977266
G03 X135.097445 Y106.169988 Z-0.125000 I-1.041190 J-5.218932
G03 X134.078562 Y105.995344 Z-0.125000 I-0.087873 J-2.546776
G03 X133.164816 Y105.460889 Z-0.125000 I1.250650 J-3.186546
G02 X132.146910 Y104.826206 Z-0.125000 I-3.007857 J3.690404
G02 X131.041327 Y104.433761 Z-0.125000 I-2.724133 J5.920807
G02 X129.951334 Y104.476098 Z-0.125000 I-0.473900 J1.851601
G02 X128.957710 Y105.022952 Z-0.125000 I1.050401 J3.084683
G01 X129.341768 Y105.404027 Z-0.125000
G03 X129.488363 Y105.959389 Z-0.125000 I-1.219766 J0.619001
G03 X129.409405 Y106.516425 Z-0.125000 I-1.508665 J0.070267
G03 X129.166746 Y107.023646 Z-0.125000 I-2.259340 J-0.769232
G03 X128.194698 Y107.869044 Z-0.125000 I-1.898943 J-1.201891
G03 X127.018924 Y107.814306 Z-0.125000 I-0.534228 J-1.179982
G02 X126.895346 Y107.749013 Z-0.125000 I-1.106365 J1.944379
G01 X126.766204 Y107.737006 Z-0.125000
G01 X126.667093 Y107.804477 Z-0.125000
G02 X126.593523 Y107.911693 Z-0.125000 I1.205625 J0.906125
G03 X125.938996 Y108.565969 Z-0.125000 I-1.743648 J-1.089790
G03 X125.084242 Y108.832913 Z-0.125000 I-0.938329 J-1.502594
G03 X124.210381 Y108.635841 Z-0.125000 I-0.078839 J-1.686387
G03 X123.552973 Y107.995994 Z-0.125000 I0.777498 J-1.456487
G03 X123.437784 Y107.697829 Z-0.125000 I0.928750 J-0.530133
G01 X123.289406 Y107.429932 Z-0.125000
G02 X123.076079 Y107.267351 Z-0.125000 I-0.746585 J0.758367
G03 X122.286737 Y106.335546 Z-0.125000 I0.909445 J-1.570633
G01 X122.257733 Y105.744456 Z-0.125000
G03 X122.526557 Y105.204335 Z-0.125000 I1.469917 J0.394634
G01 X123.129508 Y104.900296 Z-0.125000
G03 X123.837649 Y105.025082 Z-0.125000 I0.044195 J1.820878
G03 X125.796397 Y102.970364 Z-0.125000 I5.022954 J2.827356
G03 X128.425592 Y102.173165 Z-0.125000 I2.777009 J4.424495
G01 X127.330279 Y102.167383 Z-0.125000
G02 X126.453552 Y102.185337 Z-0.125000 I-0.088992 J17.068873
G02 X125.593492 Y102.335071 Z-0.125000 I0.160042 J3.464199
G02 X124.267534 Y103.044431 Z-0.125000 I1.156623 J3.755938
G03 X123.008834 Y103.928870 Z-0.125000 I-6.826645 J-8.377534
G03 X122.226990 Y104.318225 Z-0.125000 I-2.848558 J-4.740376
G03 X121.400166 Y104.577102 Z-0.125000 I-2.036807 J-5.055500
G03 X120.506795 Y104.663142 Z-0.125000 I-0.782288 J-3.441605
G03 X119.675107 Y104.387197 Z-0.125000 I0.048406 J-1.537207
G03 X119.247578 Y103.745442 Z-0.125000 I0.603094 J-0.865057
G01 X119.454930 Y103.044170 Z-0.125000
G00 Z5.000000

(End cutting path id: path1056)


(Start cutting path id: path1060)
(ZZZanette)
(Change tool to Default tool)

G00 Z5.000000
G00 X123.925880 Y105.453440

G01 Z-0.125000 F100.0(Penetrate)
G02 X123.625582 Y105.314724 Z-0.125000 I-1.226074 J2.259846 F400.000000
G02 X123.311965 Y105.216364 Z-0.125000 I-0.918969 J2.380928
G02 X123.187468 Y105.192515 Z-0.125000 I-0.293447 J1.195006
G01 X123.062471 Y105.195060 Z-0.125000
G01 X122.919922 Y105.251419 Z-0.125000
G01 X122.796851 Y105.350879 Z-0.125000
G01 X122.512769 Y105.899809 Z-0.125000
G02 X122.597783 Y106.520741 Z-0.125000 I1.029890 J0.175279
G01 X123.021171 Y106.970924 Z-0.125000
G01 X123.609834 Y107.075542 Z-0.125000
G01 X123.671513 Y107.553476 Z-0.125000
G02 X123.952852 Y107.952329 Z-0.125000 I1.225257 J-0.565609
G02 X124.636915 Y108.349838 Z-0.125000 I1.126723 J-1.151604
G02 X125.414052 Y108.369876 Z-0.125000 I0.427393 J-1.495682
G02 X126.108429 Y108.012199 Z-0.125000 I-0.357769 J-1.547409
G02 X126.567707 Y107.349139 Z-0.125000 I-1.119816 J-1.266251
G02 X127.484328 Y107.708369 Z-0.125000 I0.989517 J-1.175824
G02 X128.434959 Y107.449873 Z-0.125000 I0.075892 J-1.598146
G02 X129.056990 Y106.686598 Z-0.125000 I-0.886346 J-1.357427
G02 X129.133016 Y105.677734 Z-0.125000 I-1.592548 J-0.627307
G02 X129.056705 Y105.437325 Z-0.125000 I-1.499827 J0.343755
G02 X128.936293 Y105.219711 Z-0.125000 I-0.994105 J0.407948
G01 X128.596426 Y104.922890 Z-0.125000
G01 X128.170512 Y104.814947 Z-0.125000
G01 X127.742248 Y104.914382 Z-0.125000
G01 X127.397108 Y105.204495 Z-0.125000
G01 X127.276315 Y105.426039 Z-0.125000
G01 X127.234981 Y105.675908 Z-0.125000
G01 X127.300968 Y105.922867 Z-0.125000
G01 X127.472748 Y106.096194 Z-0.125000
G01 X127.754423 Y106.134213 Z-0.125000
G01 X128.008384 Y105.986329 Z-0.125000
G01 X128.147462 Y105.725294 Z-0.125000
G01 X128.159958 Y105.420876 Z-0.125000
G01 X128.322817 Y105.621822 Z-0.125000
G03 X128.334985 Y105.923941 Z-0.125000 I-1.092764 J0.195314
G01 X128.268719 Y106.193467 Z-0.125000
G01 X128.120965 Y106.420310 Z-0.125000
G01 X127.895092 Y106.569003 Z-0.125000
G01 X127.633703 Y106.594085 Z-0.125000
G01 X127.483724 Y106.544156 Z-0.125000
G03 X127.345509 Y106.460178 Z-0.125000 I0.479083 J-0.944227
G03 X127.173458 Y106.311197 Z-0.125000 I0.753268 J-1.043749
G03 X127.031515 Y106.129367 Z-0.125000 I0.785171 J-0.759247
G03 X126.871311 Y105.439929 Z-0.125000 I0.924758 J-0.578217
G03 X127.167257 Y104.803991 Z-0.125000 I1.066069 J0.109284
G01 X127.784061 Y104.502377 Z-0.125000
G01 X128.444340 Y104.667344 Z-0.125000
G03 X129.300163 Y104.151700 Z-0.125000 I1.591723 J1.673774
G03 X130.279928 Y103.988679 Z-0.125000 I0.996982 J2.966178
G03 X131.260757 Y104.121123 Z-0.125000 I0.021110 J3.541691
G03 X132.197606 Y104.477440 Z-0.125000 I-1.527244 J5.425293
G03 X133.842814 Y105.376881 Z-0.125000 I-8.581819 J17.651773
G02 X135.568567 Y105.793077 Z-0.125000 I1.509305 J-2.472310
G02 X137.049911 Y105.283829 Z-0.125000 I-0.230908 J-3.080835
G03 X138.490966 Y104.554741 Z-0.125000 I3.768475 J5.659777
G03 X139.198718 Y104.402435 Z-0.125000 I0.905037 J2.485043
G03 X139.887959 Y104.547741 Z-0.125000 I0.094267 J1.260176
G02 X138.978459 Y104.034731 Z-0.125000 I-1.233103 J1.123414
G02 X137.918976 Y104.030373 Z-0.125000 I-0.541005 J2.735802
G02 X136.910606 Y104.347766 Z-0.125000 I0.840928 J4.432171
G03 X135.927124 Y104.764731 Z-0.125000 I-10.240917 J-22.786547
G03 X135.333980 Y104.951244 Z-0.125000 I-1.544865 J-3.876536
G03 X134.729785 Y104.947028 Z-0.125000 I-0.293372 J-1.252452
G03 X134.271645 Y104.735362 Z-0.125000 I0.325933 J-1.307108
G03 X133.858459 Y104.419312 Z-0.125000 I4.768637 J-6.662355
G02 X132.402920 Y103.340901 Z-0.125000 I-12.057027 J14.751983
G02 X130.807062 Y102.558307 Z-0.125000 I-3.696978 J5.520416
G02 X128.811836 Y102.273247 Z-0.125000 I-1.782623 J5.351992
G02 X126.840070 Y102.708040 Z-0.125000 I0.213306 J5.655659
G02 X125.162068 Y103.805437 Z-0.125000 I2.129116 J5.087170
G02 X123.925880 Y105.453440 Z-0.125000 I4.322913 J4.530314
G00 Z5.000000

(End cutting path id: path1060)


(Start cutting path id: path1064)
(ZZZanette)
(Change tool to Default tool)

G00 Z5.000000
G00 X137.104600 Y106.985070

G01 Z-0.125000 F100.0(Penetrate)
G03 X136.821078 Y107.310574 Z-0.125000 I-1.849534 J-1.324761 F400.000000
G03 X136.466645 Y107.546263 Z-0.125000 I-0.854064 J-0.900013
G03 X136.076853 Y107.687900 Z-0.125000 I-1.271648 J-2.892436
G01 X135.757154 Y107.924854 Z-0.125000
G01 X135.681735 Y108.290223 Z-0.125000
G01 X135.838950 Y108.644301 Z-0.125000
G01 X136.070283 Y108.826095 Z-0.125000
G01 X136.335301 Y108.811685 Z-0.125000
G01 X136.492140 Y108.538894 Z-0.125000
G02 X136.452572 Y108.172887 Z-0.125000 I-1.576536 J-0.014706
G03 X136.405221 Y108.309099 Z-0.125000 I-1.353813 J-0.394288
G01 X136.331196 Y108.428223 Z-0.125000
G01 X136.215256 Y108.507710 Z-0.125000
G01 X136.081995 Y108.506437 Z-0.125000
G01 X136.009155 Y108.455217 Z-0.125000
G01 X135.957687 Y108.378008 Z-0.125000
G01 X135.967215 Y107.979127 Z-0.125000
G01 X136.286340 Y107.745602 Z-0.125000
G01 X136.662756 Y107.825515 Z-0.125000
G01 X136.904653 Y108.156453 Z-0.125000
G01 X136.914848 Y108.565738 Z-0.125000
G01 X136.726107 Y108.930679 Z-0.125000
G01 X136.602138 Y109.052273 Z-0.125000
G01 X136.456676 Y109.140670 Z-0.125000
G03 X135.928962 Y109.228182 Z-0.125000 I-0.436764 J-0.998910
G01 X135.088414 Y108.570348 Z-0.125000
G03 X135.015453 Y108.252140 Z-0.125000 I1.527848 J-0.517788
G01 X135.096623 Y107.963505 Z-0.125000
G01 X134.872408 Y108.167226 Z-0.125000
G01 X134.770609 Y108.462613 Z-0.125000
G01 X134.820357 Y108.771705 Z-0.125000
G01 X135.006618 Y109.013763 Z-0.125000
G01 X134.685609 Y108.930763 Z-0.125000
G01 X134.472154 Y108.645822 Z-0.125000
G01 X134.419910 Y108.296389 Z-0.125000
G03 X134.484174 Y107.941897 Z-0.125000 I1.604279 J0.107763
G03 X134.597772 Y107.669957 Z-0.125000 I1.340380 J0.400223
G01 X134.788493 Y107.463788 Z-0.125000
G01 X135.149057 Y107.362680 Z-0.125000
G02 X135.536977 Y107.361227 Z-0.125000 I0.174230 J-5.268961
G02 X135.994970 Y107.275082 Z-0.125000 I-0.063510 J-1.598187
G02 X136.422081 Y107.080022 Z-0.125000 I-0.796259 J-2.308668
G02 X137.028966 Y106.684581 Z-0.125000 I-1.343823 J-2.725783
G02 X137.374617 Y106.205061 Z-0.125000 I-0.768991 J-0.918646
G03 X137.302933 Y106.608438 Z-0.125000 I-1.170768 J-0.000000
G03 X137.104600 Y106.985070 Z-0.125000 I-1.507279 J-0.553189
G00 Z5.000000

(End cutting path id: path1064)


(Start cutting path id: path1036)
(ZZZanette)
(Change tool to Default tool)

G00 Z5.000000
G00 X146.171360 Y95.904340

G01 Z-0.125000 F100.0(Penetrate)
G02 X145.763577 Y95.716027 Z-0.125000 I-1.679881 J3.102029 F400.000000
G02 X145.337268 Y95.582050 Z-0.125000 I-1.251644 J3.237438
G02 X145.168016 Y95.549876 Z-0.125000 I-0.402015 J1.653548
G01 X144.998061 Y95.553443 Z-0.125000
G01 X144.804192 Y95.630010 Z-0.125000
G02 X144.637452 Y95.764955 Z-0.125000 I0.560491 J0.863032
G02 X144.251449 Y96.511190 Z-0.125000 I0.976598 J0.978114
G02 X144.366849 Y97.354493 Z-0.125000 I1.399103 J0.238090
G02 X144.942171 Y97.965951 Z-0.125000 I1.227817 J-0.578865
G02 X145.741854 Y98.108025 Z-0.125000 I0.610244 J-1.113247
G02 X145.825818 Y98.757684 Z-0.125000 I1.077231 J0.191031
G02 X146.208007 Y99.299494 Z-0.125000 I1.665057 J-0.768819
G02 X147.137347 Y99.839655 Z-0.125000 I1.528943 J-1.560987
G02 X148.193116 Y99.866773 Z-0.125000 I0.580481 J-2.034140
G02 X149.136387 Y99.380972 Z-0.125000 I-0.484670 J-2.099738
G02 X149.760446 Y98.479617 Z-0.125000 I-1.522532 J-1.720849
G02 X151.006275 Y98.967941 Z-0.125000 I1.345064 J-1.598213
G02 X152.297609 Y98.616872 Z-0.125000 I0.103240 J-2.170740
G02 X153.142787 Y97.579797 Z-0.125000 I-1.203162 J-1.843466
G02 X153.246040 Y96.208979 Z-0.125000 I-2.165164 J-0.852382
G02 X153.142300 Y95.882590 Z-0.125000 I-2.036690 J0.467662
G02 X152.978661 Y95.586919 Z-0.125000 I-1.353766 J0.556123
G02 X152.516831 Y95.183586 Z-0.125000 I-1.085697 J0.777088
G02 X151.937879 Y95.036987 Z-0.125000 I-0.591363 J1.118921
G02 X151.356197 Y95.172232 Z-0.125000 I-0.012408 J1.265154
G02 X150.887422 Y95.566225 Z-0.125000 I0.598567 J1.188051
G02 X150.723284 Y95.867015 Z-0.125000 I0.977565 J0.728626
G01 X150.667246 Y96.206848 Z-0.125000
G01 X150.756589 Y96.542215 Z-0.125000
G01 X150.990328 Y96.777780 Z-0.125000
G01 X151.372848 Y96.829503 Z-0.125000
G01 X151.717996 Y96.628351 Z-0.125000
G01 X151.906832 Y96.274036 Z-0.125000
G02 X151.924100 Y95.860212 Z-0.125000 I-1.047082 J-0.250964
G01 X152.145401 Y96.133038 Z-0.125000
G03 X152.161867 Y96.543442 Z-0.125000 I-1.487086 J0.265198
G03 X152.071607 Y96.909998 Z-0.125000 I-1.284715 J-0.121955
G01 X151.870448 Y97.218151 Z-0.125000
G01 X151.563872 Y97.420205 Z-0.125000
G01 X151.209332 Y97.454010 Z-0.125000
G01 X151.004923 Y97.386053 Z-0.125000
G03 X150.817646 Y97.272019 Z-0.125000 I0.632100 J-1.248887
G03 X150.583754 Y97.069761 Z-0.125000 I1.005441 J-1.399064
G03 X150.390779 Y96.822821 Z-0.125000 I1.079531 J-1.042488
G03 X150.173104 Y95.886384 Z-0.125000 I1.256884 J-0.785680
G03 X150.575188 Y95.021770 Z-0.125000 I1.449260 J0.148170
G03 X151.413285 Y94.612170 Z-0.125000 I0.983319 J0.949774
G03 X152.310215 Y94.836431 Z-0.125000 I0.142645 J1.335256
G03 X153.473175 Y94.135658 Z-0.125000 I2.163036 J2.274269
G03 X154.804281 Y93.913993 Z-0.125000 I1.355511 J4.032395
G03 X156.136549 Y94.094163 Z-0.125000 I0.026051 J4.823180
G03 X157.409461 Y94.578355 Z-0.125000 I-2.069242 J7.355219
G03 X159.644788 Y95.800413 Z-0.125000 I-11.689502 J24.037245
G02 X161.989489 Y96.366015 Z-0.125000 I2.051331 J-3.361011
G02 X164.002505 Y95.673956 Z-0.125000 I-0.313360 J-4.185174
G03 X165.960000 Y94.683655 Z-0.125000 I5.113878 J7.678623
G03 X166.921642 Y94.476486 Z-0.125000 I1.229389 J3.371135
G03 X167.858034 Y94.673916 Z-0.125000 I0.128087 J1.711818
G02 X166.622202 Y93.976782 Z-0.125000 I-1.675775 J1.526734
G02 X165.183078 Y93.970904 Z-0.125000 I-0.734744 J3.714058
G02 X163.812952 Y94.401978 Z-0.125000 I1.142885 J6.025480
G03 X162.476458 Y94.968512 Z-0.125000 I-13.993722 J-31.152506
G03 X161.670839 Y95.222084 Z-0.125000 I-2.086602 J-5.222752
G03 X160.849613 Y95.216240 Z-0.125000 I-0.398510 J-1.703668
G03 X160.227372 Y94.928844 Z-0.125000 I0.440812 J-1.771705
G03 X159.666053 Y94.499228 Z-0.125000 I6.482010 J-9.050646
G02 X157.688745 Y93.034243 Z-0.125000 I-16.369106 J20.026691
G02 X155.520515 Y91.971123 Z-0.125000 I-5.021547 J7.498817
G02 X152.809879 Y91.583647 Z-0.125000 I-2.422241 J7.270052
G02 X150.130730 Y92.174418 Z-0.125000 I0.289336 J7.682500
G02 X147.850677 Y93.665393 Z-0.125000 I2.891363 J6.910437
G02 X146.171360 Y95.904340 Z-0.125000 I5.871618 J6.153249
G00 Z5.000000

(End cutting path id: path1036)


(Start cutting path id: path1032)
(ZZZanette)
(Change tool to Default tool)

G00 Z5.000000
G00 X140.096810 Y92.631100

G01 Z-0.125000 F100.0(Penetrate)
G02 X140.592933 Y93.666038 Z-0.125000 I1.200376 J0.060954 F400.000000
G02 X141.697269 Y93.815265 Z-0.125000 I0.691475 J-0.956312
G02 X142.479127 Y92.995053 Z-0.125000 I-0.453112 J-1.214678
G02 X142.363663 Y91.815180 Z-0.125000 I-1.427325 J-0.455907
G02 X141.453873 Y91.040688 Z-0.125000 I-1.480648 J0.817698
G02 X140.251315 Y90.767052 Z-0.125000 I-1.730969 J4.827878
G02 X139.465137 Y90.782587 Z-0.125000 I-0.330091 J3.195890
G02 X138.714769 Y91.022084 Z-0.125000 I0.337299 J2.352031
G02 X137.947310 Y91.766144 Z-0.125000 I0.846795 J1.641251
G02 X137.867484 Y94.513408 Z-0.125000 I2.610016 J1.450630
G02 X137.152594 Y95.412700 Z-0.125000 I0.396563 J1.049043
G02 X137.507461 Y96.600228 Z-0.125000 I1.491795 J0.200996
G02 X138.546841 Y97.153972 Z-0.125000 I1.241332 J-1.077655
G02 X139.739133 Y96.999819 Z-0.125000 I0.296469 J-2.394926
G02 X140.230101 Y96.766563 Z-0.125000 I-1.580496 J-3.960031
G03 X140.721572 Y96.534188 Z-0.125000 I2.013110 J3.621792
G03 X141.877298 Y96.364574 Z-0.125000 I0.938142 J2.370091
G03 X142.956176 Y96.791046 Z-0.125000 I-0.172588 J2.014503
G03 X143.614968 Y97.780678 Z-0.125000 I-1.188023 J1.504953
G03 X143.504419 Y98.962167 Z-0.125000 I-1.599347 J0.446270
G03 X142.604253 Y99.708433 Z-0.125000 I-1.286966 J-0.636338
G03 X141.513153 Y99.473449 Z-0.125000 I-0.322550 J-1.152944
G02 X142.063380 Y99.356477 Z-0.125000 I-0.121940 J-1.926199
G02 X142.538104 Y99.049816 Z-0.125000 I-0.455382 J-1.225724
G01 X142.789541 Y98.561076 Z-0.125000
G02 X142.806068 Y97.980385 Z-0.125000 I-2.008599 J-0.347749
G01 X142.336075 Y97.253749 Z-0.125000
G02 X140.915656 Y97.145291 Z-0.125000 I-0.819539 J1.377602
G02 X140.634169 Y97.288798 Z-0.125000 I0.687812 J1.696958
G01 X140.396438 Y97.500449 Z-0.125000
G02 X140.060700 Y98.369298 Z-0.125000 I1.208742 J0.966370
G02 X140.284151 Y99.278371 Z-0.125000 I1.560157 J0.098511
G02 X140.982296 Y99.879642 Z-0.125000 I1.271353 J-0.770238
G02 X141.876401 Y99.943646 Z-0.125000 I0.542213 J-1.297348
G02 X141.787182 Y101.113934 Z-0.125000 I1.968423 J0.738611
G02 X142.335518 Y102.131201 Z-0.125000 I1.993759 J-0.418276
G02 X143.339902 Y102.667724 Z-0.125000 I1.373248 J-1.362376
G02 X144.455781 Y102.542965 Z-0.125000 I0.358548 J-1.845794
G02 X145.269129 Y103.811863 Z-0.125000 I2.752386 J-0.869122
G02 X146.571354 Y104.461489 Z-0.125000 I1.807197 J-1.992650
G02 X148.014133 Y104.333245 Z-0.125000 I0.496320 J-2.596218
G02 X149.206146 Y103.451099 Z-0.125000 I-0.992128 J-2.587060
G02 X151.859552 Y102.877891 Z-0.125000 I0.964041 J-1.965384
G02 X152.053198 Y101.148505 Z-0.125000 I-1.229496 J-1.013206
G02 X151.432534 Y100.507418 Z-0.125000 I-1.336187 J0.672631
G02 X150.601966 Y100.438797 Z-0.125000 I-0.492884 J0.904948
G01 X150.146036 Y100.861372 Z-0.125000
G02 X150.088905 Y101.522532 Z-0.125000 I0.957422 J0.415780
G02 X150.410626 Y102.086697 Z-0.125000 I1.137697 J-0.274969
G02 X150.952607 Y102.429448 Z-0.125000 I1.085005 J-1.115799
G03 X150.051607 Y102.675223 Z-0.125000 I-0.720676 J-0.867570
G03 X149.232825 Y102.175634 Z-0.125000 I0.203022 J-1.253485
G03 X148.956005 Y101.238605 Z-0.125000 I1.150392 J-0.849255
G03 X149.318726 Y100.321324 Z-0.125000 I1.588221 J0.097675
G03 X150.129231 Y99.799445 Z-0.125000 I1.231079 J1.021610
G03 X151.083658 Y99.808825 Z-0.125000 I0.460645 J1.690545
G03 X151.906752 Y100.297431 Z-0.125000 I-0.546884 J1.858853
G03 X152.452213 Y101.130549 Z-0.125000 I-1.722623 J1.722961
G03 X152.753701 Y102.019086 Z-0.125000 I-9.315115 J3.656110
G01 X153.299498 Y102.640961 Z-0.125000
G01 X154.073742 Y102.562911 Z-0.125000
G02 X154.578340 Y101.858517 Z-0.125000 I-0.750838 J-1.070803
G02 X155.572062 Y102.234100 Z-0.125000 I1.004168 J-1.154449
G02 X156.570485 Y101.871908 Z-0.125000 I0.010436 J-1.528462
G02 X157.117999 Y100.934441 Z-0.125000 I-1.051555 J-1.242762
G02 X156.958067 Y99.843215 Z-0.125000 I-1.651444 J-0.315294
G02 X158.497582 Y97.334153 Z-0.125000 I-0.272311 J-1.893926
G02 X157.127230 Y96.641618 Z-0.125000 I-1.038324 J0.352524
G02 X156.447364 Y96.906540 Z-0.125000 I1.736401 J5.460931
G01 X155.988527 Y97.423757 Z-0.125000
G01 X156.050658 Y98.077625 Z-0.125000
G01 X156.562569 Y98.419843 Z-0.125000
G01 X157.132218 Y98.177546 Z-0.125000
G01 X157.208147 Y97.549447 Z-0.125000
G01 X157.717923 Y97.650213 Z-0.125000
G01 X157.957217 Y98.179419 Z-0.125000
G01 X157.799890 Y98.726272 Z-0.125000
G03 X157.406336 Y99.144464 Z-0.125000 I-1.426380 J-0.948067
G03 X156.865568 Y99.423858 Z-0.125000 I-1.080024 J-1.427360
G03 X156.279359 Y99.433277 Z-0.125000 I-0.308887 J-0.977633
G03 X155.831197 Y99.175050 Z-0.125000 I0.284885 J-1.012445
G03 X155.497747 Y98.747612 Z-0.125000 I1.381948 J-1.421858
G03 X155.158390 Y97.548182 Z-0.125000 I2.190299 J-1.267427
G03 X155.432661 Y96.329371 Z-0.125000 I2.541630 J-0.068319
G01 X156.135950 Y95.797672 Z-0.125000
G03 X157.066542 Y95.825698 Z-0.125000 I0.403733 J2.058210
G03 X157.907103 Y96.207731 Z-0.125000 I-0.671089 J2.592279
G03 X158.680781 Y96.753613 Z-0.125000 I-18.312804 J26.775911
G02 X159.619195 Y97.370866 Z-0.125000 I7.031357 J-9.667862
G02 X160.629829 Y97.821218 Z-0.125000 I2.444265 J-4.126010
G02 X161.723786 Y97.988846 Z-0.125000 I1.093962 J-3.485843
G02 X162.794655 Y97.751221 Z-0.125000 I0.000003 J-2.531760
G02 X163.593165 Y97.209498 Z-0.125000 I-1.286385 J-2.755527
G03 X164.319474 Y96.541188 Z-0.125000 I29.206642 J31.012492
G03 X165.308795 Y95.725448 Z-0.125000 I10.002645 J11.123314
G03 X166.921430 Y94.909347 Z-0.125000 I3.072279 J4.069543
G02 X165.678851 Y95.174173 Z-0.125000 I-0.033363 J2.890999
G02 X163.602361 Y96.306546 Z-0.125000 I7.306886 J15.869075
G03 X162.516599 Y96.742601 Z-0.125000 I-1.706857 J-2.680233
G03 X161.349581 Y96.878086 Z-0.125000 I-1.416446 J-7.106887
G03 X159.965198 Y96.640583 Z-0.125000 I-0.118048 J-3.465386
G03 X158.723585 Y95.914868 Z-0.125000 I1.700220 J-4.333858
G02 X157.340524 Y95.052079 Z-0.125000 I-4.083980 J5.006742
G02 X155.838420 Y94.519190 Z-0.125000 I-3.691712 J8.022681
G02 X154.358046 Y94.576494 Z-0.125000 I-0.644037 J2.512578
G02 X153.007492 Y95.319894 Z-0.125000 I1.428471 J4.193633
G03 X153.529798 Y95.837535 Z-0.125000 I-0.518358 J1.045355
G03 X153.728710 Y96.592011 Z-0.125000 I-1.657252 J0.840383
G03 X153.621416 Y97.348382 Z-0.125000 I-2.050331 J0.094949
G03 X153.291582 Y98.037904 Z-0.125000 I-3.071114 J-1.045426
G03 X151.971066 Y99.186305 Z-0.125000 I-2.579272 J-1.632422
G03 X150.373581 Y99.111900 Z-0.125000 I-0.725794 J-1.603412
G02 X150.205907 Y99.023237 Z-0.125000 I-1.480980 J2.597854
G01 X150.030562 Y99.006904 Z-0.125000
G01 X149.895483 Y99.098659 Z-0.125000
G02 X149.795433 Y99.243981 Z-0.125000 I1.619115 J1.221815
G03 X148.906139 Y100.133284 Z-0.125000 I-2.368462 J-1.479145
G03 X147.745239 Y100.495708 Z-0.125000 I-1.273750 J-2.039532
G03 X146.557972 Y100.228061 Z-0.125000 I-0.107585 J-2.289908
G03 X145.664261 Y99.358715 Z-0.125000 I1.058062 J-1.981767
G03 X145.508180 Y98.954017 Z-0.125000 I1.266227 J-0.720796
G01 X145.306584 Y98.589966 Z-0.125000
G02 X145.016617 Y98.368776 Z-0.125000 I-1.014993 J1.029934
G03 X143.944186 Y97.102684 Z-0.125000 I1.237493 J-2.135450
G03 X143.904915 Y96.299724 Z-0.125000 I1.230288 J-0.462610
G03 X144.269907 Y95.565796 Z-0.125000 I1.996810 J0.535317
G03 X145.089132 Y95.152790 Z-0.125000 I0.845314 J0.657742
G03 X146.051550 Y95.322329 Z-0.125000 I0.060284 J2.474229
G03 X148.712681 Y92.530872 Z-0.125000 I6.823398 J3.840659
G03 X152.284808 Y91.447848 Z-0.125000 I3.772930 J6.011750
G01 X150.796636 Y91.439935 Z-0.125000
G02 X149.605655 Y91.464164 Z-0.125000 I-0.124495 J23.163938
G02 X148.437139 Y91.667577 Z-0.125000 I0.216767 J4.703234
G02 X146.635420 Y92.631294 Z-0.125000 I1.571988 J5.104977
G03 X144.925159 Y93.832916 Z-0.125000 I-9.285327 J-11.397833
G03 X143.863122 Y94.361955 Z-0.125000 I-3.870903 J-6.440248
G03 X142.739810 Y94.713660 Z-0.125000 I-2.763635 J-6.857063
G03 X141.526034 Y94.830677 Z-0.125000 I-1.062962 J-4.672201
G03 X140.395852 Y94.455889 Z-0.125000 I0.065811 J-2.089896
G03 X139.815180 Y93.583563 Z-0.125000 I0.820151 J-1.175368
G03 X140.096810 Y92.631100 Z-0.125000 I1.011427 J-0.218804
G00 Z5.000000

(End cutting path id: path1032)


(Start cutting path id: path1040)
(ZZZanette)
(Change tool to Default tool)

G00 Z5.000000
G00 X164.076420 Y97.985360

G01 Z-0.125000 F100.0(Penetrate)
G03 X163.690980 Y98.427796 Z-0.125000 I-2.512542 J-1.799753 F400.000000
G03 X163.209786 Y98.747718 Z-0.125000 I-1.159655 J-1.222399
G03 X162.680264 Y98.940187 Z-0.125000 I-1.733115 J-3.943491
G01 X162.245816 Y99.262347 Z-0.125000
G01 X162.143116 Y99.758797 Z-0.125000
G02 X162.356638 Y100.239869 Z-0.125000 I1.057814 J-0.181585
G01 X162.671368 Y100.486848 Z-0.125000
G01 X163.031240 Y100.466902 Z-0.125000
G01 X163.244501 Y100.096487 Z-0.125000
G02 X163.190729 Y99.599549 Z-0.125000 I-2.131617 J-0.020724
G03 X163.126259 Y99.784071 Z-0.125000 I-1.908333 J-0.563228
G01 X163.025670 Y99.945882 Z-0.125000
G01 X162.868008 Y100.054186 Z-0.125000
G01 X162.687049 Y100.052399 Z-0.125000
G01 X162.587988 Y99.982704 Z-0.125000
G01 X162.518179 Y99.878015 Z-0.125000
G01 X162.531362 Y99.335748 Z-0.125000
G01 X162.964689 Y99.018575 Z-0.125000
G01 X163.476386 Y99.127485 Z-0.125000
G01 X163.804937 Y99.576724 Z-0.125000
G01 X163.818634 Y100.132968 Z-0.125000
G03 X163.562479 Y100.628504 Z-0.125000 I-1.229274 J-0.321468
G03 X163.393711 Y100.793874 Z-0.125000 I-0.943886 J-0.794477
G01 X163.196006 Y100.913969 Z-0.125000
G03 X162.478555 Y101.032927 Z-0.125000 I-0.593707 J-1.357733
G03 X161.336964 Y100.139438 Z-0.125000 I0.110367 J-1.317051
G03 X161.237963 Y99.706603 Z-0.125000 I2.103166 J-0.708789
G01 X161.348105 Y99.314997 Z-0.125000
G01 X161.043818 Y99.591457 Z-0.125000
G01 X160.905406 Y99.993054 Z-0.125000
G01 X160.972958 Y100.412896 Z-0.125000
G01 X161.225850 Y100.741412 Z-0.125000
G01 X160.790132 Y100.629079 Z-0.125000
G01 X160.499648 Y100.241695 Z-0.125000
G03 X160.428920 Y99.766827 Z-0.125000 I1.050802 J-0.399210
G03 X160.516066 Y99.285172 Z-0.125000 I2.191863 J0.147862
G03 X160.670393 Y98.915831 Z-0.125000 I1.821005 J0.543986
G01 X160.929740 Y98.635722 Z-0.125000
G01 X161.419558 Y98.498525 Z-0.125000
G02 X161.946775 Y98.496642 Z-0.125000 I0.238034 J-7.160210
G02 X162.568710 Y98.379410 Z-0.125000 I-0.086687 J-2.168253
G02 X163.149098 Y98.114093 Z-0.125000 I-1.085748 J-3.142567
G02 X163.973671 Y97.576947 Z-0.125000 I-1.825868 J-3.704361
G02 X164.443186 Y96.925668 Z-0.125000 I-1.043907 J-1.247444
G03 X164.345804 Y97.473824 Z-0.125000 I-1.591459 J0.000000
G03 X164.076420 Y97.985360 Z-0.125000 I-2.045302 J-0.750393
G00 Z5.000000

(End cutting path id: path1040)


(Start cutting path id: path8218)
(ZZZanette)
(Change tool to Default tool)

G00 Z5.000000
G00 X164.191572 Y122.365449

G01 Z-0.125000 F100.0(Penetrate)
G01 X152.745663 Y122.365449 Z-0.125000 F400.000000
G01 X152.745663 Y126.553772 Z-0.125000
G01 X155.948416 Y126.553772 Z-0.125000
G01 X155.948416 Y141.799912 Z-0.125000
G01 X152.745663 Y141.799912 Z-0.125000
G01 X152.745663 Y145.988235 Z-0.125000
G01 X164.191572 Y145.988235 Z-0.125000
G01 X164.191572 Y141.799912 Z-0.125000
G01 X160.988817 Y141.799912 Z-0.125000
G01 X160.988817 Y126.553772 Z-0.125000
G01 X164.191572 Y126.553772 Z-0.125000
G01 X164.191572 Y122.365449 Z-0.125000
G00 Z5.000000

(End cutting path id: path8218)


(Start cutting path id: path8216)
(ZZZanette)
(Change tool to Default tool)

G00 Z5.000000
G00 X151.393684 Y122.365449

G01 Z-0.125000 F100.0(Penetrate)
G01 X145.237572 Y122.365449 Z-0.125000 F400.000000
G01 X139.908398 Y131.027667 Z-0.125000
G01 X137.585088 Y131.027667 Z-0.125000
G01 X137.585088 Y122.365449 Z-0.125000
G01 X132.570940 Y122.365449 Z-0.125000
G01 X132.570940 Y145.988235 Z-0.125000
G01 X141.024110 Y145.988235 Z-0.125000
G02 X142.750240 Y145.919414 Z-0.125000 I-0.000000 J-21.681414
G02 X144.003721 Y145.750263 Z-0.125000 I-0.925358 J-11.586263
G02 X145.193177 Y145.379569 Z-0.125000 I-1.030714 J-5.400948
G02 X146.340158 Y144.719045 Z-0.125000 I-2.505715 J-5.677218
G02 X147.315958 Y143.817245 Z-0.125000 I-3.178869 J-4.418558
G02 X148.085921 Y142.656614 Z-0.125000 I-4.565276 J-3.864320
G02 X148.551268 Y141.356317 Z-0.125000 I-4.424231 J-2.316748
G02 X148.742225 Y139.499505 Z-0.125000 I-8.932085 J-1.856812
G02 X148.446226 Y136.965255 Z-0.125000 I-10.996730 J-0.000000
G02 X147.731518 Y135.231854 Z-0.125000 I-5.778499 J1.368520
G02 X146.555485 Y133.762659 Z-0.125000 I-6.154171 J3.720893
G02 X144.870040 Y132.487232 Z-0.125000 I-6.279532 J6.546891
G01 X151.393684 Y122.365449 Z-0.125000
G00 Z5.000000

(End cutting path id: path8216)


(Start cutting path id: path1160)
(ZZZanette)
(Change tool to Default tool)

G00 Z5.000000
G00 X171.967996 Y43.359888

G01 Z-0.125000 F100.0(Penetrate)
G02 X163.754653 Y47.198381 Z-0.125000 I24.144945 J62.370113 F400.000000
G03 X159.718723 Y49.216322 Z-0.125000 I-26.390799 J-47.737267
G03 X156.640143 Y46.927886 Z-0.125000 I-0.902159 J-2.001335
G02 X156.019989 Y43.529226 Z-0.125000 I-5.585230 J-0.736771
G01 X154.650016 Y43.360224 Z-0.125000
G03 X151.038014 Y46.863514 Z-0.125000 I-29.581031 J-26.885289
G03 X147.508582 Y47.609817 Z-0.125000 I-2.449320 J-2.864489
G02 X142.034223 Y48.350491 Z-0.125000 I-1.919221 J6.415912
G03 X134.213309 Y50.914684 Z-0.125000 I-9.087666 J-14.508641
G03 X124.831707 Y48.350491 Z-0.125000 I-1.076327 J-14.506357
G02 X115.462881 Y46.545636 Z-0.125000 I-6.719270 J9.660314
G02 X107.793078 Y50.367923 Z-0.125000 I4.139551 J17.912682
G03 X104.323052 Y51.479629 Z-0.125000 I-3.097069 J-3.695605
G03 X99.979736 Y50.492967 Z-0.125000 I1.184428 J-15.266922
G03 X95.420009 Y48.428965 Z-0.125000 I16.217032 J-41.894748
G02 X91.584142 Y46.863514 Z-0.125000 I-10.281004 J19.709526
G02 X88.701147 Y46.727611 Z-0.125000 I-1.710928 J5.647661
G02 X87.801925 Y47.322830 Z-0.125000 I0.285317 J1.407895
G02 X87.034417 Y48.506690 Z-0.125000 I22.265340 J15.275571
G03 X84.967407 Y50.538046 Z-0.125000 I-5.095160 J-3.117266
G03 X81.607162 Y50.792367 Z-0.125000 I-1.940375 J-3.311466
G03 X72.165677 Y46.697651 Z-0.125000 I62.908001 J-157.983908
G03 X62.559442 Y42.073667 Z-0.125000 I248.062646 J-527.635538
G02 X61.172489 Y42.357844 Z-0.125000 I-0.510343 J1.035886
G01 X61.349110 Y43.456909 Z-0.125000
G02 X68.087497 Y47.437830 Z-0.125000 I175.475412 J-289.328596
G03 X75.067041 Y51.556646 Z-0.125000 I-182.395155 J317.050955
G03 X76.445600 Y53.456613 Z-0.125000 I-1.564501 J2.585259
G03 X76.502746 Y54.308246 Z-0.125000 I-2.582064 J0.600994
G03 X76.349438 Y54.858377 Z-0.125000 I-1.613574 J-0.153237
G00 Z5.000000

(End cutting path id: path1160)


(Footer)
M5
G00 X0.0000 Y0.0000
M2
(Using default footer. To add your own footer create file "footer" in the output dir.)
(end)
%