%
(Header)
(Generated by gcodetools from Inkscape.)
(Using default header. To add your own header create file "header" in the output dir.)
M3
(Header end.)
G21 (All units in mm)

(Start cutting path id: rect5863)
(ZZZanette)
(Change tool to Default tool)

G00 Z5.000000
G00 X10.664485 Y178.427220

G01 Z-0.125000 F100.0(Penetrate)
G01 X10.664485 Y178.211550 Z-0.125000 F400.000000
G01 X10.664485 Y9.921530 Z-0.125000
G01 X163.999200 Y9.921530 Z-0.125000
G01 X163.999200 Y178.427220 Z-0.125000
G01 X10.664485 Y178.427220 Z-0.125000
G00 Z5.000000

(End cutting path id: rect5863)


(Start cutting path id: rect5863)
(ZZZanette)
(Change tool to Default tool)

G00 Z5.000000
G00 X11.080014 Y177.995890

G01 Z-0.125000 F100.0(Penetrate)
G01 X163.583670 Y177.995890 Z-0.125000 F400.000000
G01 X163.583670 Y10.352870 Z-0.125000
G01 X11.080014 Y10.352870 Z-0.125000
G01 X11.080014 Y177.995890 Z-0.125000
G00 Z5.000000

(End cutting path id: rect5863)


(Start cutting path id: path8191)
(ZZZanette)
(Change tool to Default tool)

G00 Z5.000000
G00 X30.589743 Y168.746347

G01 Z-0.125000 F100.0(Penetrate)
G03 X30.374044 Y169.857553 Z-0.125000 I-2.970118 J0.000000 F400.000000
G03 X29.815306 Y170.665996 Z-0.125000 I-2.076114 J-0.837559
G03 X28.973620 Y171.176703 Z-0.125000 I-1.631325 J-1.739617
G03 X27.780768 Y171.379915 Z-0.125000 I-1.192852 J-3.399409
G03 X27.313029 Y171.345720 Z-0.125000 I-0.000000 J-3.216121
G03 X26.809441 Y171.237132 Z-0.125000 I0.564379 J-3.839352
G03 X26.339507 Y171.060558 Z-0.125000 I0.964406 J-3.280307
G03 X25.916871 Y170.824645 Z-0.125000 I1.333371 J-2.885250
G03 X25.576449 Y170.518722 Z-0.125000 I1.146523 J-1.618185
G03 X25.286821 Y170.110726 Z-0.125000 I1.777045 J-1.568283
G03 X25.104465 Y169.664280 Z-0.125000 I1.499003 J-0.872751
G03 X25.037426 Y169.127104 Z-0.125000 I2.118638 J-0.537176
G03 X25.166632 Y168.237598 Z-0.125000 I3.126473 J0.000000
G03 X25.470586 Y167.667536 Z-0.125000 I1.548346 J0.459507
G03 X25.967866 Y167.207824 Z-0.125000 I2.175532 J1.854503
G03 X26.914452 Y166.620455 Z-0.125000 I4.541324 J6.262230
G03 X27.284942 Y166.436180 Z-0.125000 I5.806475 J11.209496
G03 X27.912030 Y166.144509 Z-0.125000 I15.185673 J31.829021
G03 X28.557418 Y165.880309 Z-0.125000 I15.855725 J37.812008
G03 X29.460903 Y165.525779 Z-0.125000 I29.461144 J73.750415
G03 X30.017818 Y166.407528 Z-0.125000 I-8.426650 J5.939044
G03 X30.327223 Y167.064671 Z-0.125000 I-4.357572 J2.453094
G03 X30.513301 Y167.761061 Z-0.125000 I-3.171805 J1.220578
G03 X30.589743 Y168.746347 Z-0.125000 I-6.311621 J0.985286
G01 X30.589743 Y168.746347 Z-0.125000
G00 Z5.000000

(End cutting path id: path8191)


(Start cutting path id: path8191)
(ZZZanette)
(Change tool to Default tool)

G00 Z5.000000
G00 X30.996649 Y157.561615

G01 Z-0.125000 F100.0(Penetrate)
G03 X30.850312 Y158.652304 Z-0.125000 I-4.137771 J0.000000 F400.000000
G03 X30.524113 Y159.290888 Z-0.125000 I-1.694756 J-0.463104
G03 X29.983398 Y159.794517 Z-0.125000 I-2.017958 J-1.624475
G03 X28.581459 Y160.639399 Z-0.125000 I-7.248738 J-10.442469
G03 X28.141146 Y160.862599 Z-0.125000 I-3.578706 J-6.513911
G03 X27.321357 Y161.226401 Z-0.125000 I-10.359477 J-22.238432
G02 X26.496119 Y161.579330 Z-0.125000 I36.792645 J87.171878
G02 X25.929996 Y161.829265 Z-0.125000 I17.883090 J41.272685
G03 X25.414700 Y161.176322 Z-0.125000 I4.306257 J-3.928267
G03 X24.906167 Y160.322102 Z-0.125000 I6.887376 J-4.678656
G03 X24.579271 Y159.420775 Z-0.125000 I3.427519 J-1.753047
G03 X24.459882 Y158.354860 Z-0.125000 I4.698592 J-1.065915
G03 X24.734338 Y156.817587 Z-0.125000 I4.442482 J0.000000
G03 X25.431209 Y155.721292 Z-0.125000 I2.884313 J1.063808
G03 X26.525250 Y155.021338 Z-0.125000 I2.207867 J2.245958
G03 X27.990786 Y154.753536 Z-0.125000 I1.465537 J3.876136
G03 X28.407080 Y154.783568 Z-0.125000 I-0.000000 J2.900281
G03 X28.975239 Y154.896318 Z-0.125000 I-0.801788 J5.528135
G03 X29.515542 Y155.102663 Z-0.125000 I-0.862970 J3.070203
G03 X29.946566 Y155.372263 Z-0.125000 I-1.084278 J2.212839
G03 X30.377135 Y155.774122 Z-0.125000 I-1.930538 J2.500056
G03 X30.707877 Y156.228968 Z-0.125000 I-2.152791 J1.913077
G03 X30.909141 Y156.744569 Z-0.125000 I-1.509457 J0.886298
G03 X30.996649 Y157.561615 Z-0.125000 I-3.770566 J0.817046
G01 X30.996649 Y157.561615 Z-0.125000
G00 Z5.000000

(End cutting path id: path8191)


(Start cutting path id: path8191)
(ZZZanette)
(Change tool to Default tool)

G00 Z5.000000
G00 X36.010799 Y157.831319

G01 Z-0.125000 F100.0(Penetrate)
G02 X35.416534 Y154.954517 Z-0.125000 I-7.260350 J0.000000 F400.000000
G02 X33.792496 Y152.691101 Z-0.125000 I-5.995085 J2.587228
G02 X31.362216 Y151.275622 Z-0.125000 I-4.552223 J5.021800
G02 X27.728265 Y150.692128 Z-0.125000 I-3.633951 J11.024216
G02 X25.588608 Y150.846667 Z-0.125000 I0.000000 J14.889522
G02 X24.013594 Y151.231533 Z-0.125000 I1.222227 J8.416996
G02 X22.546977 Y151.906529 Z-0.125000 I2.763584 J7.935472
G02 X21.454017 Y152.722830 Z-0.125000 I3.020049 J5.183440
G02 X20.582734 Y153.744052 Z-0.125000 I4.150385 J4.423302
G02 X19.970774 Y154.912183 Z-0.125000 I4.846093 J3.283132
G02 X19.621796 Y156.188027 Z-0.125000 I6.624650 J2.497667
G02 X19.498237 Y157.609212 Z-0.125000 I8.111496 J1.421185
G02 X19.726514 Y159.320576 Z-0.125000 I6.529084 J0.000000
G02 X20.351431 Y160.750453 Z-0.125000 I5.147113 J-1.398009
G02 X21.397764 Y161.930404 Z-0.125000 I4.067447 J-2.552951
G02 X23.331042 Y163.161914 Z-0.125000 I6.382331 J-7.886035
G01 X23.331042 Y163.257103 Z-0.125000
G02 X21.801757 Y164.385660 Z-0.125000 I3.657744 J6.556967
G02 X20.823967 Y165.652698 Z-0.125000 I3.678033 J3.849191
G02 X20.241148 Y167.152772 Z-0.125000 I5.197825 J2.882751
G02 X20.023279 Y169.000185 Z-0.125000 I7.723594 J1.847413
G02 X20.588802 Y171.543280 Z-0.125000 I6.000775 J0.000000
G02 X22.175948 Y173.600997 Z-0.125000 I5.408090 J-2.530386
G02 X24.513124 Y174.883864 Z-0.125000 I4.460783 J-5.356413
G02 X27.780768 Y175.393727 Z-0.125000 I3.267644 J-10.216014
G02 X31.232886 Y174.906239 Z-0.125000 I-0.000000 J-12.466734
G02 X33.451219 Y173.759645 Z-0.125000 I-1.771017 J-6.145634
G02 X34.960085 Y171.873075 Z-0.125000 I-3.265087 J-4.158071
G02 X35.512008 Y169.428536 Z-0.125000 I-5.137623 J-2.444538
G02 X35.283623 Y167.815252 Z-0.125000 I-5.812205 J0.000000
G02 X34.645689 Y166.430077 Z-0.125000 I-4.891472 J1.413251
G02 X33.627123 Y165.282594 Z-0.125000 I-4.464925 J2.937497
G02 X31.994230 Y164.193130 Z-0.125000 I-5.640893 J6.686169
G01 X31.994230 Y164.097941 Z-0.125000
G02 X33.842611 Y162.935658 Z-0.125000 I-3.433560 J-7.511286
G02 X35.026344 Y161.575427 Z-0.125000 I-3.602366 J-4.330118
G02 X35.741795 Y159.912260 Z-0.125000 I-5.177104 J-3.212523
G02 X36.010799 Y157.831319 Z-0.125000 I-7.914292 J-2.080940
G01 X36.010799 Y157.831319 Z-0.125000
G00 Z5.000000

(End cutting path id: path8191)


(Start cutting path id: path8193)
(ZZZanette)
(Change tool to Default tool)

G00 Z5.000000
G00 X47.758606 Y168.714618

G01 Z-0.125000 F100.0(Penetrate)
G03 X47.560139 Y169.945997 Z-0.125000 I-3.919258 J0.000000 F400.000000
G03 X47.023548 Y170.935699 Z-0.125000 I-3.031380 J-1.003222
G03 X46.185314 Y171.635149 Z-0.125000 I-1.994632 J-1.538404
G03 X45.212154 Y171.871726 Z-0.125000 I-0.973160 J-1.883254
G03 X44.246988 Y171.640635 Z-0.125000 I-0.000000 J-2.131077
G03 X43.400759 Y170.951564 Z-0.125000 I1.167004 J-2.297316
G03 X42.865308 Y169.961463 Z-0.125000 I2.479711 J-1.980879
G03 X42.665702 Y168.714618 Z-0.125000 I3.794434 J-1.246846
G03 X42.868675 Y167.438192 Z-0.125000 I4.114977 J-0.000000
G03 X43.400759 Y166.461806 Z-0.125000 I2.895584 J0.944784
G03 X44.252533 Y165.796036 Z-0.125000 I2.007498 J1.690596
G03 X45.212154 Y165.573374 Z-0.125000 I0.959621 J1.956539
G03 X46.187958 Y165.807013 Z-0.125000 I-0.000000 J2.154567
G03 X47.023548 Y166.493536 Z-0.125000 I-1.133542 J2.231446
G03 X47.560139 Y167.483238 Z-0.125000 I-2.494789 J1.992923
G03 X47.758606 Y168.714618 Z-0.125000 I-3.720792 J1.231380
G01 X47.758606 Y168.714618 Z-0.125000
G00 Z5.000000

(End cutting path id: path8193)


(Start cutting path id: path8193)
(ZZZanette)
(Change tool to Default tool)

G00 Z5.000000
G00 X50.751343 Y168.714618

G01 Z-0.125000 F100.0(Penetrate)
G02 X50.312874 Y166.082273 Z-0.125000 I-8.120871 J0.000000 F400.000000
G02 X49.136841 Y164.002752 Z-0.125000 I-6.156999 J2.109671
G02 X47.308367 Y162.568290 Z-0.125000 I-4.274010 J3.565390
G02 X45.212154 Y162.083103 Z-0.125000 I-2.096213 J4.285668
G02 X43.114260 Y162.567224 Z-0.125000 I-0.000000 J4.787571
G02 X41.274341 Y164.002752 Z-0.125000 I2.464704 J5.055894
G02 X40.108405 Y166.080178 Z-0.125000 I5.003986 J4.174338
G02 X39.672965 Y168.714618 Z-0.125000 I7.751534 J2.634439
G02 X40.108405 Y171.349057 Z-0.125000 I8.186974 J-0.000000
G02 X41.274341 Y173.426483 Z-0.125000 I6.169922 J-2.096912
G02 X43.114260 Y174.862010 Z-0.125000 I4.304622 J-3.620367
G02 X45.212154 Y175.346132 Z-0.125000 I2.097894 J-4.303450
G02 X47.320827 Y174.859523 Z-0.125000 I-0.000000 J-4.812171
G02 X49.149966 Y173.426483 Z-0.125000 I-2.431084 J-4.986931
G02 X50.315902 Y171.349057 Z-0.125000 I-5.003986 J-4.174338
G02 X50.751343 Y168.714618 Z-0.125000 I-7.751534 J-2.634439
G01 X50.751343 Y168.714618 Z-0.125000
G00 Z5.000000

(End cutting path id: path8193)


(Start cutting path id: path8195)
(ZZZanette)
(Change tool to Default tool)

G00 Z5.000000
G00 X80.088049 Y170.285239

G01 Z-0.125000 F100.0(Penetrate)
G01 X73.984438 Y170.285239 Z-0.125000 F400.000000
G01 X73.984438 Y151.231533 Z-0.125000
G01 X68.944037 Y151.231533 Z-0.125000
G01 X68.944037 Y170.285239 Z-0.125000
G01 X62.840427 Y170.285239 Z-0.125000
G01 X62.840427 Y174.854321 Z-0.125000
G01 X80.088049 Y174.854321 Z-0.125000
G01 X80.088049 Y170.285239 Z-0.125000
G00 Z5.000000

(End cutting path id: path8195)


(Start cutting path id: path8197)
(ZZZanette)
(Change tool to Default tool)

G00 Z5.000000
G00 X95.445516 Y157.053939

G01 Z-0.125000 F100.0(Penetrate)
G03 X96.065419 Y158.183924 Z-0.125000 I-5.536275 J3.772194 F400.000000
G03 X96.534979 Y159.592318 Z-0.125000 I-8.168210 J3.505766
G03 X96.788651 Y161.079679 Z-0.125000 I-10.987764 J2.639291
G03 X96.889382 Y163.050860 Z-0.125000 I-19.236331 J1.971181
G03 X96.771073 Y165.160901 Z-0.125000 I-18.875412 J-0.000000
G03 X96.482474 Y166.668050 Z-0.125000 I-9.889448 J-1.112493
G03 X95.971147 Y168.109810 Z-0.125000 I-9.921272 J-2.707070
G03 X95.419265 Y169.079509 Z-0.125000 I-5.005860 J-2.207076
G03 X94.662424 Y169.928788 Z-0.125000 I-4.054748 J-2.851549
G03 X93.870391 Y170.459753 Z-0.125000 I-2.317158 J-2.600255
G03 X92.978994 Y170.780805 Z-0.125000 I-1.854026 J-3.749675
G03 X92.058997 Y170.888104 Z-0.125000 I-0.919998 J-3.890449
G03 X91.124852 Y170.783088 Z-0.125000 I-0.000000 J-4.207216
G03 X90.247605 Y170.475618 Z-0.125000 I0.913473 J-4.011424
G03 X89.487227 Y169.967280 Z-0.125000 I1.521611 J-3.098904
G03 X88.698731 Y169.111239 Z-0.125000 I3.694823 J-4.194448
G03 X88.153808 Y168.169173 Z-0.125000 I3.922001 J-2.897251
G03 X87.622396 Y166.652185 Z-0.125000 I9.743897 J-4.264930
G03 X87.330300 Y165.082653 Z-0.125000 I10.738065 J-2.810347
G03 X87.215488 Y163.034995 Z-0.125000 I18.202549 J-2.047658
G03 X87.329697 Y160.939792 Z-0.125000 I19.275808 J-0.000000
G03 X87.609271 Y159.433671 Z-0.125000 I10.212302 J1.116652
G03 X88.117758 Y158.006098 Z-0.125000 I10.003954 J2.758963
G03 X88.672480 Y157.022210 Z-0.125000 I5.274865 J2.325680
G03 X89.414331 Y156.185010 Z-0.125000 I4.040340 J2.832906
G03 X90.208225 Y155.641967 Z-0.125000 I2.438882 J2.713653
G03 X91.114299 Y155.309535 Z-0.125000 I1.878469 J3.718936
G03 X92.058997 Y155.197751 Z-0.125000 I0.944697 J3.935969
G03 X93.003697 Y155.309536 Z-0.125000 I-0.000000 J4.047770
G03 X93.909771 Y155.641967 Z-0.125000 I-0.972392 J4.051363
G03 X94.702925 Y156.199527 Z-0.125000 I-1.723922 J3.295283
G03 X95.445516 Y157.053939 Z-0.125000 I-3.431541 J3.732350
G01 X95.445516 Y157.053939 Z-0.125000
G00 Z5.000000

(End cutting path id: path8197)


(Start cutting path id: path8197)
(ZZZanette)
(Change tool to Default tool)

G00 Z5.000000
G00 X102.126674 Y163.034995

G01 Z-0.125000 F100.0(Penetrate)
G02 X101.342770 Y157.663081 Z-0.125000 I-18.798219 J-0.000000 F400.000000
G02 X99.448960 Y154.055480 Z-0.125000 I-10.147308 J3.025953
G02 X96.333432 Y151.656043 Z-0.125000 I-6.564659 J5.301438
G02 X92.045871 Y150.739724 Z-0.125000 I-4.287561 J9.572838
G02 X87.770862 Y151.654841 Z-0.125000 I-0.000000 J10.443005
G02 X84.655911 Y154.055480 Z-0.125000 I3.459255 J7.709782
G02 X82.762100 Y157.663081 Z-0.125000 I8.253498 J6.633553
G02 X81.978197 Y163.034995 Z-0.125000 I18.014316 J5.371914
G02 X82.767148 Y168.450653 Z-0.125000 I18.982046 J0.000000
G02 X84.655911 Y172.030375 Z-0.125000 I9.950535 J-2.962041
G02 X87.770862 Y174.431015 Z-0.125000 I6.574207 J-5.309142
G02 X92.045871 Y175.346132 Z-0.125000 I4.275009 J-9.527884
G02 X96.310189 Y174.433304 Z-0.125000 I-0.000000 J-10.416887
G02 X99.435834 Y172.030375 Z-0.125000 I-3.485360 J-7.767964
G02 X101.334349 Y168.448388 Z-0.125000 I-8.037822 J-6.554300
G02 X102.126674 Y163.034995 Z-0.125000 I-18.096780 J-5.413393
G01 X102.126674 Y163.034995 Z-0.125000
G00 Z5.000000

(End cutting path id: path8197)


(Start cutting path id: path8199)
(ZZZanette)
(Change tool to Default tool)

G00 Z5.000000
G00 X114.924569 Y159.449535

G01 Z-0.125000 F100.0(Penetrate)
G01 X104.909398 Y159.449535 Z-0.125000 F400.000000
G01 X104.909398 Y164.018617 Z-0.125000
G01 X114.924569 Y164.018617 Z-0.125000
G01 X114.924569 Y159.449535 Z-0.125000
G00 Z5.000000

(End cutting path id: path8199)


(Start cutting path id: path8201)
(ZZZanette)
(Change tool to Default tool)

G00 Z5.000000
G00 X134.521747 Y158.656293

G01 Z-0.125000 F100.0(Penetrate)
G02 X133.861046 Y155.462041 Z-0.125000 I-8.051875 J0.000000 F400.000000
G02 X132.067178 Y152.976670 Z-0.125000 I-6.526482 J2.820558
G02 X129.385377 Y151.434647 Z-0.125000 I-5.038527 J5.659695
G02 X125.425400 Y150.803182 Z-0.125000 I-3.959977 J12.100956
G02 X123.016840 Y150.946873 Z-0.125000 I-0.000000 J20.258076
G02 X121.185690 Y151.310858 Z-0.125000 I1.442037 J12.042751
G02 X119.417914 Y151.911884 Z-0.125000 I5.876222 J20.183772
G02 X117.812296 Y152.627641 Z-0.125000 I6.775839 J17.358655
G01 X117.812296 Y158.291400 Z-0.125000
G01 X118.363591 Y158.291400 Z-0.125000
G03 X120.034427 Y156.949533 Z-0.125000 I8.196179 J8.494382
G03 X121.855119 Y155.975129 Z-0.125000 I6.059395 J9.133881
G03 X123.835254 Y155.353499 Z-0.125000 I4.416741 J10.604498
G03 X125.582913 Y155.166019 Z-0.125000 I1.747659 J8.051955
G03 X126.041181 Y155.184053 Z-0.125000 I0.000000 J5.831731
G03 X126.790509 Y155.261209 Z-0.125000 I-1.236325 J15.684303
G03 X127.525195 Y155.402826 Z-0.125000 I-0.739684 J5.813887
G03 X128.011231 Y155.578506 Z-0.125000 I-0.703436 J2.706293
G03 X128.551513 Y155.912047 Z-0.125000 I-1.501095 J3.035882
G03 X128.956307 Y156.292426 Z-0.125000 I-1.562327 J2.068184
G03 X129.220102 Y156.765198 Z-0.125000 I-0.937422 J0.833040
G03 X129.336961 Y157.561615 Z-0.125000 I-2.655439 J0.796417
G03 X129.194203 Y158.280164 Z-0.125000 I-1.879718 J0.000000
G03 X128.785668 Y158.894265 Z-0.125000 I-1.760681 J-0.728362
G03 X128.183507 Y159.360392 Z-0.125000 I-1.779403 J-1.676693
G03 X127.197418 Y159.766832 Z-0.125000 I-2.309451 J-4.203674
G03 X126.090038 Y160.065185 Z-0.125000 I-9.312410 J-32.360048
G03 X124.860981 Y160.353834 Z-0.125000 I-9.942937 J-39.575773
G02 X123.653701 Y160.682202 Z-0.125000 I3.984858 J17.034292
G02 X122.563925 Y161.067750 Z-0.125000 I4.432257 J14.260973
G02 X120.316394 Y162.307505 Z-0.125000 I3.605198 J9.192938
G02 X119.006766 Y163.685455 Z-0.125000 I3.210347 J4.362491
G02 X118.234472 Y165.440945 Z-0.125000 I5.080583 J3.282729
G02 X117.930432 Y167.810320 Z-0.125000 I9.080217 J2.369375
G02 X118.579494 Y170.810347 Z-0.125000 I7.257740 J-0.000000
G02 X120.371876 Y173.188510 Z-0.125000 I6.220667 J-2.823889
G02 X123.042964 Y174.695298 Z-0.125000 I5.196310 J-6.090600
G02 X126.672376 Y175.282672 Z-0.125000 I3.629412 J-10.919455
G02 X128.587974 Y175.167327 Z-0.125000 I0.000000 J-15.964340
G02 X130.478927 Y174.822591 Z-0.125000 I-1.921697 J-15.899455
G02 X132.335822 Y174.285902 Z-0.125000 I-4.377561 J-18.626630
G02 X133.747313 Y173.696186 Z-0.125000 I-3.904897 J-11.330474
G01 X133.747313 Y168.254536 Z-0.125000
G01 X133.209143 Y168.254536 Z-0.125000
G03 X131.941435 Y169.268580 Z-0.125000 I-6.017439 J-6.223269
G03 X130.308288 Y170.158320 Z-0.125000 I-6.233816 J-9.498659
G03 X128.560284 Y170.743951 Z-0.125000 I-3.673912 J-8.064417
G03 X126.816761 Y170.935699 Z-0.125000 I-1.743524 J-7.830883
G03 X126.189125 Y170.908095 Z-0.125000 I0.000000 J-7.149193
G03 X125.556662 Y170.824645 Z-0.125000 I0.647173 J-7.343276
G03 X124.954391 Y170.683096 Z-0.125000 I0.607348 J-3.936238
G03 X124.362191 Y170.443888 Z-0.125000 I1.289116 J-4.044080
G03 X123.896292 Y170.149252 Z-0.125000 I0.904872 J-1.946518
G03 X123.482746 Y169.714104 Z-0.125000 I1.625652 J-1.959033
G03 X123.210974 Y169.205489 Z-0.125000 I1.374361 J-1.061291
G03 X123.115218 Y168.619428 Z-0.125000 I1.745570 J-0.586061
G03 X123.284050 Y167.760915 Z-0.125000 I2.267184 J0.000000
G03 X123.705890 Y167.175725 Z-0.125000 I1.426391 J0.583590
G03 X124.350340 Y166.789706 Z-0.125000 I1.560318 J1.873958
G03 X125.937316 Y166.271428 Z-0.125000 I4.523306 J11.161619
G02 X127.013207 Y165.999969 Z-0.125000 I-82.579066 J-329.558679
G02 X127.998106 Y165.747887 Z-0.125000 I-70.225110 J-276.423912
G02 X128.985284 Y165.461592 Z-0.125000 I-3.829042 J-15.048064
G02 X130.137649 Y165.049833 Z-0.125000 I-6.826634 J-20.923710
G02 X132.187651 Y163.916614 Z-0.125000 I-3.374404 J-8.525163
G02 X133.445413 Y162.622508 Z-0.125000 I-3.219702 J-4.387551
G02 X134.209352 Y161.000237 Z-0.125000 I-4.202734 J-2.970106
G02 X134.521747 Y158.656293 Z-0.125000 I-8.637264 J-2.343944
G01 X134.521747 Y158.656293 Z-0.125000
G00 Z5.000000

(End cutting path id: path8201)


(Start cutting path id: path8203)
(ZZZanette)
(Change tool to Default tool)

G00 Z5.000000
G00 X148.264716 Y160.337966

G01 Z-0.125000 F100.0(Penetrate)
G01 X145.862649 Y168.809807 Z-0.125000 F400.000000
G01 X143.460584 Y160.337966 Z-0.125000
G01 X148.264716 Y160.337966 Z-0.125000
G00 Z5.000000

(End cutting path id: path8203)


(Start cutting path id: path8203)
(ZZZanette)
(Change tool to Default tool)

G00 Z5.000000
G00 X156.048459 Y151.231533

G01 Z-0.125000 F100.0(Penetrate)
G01 X150.837419 Y151.231533 Z-0.125000 F400.000000
G01 X149.485438 Y156.006857 Z-0.125000
G01 X142.239862 Y156.006857 Z-0.125000
G01 X140.887878 Y151.231533 Z-0.125000
G01 X135.808100 Y151.231533 Z-0.125000
G01 X143.027425 Y174.854321 Z-0.125000
G01 X148.829134 Y174.854321 Z-0.125000
G01 X156.048459 Y151.231533 Z-0.125000
G00 Z5.000000

(End cutting path id: path8203)


(Start cutting path id: path8216)
(ZZZanette)
(Change tool to Default tool)

G00 Z5.000000
G00 X135.638382 Y138.753857

G01 Z-0.125000 F100.0(Penetrate)
G03 X135.553067 Y139.623029 Z-0.125000 I-4.470148 J-0.000000 F400.000000
G03 X135.336484 Y140.276883 Z-0.125000 I-2.727424 J-0.540636
G03 X134.943881 Y140.822280 Z-0.125000 I-1.695978 J-0.806840
G03 X134.299526 Y141.276371 Z-0.125000 I-1.793440 J-1.860673
G03 X133.771631 Y141.471320 Z-0.125000 I-1.175163 J-2.369969
G03 X133.105055 Y141.577801 Z-0.125000 I-0.931338 J-3.690599
G03 X132.421662 Y141.623191 Z-0.125000 I-1.201595 J-12.923806
G03 X131.516805 Y141.641262 Z-0.125000 I-0.904858 J-22.646138
G01 X129.692284 Y141.641262 Z-0.125000
G01 X129.692284 Y135.279450 Z-0.125000
G01 X131.241158 Y135.279450 Z-0.125000
G03 X132.445058 Y135.321916 Z-0.125000 I0.000000 J17.086371
G03 X133.262568 Y135.422233 Z-0.125000 I-0.562792 J7.967582
G03 X134.026380 Y135.666207 Z-0.125000 I-0.512927 J2.923448
G03 X134.627678 Y136.072692 Z-0.125000 I-1.046102 J2.195439
G03 X135.092008 Y136.606072 Z-0.125000 I-2.379419 J2.540186
G03 X135.388986 Y137.151506 Z-0.125000 I-2.193217 J1.547733
G03 X135.562235 Y137.769497 Z-0.125000 I-2.499428 J1.033975
G03 X135.638382 Y138.753857 Z-0.125000 I-6.324460 J0.984360
G01 X135.638382 Y138.753857 Z-0.125000
G00 Z5.000000

(End cutting path id: path8216)


(Start cutting path id: path8214)
(ZZZanette)
(Change tool to Default tool)

G00 Z5.000000
G00 X119.952757 Y130.916613

G01 Z-0.125000 F100.0(Penetrate)
G02 X119.293756 Y126.800137 Z-0.125000 I-13.186359 J-0.000000 F400.000000
G02 X117.747582 Y124.205772 Z-0.125000 I-6.574747 J2.160454
G02 X115.243118 Y122.568532 Z-0.125000 I-4.680740 J4.425922
G02 X111.250192 Y121.873637 Z-0.125000 I-3.992926 J11.124397
G02 X107.257263 Y122.568532 Z-0.125000 I-0.000000 J11.819305
G02 X104.752799 Y124.205772 Z-0.125000 I2.176274 J6.063160
G02 X103.215423 Y126.797286 Z-0.125000 I5.052736 J4.749229
G02 X102.560750 Y130.900745 Z-0.125000 I12.532818 J4.103459
G01 X102.560750 Y145.988235 Z-0.125000
G01 X107.627403 Y145.988235 Z-0.125000
G01 X107.627403 Y131.249774 Z-0.125000
G03 X107.899916 Y128.877383 Z-0.125000 I10.462822 J-0.000000
G03 X108.480596 Y127.584989 Z-0.125000 I3.587332 J0.835162
G03 X109.520189 Y126.739506 Z-0.125000 I2.034371 J1.439555
G03 X111.250192 Y126.379260 Z-0.125000 I1.730003 J3.973871
G03 X112.967057 Y126.725282 Z-0.125000 I0.000000 J4.432315
G03 X114.006660 Y127.537396 Z-0.125000 I-0.974085 J2.318411
G03 X114.598983 Y128.792191 Z-0.125000 I-2.670241 J2.027681
G03 X114.886104 Y131.249774 Z-0.125000 I-10.374137 J2.457583
G01 X114.886104 Y145.988235 Z-0.125000
G01 X119.952757 Y145.988235 Z-0.125000
G01 X119.952757 Y130.916613 Z-0.125000
G00 Z5.000000

(End cutting path id: path8214)


(Start cutting path id: path8212)
(ZZZanette)
(Change tool to Default tool)

G00 Z5.000000
G00 X99.371121 Y129.790206

G01 Z-0.125000 F100.0(Penetrate)
G02 X98.710420 Y126.595956 Z-0.125000 I-8.051868 J-0.000000 F400.000000
G02 X96.916551 Y124.110583 Z-0.125000 I-6.526498 J2.820565
G02 X94.234751 Y122.568562 Z-0.125000 I-5.038523 J5.659700
G02 X90.274774 Y121.937098 Z-0.125000 I-3.959977 J12.100975
G02 X87.866213 Y122.080788 Z-0.125000 I0.000000 J20.258205
G02 X86.035063 Y122.444771 Z-0.125000 I1.442036 J12.042818
G02 X84.267288 Y123.045798 Z-0.125000 I5.876167 J20.183583
G02 X82.661669 Y123.761557 Z-0.125000 I6.775801 J17.358516
G01 X82.661669 Y129.425312 Z-0.125000
G01 X83.212965 Y129.425312 Z-0.125000
G03 X84.883804 Y128.083446 Z-0.125000 I8.196189 J8.494406
G03 X86.704492 Y127.109045 Z-0.125000 I6.059369 J9.133855
G03 X88.684628 Y126.487415 Z-0.125000 I4.416741 J10.604498
G03 X90.432287 Y126.299935 Z-0.125000 I1.747659 J8.051955
G03 X90.890555 Y126.317969 Z-0.125000 I0.000000 J5.831731
G03 X91.639883 Y126.395125 Z-0.125000 I-1.236325 J15.684303
G03 X92.374569 Y126.536742 Z-0.125000 I-0.739684 J5.813887
G03 X92.860605 Y126.712422 Z-0.125000 I-0.703436 J2.706293
G03 X93.400887 Y127.045963 Z-0.125000 I-1.501095 J3.035882
G03 X93.805681 Y127.426342 Z-0.125000 I-1.562327 J2.068184
G03 X94.069476 Y127.899114 Z-0.125000 I-0.937422 J0.833040
G03 X94.186335 Y128.695531 Z-0.125000 I-2.655439 J0.796417
G03 X94.043577 Y129.414077 Z-0.125000 I-1.879706 J-0.000000
G03 X93.635042 Y130.028178 Z-0.125000 I-1.760685 J-0.728365
G03 X93.032879 Y130.494307 Z-0.125000 I-1.779396 J-1.676677
G03 X92.046791 Y130.900745 Z-0.125000 I-2.309419 J-4.203616
G03 X90.939412 Y131.199098 Z-0.125000 I-9.312410 J-32.360048
G03 X89.710355 Y131.487747 Z-0.125000 I-9.942937 J-39.575773
G02 X88.503074 Y131.816117 Z-0.125000 I3.984970 J17.034583
G02 X87.413298 Y132.201666 Z-0.125000 I4.432348 J14.261203
G02 X85.165768 Y133.441420 Z-0.125000 I3.605184 J9.192919
G02 X83.856140 Y134.819370 Z-0.125000 I3.210344 J4.362488
G02 X83.083846 Y136.574859 Z-0.125000 I5.080564 J3.282722
G02 X82.779805 Y138.944236 Z-0.125000 I9.080226 J2.369377
G02 X83.428867 Y141.944262 Z-0.125000 I7.257734 J-0.000000
G02 X85.221249 Y144.322423 Z-0.125000 I6.220660 J-2.823887
G02 X87.892337 Y145.829211 Z-0.125000 I5.196311 J-6.090599
G02 X91.521750 Y146.416586 Z-0.125000 I3.629412 J-10.919452
G02 X93.437348 Y146.301241 Z-0.125000 I-0.000000 J-15.964373
G02 X95.328300 Y145.956506 Z-0.125000 I-1.921697 J-15.899485
G02 X97.185196 Y145.419816 Z-0.125000 I-4.377529 J-18.626521
G02 X98.596687 Y144.830099 Z-0.125000 I-3.904881 J-11.330418
G01 X98.596687 Y139.388451 Z-0.125000
G01 X98.058517 Y139.388451 Z-0.125000
G03 X96.790809 Y140.402496 Z-0.125000 I-6.017434 J-6.223260
G03 X95.157662 Y141.292235 Z-0.125000 I-6.233803 J-9.498639
G03 X93.409658 Y141.877865 Z-0.125000 I-3.673911 J-8.064428
G03 X91.666134 Y142.069613 Z-0.125000 I-1.743524 J-7.830896
G03 X91.038499 Y142.042009 Z-0.125000 I0.000000 J-7.149214
G03 X90.406035 Y141.958559 Z-0.125000 I0.647173 J-7.343296
G03 X89.803765 Y141.817009 Z-0.125000 I0.607348 J-3.936226
G03 X89.211565 Y141.577801 Z-0.125000 I1.289117 J-4.044072
G03 X88.745666 Y141.283165 Z-0.125000 I0.904873 J-1.946525
G03 X88.332120 Y140.848020 Z-0.125000 I1.625645 J-1.959033
G03 X88.060347 Y140.339404 Z-0.125000 I1.374370 J-1.061294
G03 X87.964591 Y139.753342 Z-0.125000 I1.745575 J-0.586062
G03 X88.133424 Y138.894829 Z-0.125000 I2.267180 J0.000000
G03 X88.555264 Y138.309641 Z-0.125000 I1.426381 J0.583587
G03 X89.199716 Y137.923621 Z-0.125000 I1.560330 J1.873976
G03 X90.786690 Y137.405342 Z-0.125000 I4.523304 J11.161596
G02 X91.862581 Y137.133882 Z-0.125000 I-82.607808 J-329.671802
G02 X92.847479 Y136.881801 Z-0.125000 I-70.249149 J-276.518546
G02 X93.834658 Y136.595507 Z-0.125000 I-3.828921 J-15.047666
G02 X94.987023 Y136.183746 Z-0.125000 I-6.826478 J-20.923191
G02 X97.037024 Y135.050527 Z-0.125000 I-3.374392 J-8.525146
G02 X98.294786 Y133.756421 Z-0.125000 I-3.219700 J-4.387548
G02 X99.058725 Y132.134150 Z-0.125000 I-4.202734 J-2.970106
G02 X99.371121 Y129.790206 Z-0.125000 I-8.637264 J-2.343944
G01 X99.371121 Y129.790206 Z-0.125000
G00 Z5.000000

(End cutting path id: path8212)


(Start cutting path id: path8210)
(ZZZanette)
(Change tool to Default tool)

G00 Z5.000000
G00 X80.692764 Y141.419154

G01 Z-0.125000 F100.0(Penetrate)
G01 X74.589154 Y141.419154 Z-0.125000 F400.000000
G01 X74.589154 Y122.365449 Z-0.125000
G01 X69.548753 Y122.365449 Z-0.125000
G01 X69.548753 Y141.419154 Z-0.125000
G01 X63.445145 Y141.419154 Z-0.125000
G01 X63.445145 Y145.988235 Z-0.125000
G01 X80.692764 Y145.988235 Z-0.125000
G01 X80.692764 Y141.419154 Z-0.125000
G00 Z5.000000

(End cutting path id: path8210)


(Start cutting path id: path8208)
(ZZZanette)
(Change tool to Default tool)

G00 Z5.000000
G00 X62.565701 Y122.365449

G01 Z-0.125000 F100.0(Penetrate)
G01 X57.354663 Y122.365449 Z-0.125000 F400.000000
G01 X56.002680 Y127.140773 Z-0.125000
G01 X48.757104 Y127.140773 Z-0.125000
G01 X47.405123 Y122.365449 Z-0.125000
G01 X42.325345 Y122.365449 Z-0.125000
G01 X49.544667 Y145.988235 Z-0.125000
G01 X55.346379 Y145.988235 Z-0.125000
G01 X62.565701 Y122.365449 Z-0.125000
G00 Z5.000000

(End cutting path id: path8208)


(Start cutting path id: path8208)
(ZZZanette)
(Change tool to Default tool)

G00 Z5.000000
G00 X54.781958 Y131.471882

G01 Z-0.125000 F100.0(Penetrate)
G01 X52.379893 Y139.943721 Z-0.125000 F400.000000
G01 X49.977826 Y131.471882 Z-0.125000
G01 X54.781958 Y131.471882 Z-0.125000
G00 Z5.000000

(End cutting path id: path8208)


(Start cutting path id: path8206)
(ZZZanette)
(Change tool to Default tool)

G00 Z5.000000
G00 X39.529498 Y122.365449

G01 Z-0.125000 F100.0(Penetrate)
G01 X34.515350 Y122.365449 Z-0.125000 F400.000000
G01 X34.515350 Y138.182720 Z-0.125000
G01 X30.892561 Y127.918151 Z-0.125000
G01 X27.414159 Y127.918151 Z-0.125000
G01 X23.791373 Y138.182720 Z-0.125000
G01 X23.791373 Y122.365449 Z-0.125000
G01 X19.039747 Y122.365449 Z-0.125000
G01 X19.039747 Y145.988235 Z-0.125000
G01 X24.893959 Y145.988235 Z-0.125000
G01 X29.291185 Y134.137179 Z-0.125000
G01 X33.675283 Y145.988235 Z-0.125000
G01 X39.529498 Y145.988235 Z-0.125000
G01 X39.529498 Y122.365449 Z-0.125000
G00 Z5.000000

(End cutting path id: path8206)


(Start cutting path id: path1044)
(ZZZanette)
(Change tool to Default tool)

G00 Z5.000000
G00 X59.833528 Y100.381110

G01 Z-0.125000 F100.0(Penetrate)
G01 X60.364595 Y101.135118 Z-0.125000 F400.000000
G01 X61.193226 Y100.756203 Z-0.125000
G01 X61.199013 Y99.845137 Z-0.125000
G02 X60.486094 Y99.353031 Z-0.125000 I-0.897953 J0.538415
G02 X59.304458 Y99.285861 Z-0.125000 I-0.707488 J2.018821
G02 X58.362141 Y100.102150 Z-0.125000 I0.293384 J1.290727
G01 X58.330363 Y101.078470 Z-0.125000
G01 X58.118490 Y101.906371 Z-0.125000
G01 X58.262500 Y102.817866 Z-0.125000
G01 X59.071536 Y103.144100 Z-0.125000
G02 X60.053368 Y102.843911 Z-0.125000 I0.027854 J-1.664635
G03 X61.094812 Y102.686960 Z-0.125000 I0.678881 J0.970983
G03 X61.985028 Y103.389669 Z-0.125000 I-0.147288 J1.101823
G01 X61.679597 Y104.514588 Z-0.125000
G01 X61.094999 Y104.717817 Z-0.125000
G01 X61.110939 Y104.440754 Z-0.125000
G01 X61.544896 Y103.644144 Z-0.125000
G01 X60.867554 Y103.053637 Z-0.125000
G01 X59.867808 Y103.530620 Z-0.125000
G01 X60.131759 Y104.643688 Z-0.125000
G01 X60.595987 Y104.869160 Z-0.125000
G01 X60.840392 Y105.274613 Z-0.125000
G02 X61.366381 Y106.330307 Z-0.125000 I1.209030 J0.056495
G02 X62.487962 Y106.417277 Z-0.125000 I0.636346 J-0.930890
G02 X63.560334 Y107.547133 Z-0.125000 I1.618371 J-0.462199
G02 X65.054136 Y107.285866 Z-0.125000 I0.509773 J-1.486423
G01 X65.866618 Y107.076417 Z-0.125000
G01 X66.824421 Y106.863728 Z-0.125000
G02 X67.236417 Y105.870502 Z-0.125000 I-0.659679 J-0.855702
G01 X66.473837 Y105.119586 Z-0.125000
G01 X65.856176 Y105.696630 Z-0.125000
G01 X66.444400 Y106.347889 Z-0.125000
G01 X65.235880 Y105.993846 Z-0.125000
G01 X65.802457 Y104.800545 Z-0.125000
G03 X67.087468 Y105.155109 Z-0.125000 I0.423454 J0.971169
G03 X67.674447 Y106.321241 Z-0.125000 I-3.441780 J2.463236
G01 X68.426260 Y106.245431 Z-0.125000
G01 X68.787272 Y106.096674 Z-0.125000
G01 X69.725771 Y106.119980 Z-0.125000
G01 X70.208119 Y105.264289 Z-0.125000
G01 X70.562539 Y104.620239 Z-0.125000
G01 X71.172024 Y103.968781 Z-0.125000
G02 X70.915589 Y103.041679 Z-0.125000 I-1.045733 J-0.209768
G01 X69.988263 Y102.894902 Z-0.125000
G01 X69.551432 Y103.586587 Z-0.125000
G01 X70.245102 Y103.659942 Z-0.125000
G01 X70.708930 Y103.580085 Z-0.125000
G01 X70.374745 Y104.347804 Z-0.125000
G01 X69.419901 Y104.364593 Z-0.125000
G03 X69.016136 Y103.470899 Z-0.125000 I0.743808 J-0.874104
G01 X69.387554 Y102.462944 Z-0.125000
G01 X70.432304 Y102.423241 Z-0.125000
G03 X71.697147 Y103.247994 Z-0.125000 I-7.475495 J12.846702
G02 X73.172254 Y103.632472 Z-0.125000 I1.227850 J-1.688853
G02 X74.550145 Y102.805163 Z-0.125000 I-0.263886 J-2.000604
G03 X75.872402 Y101.868074 Z-0.125000 I2.012438 J1.438188
G01 X75.824108 Y101.653107 Z-0.125000
G02 X75.051642 Y102.072132 Z-0.125000 I0.153522 J1.204542
G02 X74.129200 Y102.615842 Z-0.125000 I12.399007 J22.090143
G03 X73.105864 Y102.936610 Z-0.125000 I-1.139811 J-1.843557
G03 X71.909602 Y102.811499 Z-0.125000 I-0.404152 J-1.917293
G03 X70.887232 Y102.170547 Z-0.125000 I1.701750 J-3.850286
G02 X69.611061 Y101.577462 Z-0.125000 I-3.370097 J5.582065
G02 X68.188384 Y101.706538 Z-0.125000 I-0.565805 J1.668604
G01 X67.915081 Y101.980413 Z-0.125000
G01 X68.011987 Y102.339197 Z-0.125000
G03 X67.698188 Y104.100750 Z-0.125000 I-1.389926 J0.661128
G03 X65.990011 Y104.274459 Z-0.125000 I-0.963069 J-0.984814
G02 X65.363517 Y104.798457 Z-0.125000 I0.985747 J1.815079
G01 X64.491248 Y105.170420 Z-0.125000
G03 X63.607846 Y104.910601 Z-0.125000 I-0.080033 J-1.359608
G03 X63.075418 Y104.109534 Z-0.125000 I0.819896 J-1.122415
G03 X62.267198 Y103.362656 Z-0.125000 I0.900495 J-1.785193
G01 X62.374795 Y102.168466 Z-0.125000
G01 X63.107137 Y101.914342 Z-0.125000
G01 X63.782806 Y101.524269 Z-0.125000
G03 X65.327913 Y100.182908 Z-0.125000 I3.853358 J2.878083
G03 X67.255624 Y99.660446 Z-0.125000 I2.050583 J3.748429
G03 X65.643911 Y99.675915 Z-0.125000 I-2.651746 J-192.316045
G02 X64.075149 Y100.205333 Z-0.125000 I0.014228 J2.631133
G03 X62.554260 Y101.230128 Z-0.125000 I-12.529811 J-16.954419
G03 X60.794823 Y101.722779 Z-0.125000 I-1.748062 J-2.854846
G03 X59.887860 Y101.425038 Z-0.125000 I-0.103104 J-1.216173
G01 X59.833528 Y100.381110 Z-0.125000
G01 X59.833528 Y100.381110 Z-0.125000
G00 Z5.000000

(End cutting path id: path1044)


(Start cutting path id: path1048)
(ZZZanette)
(Change tool to Default tool)

G00 Z5.000000
G00 X63.532909 Y102.374420

G01 Z-0.125000 F100.0(Penetrate)
G01 X62.473082 Y102.490049 Z-0.125000 F400.000000
G01 X62.675876 Y103.554417 Z-0.125000
G03 X63.104707 Y103.778422 Z-0.125000 I-1.889011 J4.138755
G01 X63.368793 Y104.201003 Z-0.125000
G02 X64.495936 Y104.841120 Z-0.125000 I1.101666 J-0.627439
G02 X65.607312 Y104.168341 Z-0.125000 I-0.026077 J-1.297419
G01 X66.126409 Y104.095198 Z-0.125000
G01 X66.986462 Y104.160489 Z-0.125000
G02 X67.921825 Y103.195391 Z-0.125000 I-0.354739 J-1.279630
G02 X67.398682 Y101.937738 Z-0.125000 I-1.118009 J-0.272576
G01 X66.521678 Y101.956307 Z-0.125000
G01 X66.386539 Y102.844255 Z-0.125000
G01 X67.022965 Y102.508593 Z-0.125000
G01 X67.117020 Y102.414568 Z-0.125000
G01 X66.713118 Y103.200034 Z-0.125000
G01 X65.993745 Y102.661193 Z-0.125000
G01 X66.464346 Y101.669880 Z-0.125000
G03 X67.348970 Y101.654342 Z-0.125000 I0.460072 J1.003357
G03 X69.112362 Y101.173354 Z-0.125000 I1.423949 J1.747509
G03 X70.801857 Y101.791065 Z-0.125000 I-0.683886 J4.489809
G02 X72.202402 Y102.503991 Z-0.125000 I6.817880 J-11.661581
G02 X73.796005 Y102.510239 Z-0.125000 I0.804014 J-1.836563
G02 X75.124355 Y101.831289 Z-0.125000 I-1.891927 J-5.340432
G03 X76.604196 Y101.565719 Z-0.125000 I1.031779 J1.493543
G01 X76.687731 Y101.358580 Z-0.125000
G02 X75.772763 Y101.168570 Z-0.125000 I-0.672726 J0.941463
G02 X74.214468 Y101.491989 Z-0.125000 I-0.311367 J2.415570
G03 X72.721068 Y101.984320 Z-0.125000 I-1.852594 J-3.108364
G03 X71.767382 Y101.546664 Z-0.125000 I0.075961 J-1.423429
G02 X70.935978 Y100.890648 Z-0.125000 I-2.757913 J2.640398
G02 X68.795375 Y99.861105 Z-0.125000 I-3.543988 J4.628467
G02 X66.439395 Y99.928129 Z-0.125000 I-1.057638 J4.264065
G02 X64.751611 Y100.831101 Z-0.125000 I1.207692 J4.286188
G02 X63.532909 Y102.374420 Z-0.125000 I3.307521 J3.864670
G01 X63.532909 Y102.374420 Z-0.125000
G00 Z5.000000

(End cutting path id: path1048)


(Start cutting path id: path1052)
(ZZZanette)
(Change tool to Default tool)

G00 Z5.000000
G00 X74.436761 Y103.641820

G01 Z-0.125000 F100.0(Penetrate)
G01 X73.883255 Y104.089596 Z-0.125000 F400.000000
G01 X73.313025 Y104.481472 Z-0.125000
G01 X73.350519 Y105.043357 Z-0.125000
G01 X73.865887 Y105.068951 Z-0.125000
G01 X73.872318 Y104.869524 Z-0.125000
G01 X73.690650 Y104.879363 Z-0.125000
G01 X73.488548 Y104.441227 Z-0.125000
G01 X73.976761 Y104.291612 Z-0.125000
G01 X74.322902 Y104.879273 Z-0.125000
G01 X73.921678 Y105.418748 Z-0.125000
G01 X73.187682 Y105.419886 Z-0.125000
G01 X72.717411 Y104.818347 Z-0.125000
G01 X72.664260 Y104.643224 Z-0.125000
G01 X72.522261 Y104.708427 Z-0.125000
G01 X72.567554 Y105.038768 Z-0.125000
G01 X72.365979 Y105.178676 Z-0.125000
G01 X72.226112 Y104.476375 Z-0.125000
G01 X72.718879 Y103.985134 Z-0.125000
G03 X73.331942 Y103.886732 Z-0.125000 I0.471105 J0.976132
G01 X73.941797 Y103.694907 Z-0.125000
G01 X74.316981 Y103.362105 Z-0.125000
G01 X74.615514 Y103.218233 Z-0.125000
G01 X74.551480 Y103.443456 Z-0.125000
G01 X74.436761 Y103.641820 Z-0.125000
G01 X74.436761 Y103.641820 Z-0.125000
G00 Z5.000000

(End cutting path id: path1052)


(Start cutting path id: path1068)
(ZZZanette)
(Change tool to Default tool)

G00 Z5.000000
G00 X73.464468 Y91.268130

G01 Z-0.125000 F100.0(Penetrate)
G03 X72.514273 Y91.563125 Z-0.125000 I-1.478290 J-3.083839 F400.000000
G03 X71.522594 Y91.506871 Z-0.125000 I-0.364971 J-2.335142
G02 X70.865688 Y91.410531 Z-0.125000 I-0.956119 J4.231645
G01 X70.219617 Y91.639079 Z-0.125000
G02 X69.839139 Y92.510711 Z-0.125000 I0.878868 J0.902495
G02 X70.202375 Y93.392796 Z-0.125000 I1.182285 J0.028975
G01 X70.650066 Y93.525873 Z-0.125000
G01 X71.030734 Y93.256592 Z-0.125000
G02 X71.205148 Y92.940161 Z-0.125000 I-1.191625 J-0.863095
G02 X71.322802 Y92.595332 Z-0.125000 I-3.263269 J-1.305901
G03 X70.940140 Y92.881621 Z-0.125000 I-0.947091 J-0.867026
G01 X70.457948 Y92.833365 Z-0.125000
G01 X70.325900 Y92.313828 Z-0.125000
G01 X70.629051 Y91.886595 Z-0.125000
G01 X71.241931 Y91.688344 Z-0.125000
G01 X71.815880 Y91.996668 Z-0.125000
G03 X72.112382 Y92.784158 Z-0.125000 I-0.873008 J0.778265
G03 X71.823128 Y93.573792 Z-0.125000 I-1.249342 J-0.009855
G03 X71.004759 Y94.148500 Z-0.125000 I-1.313248 J-1.000007
G03 X70.020723 Y94.059461 Z-0.125000 I-0.385153 J-1.225567
G03 X69.103250 Y93.369447 Z-0.125000 I1.075632 J-2.385168
G03 X68.689925 Y92.241293 Z-0.125000 I1.321512 J-1.123958
G03 X68.781144 Y91.604847 Z-0.125000 I4.099750 J0.262835
G03 X69.093114 Y91.048865 Z-0.125000 I1.085347 J0.243489
G01 X69.156918 Y90.987576 Z-0.125000
G01 X69.131957 Y90.940660 Z-0.125000
G02 X68.390906 Y91.301198 Z-0.125000 I0.075031 J1.096069
G02 X68.092249 Y92.110709 Z-0.125000 I0.863792 J0.778531
G01 X68.118461 Y92.396580 Z-0.125000
G01 X68.008444 Y92.479696 Z-0.125000
G03 X67.619022 Y91.752060 Z-0.125000 I0.642707 J-0.811994
G03 X67.800782 Y90.941440 Z-0.125000 I1.391335 J-0.113717
G03 X68.279205 Y90.307121 Z-0.125000 I2.626884 J1.483694
G03 X68.925973 Y89.874788 Z-0.125000 I1.371991 J1.352546
G01 X69.659631 Y89.890312 Z-0.125000
G03 X70.301791 Y90.232172 Z-0.125000 I-1.989266 J4.510753
G02 X71.346806 Y90.663860 Z-0.125000 I1.629852 J-2.464776
G02 X72.455820 Y90.771274 Z-0.125000 I1.075719 J-5.327607
G02 X73.544413 Y90.687428 Z-0.125000 I-0.024337 J-7.424592
G02 X74.573145 Y90.272773 Z-0.125000 I-0.360500 J-2.377812
G01 X74.579468 Y90.381835 Z-0.125000
G03 X74.232753 Y90.728469 Z-0.125000 I-3.078654 J-2.732661
G03 X73.867015 Y91.028790 Z-0.125000 I-2.128251 J-2.218977
G03 X73.464468 Y91.268130 Z-0.125000 I-1.814460 J-2.593550
G01 X73.464468 Y91.268130 Z-0.125000
G00 Z5.000000

(End cutting path id: path1068)


(Start cutting path id: path1028)
(ZZZanette)
(Change tool to Default tool)

G00 Z5.000000
G00 X80.674625 Y91.268006

G01 Z-0.125000 F100.0(Penetrate)
G02 X81.357098 Y93.910623 Z-0.125000 I25.059212 J-5.062267 F400.000000
G02 X82.337616 Y96.545620 Z-0.125000 I26.766122 J-8.460109
G02 X83.571775 Y99.073869 Z-0.125000 I27.052785 J-11.640398
G02 X85.091107 Y101.567610 Z-0.125000 I28.267975 J-15.512791
G02 X86.826118 Y103.917703 Z-0.125000 I27.888840 J-18.774084
G02 X88.829833 Y106.195876 Z-0.125000 I28.122360 J-22.714140
G02 X91.015123 Y108.300987 Z-0.125000 I26.928284 J-25.767092
G02 X93.448546 Y110.292318 Z-0.125000 I25.983883 J-29.270025
G02 X96.032438 Y112.083674 Z-0.125000 I23.992176 J-31.847643
G02 X98.841978 Y113.718837 Z-0.125000 I21.997046 J-34.564126
G02 X101.771176 Y115.126872 Z-0.125000 I19.360973 J-36.526597
G02 X104.904880 Y116.337330 Z-0.125000 I16.634049 J-38.401605
G02 X108.124406 Y117.292781 Z-0.125000 I13.552342 J-39.764462
G02 X111.531991 Y118.009702 Z-0.125000 I10.411488 J-41.029945
G02 X114.985623 Y118.444615 Z-0.125000 I7.033942 J-41.926253
G02 X118.618055 Y118.597846 Z-0.125000 I3.632432 J-42.977852
G02 X120.438585 Y118.531493 Z-0.125000 I0.000000 J-25.007892
G02 X122.406366 Y118.322086 Z-0.125000 I-2.172850 J-29.768382
G02 X124.357099 Y117.987209 Z-0.125000 I-4.453358 J-31.790950
G02 X126.407226 Y117.506941 Z-0.125000 I-7.176936 J-35.252185
G02 X128.426448 Y116.909971 Z-0.125000 I-9.619784 J-36.251870
G02 X130.495044 Y116.170631 Z-0.125000 I-12.291851 J-37.654825
G02 X132.519560 Y115.318615 Z-0.125000 I-14.557556 J-37.422181
G02 X134.544229 Y114.331365 Z-0.125000 I-16.623387 J-36.661280
G02 X136.509779 Y113.232085 Z-0.125000 I-18.458101 J-35.310588
G02 X138.429191 Y112.007357 Z-0.125000 I-19.620546 J-32.866041
G02 X140.270630 Y110.669523 Z-0.125000 I-20.926248 J-30.739796
G02 X142.024338 Y109.216821 Z-0.125000 I-21.201925 J-27.379952
G02 X143.675828 Y107.650489 Z-0.125000 I-22.026556 J-24.877904
G02 X145.204079 Y105.977969 Z-0.125000 I-21.679150 J-21.343614
G02 X146.599617 Y104.195153 Z-0.125000 I-22.168239 J-18.790271
G02 X147.842823 Y102.309015 Z-0.125000 I-21.598021 J-15.588646
G00 Z5.000000

(End cutting path id: path1028)


(Start cutting path id: path1028)
(ZZZanette)
(Change tool to Default tool)

G00 Z5.000000
G00 X151.644743 Y94.463721

G01 Z-0.125000 F100.0(Penetrate)
G02 X151.988295 Y93.800801 Z-0.125000 I-6.300974 J-3.685890 F400.000000
G02 X152.343968 Y92.930215 Z-0.125000 I-10.944345 J-4.979200
G02 X152.637284 Y92.035990 Z-0.125000 I-13.917562 J-5.060339
G02 X152.920942 Y90.963342 Z-0.125000 I-19.981917 J-5.857973
G02 X153.150745 Y89.877916 Z-0.125000 I-23.226605 J-5.484515
G02 X153.354224 Y88.650805 Z-0.125000 I-29.019923 J-5.442488
G02 X153.507795 Y87.416647 Z-0.125000 I-31.628164 J-4.562254
G02 X153.622372 Y86.080309 Z-0.125000 I-35.467449 J-3.714054
G02 X153.687421 Y84.740863 Z-0.125000 I-36.764875 J-2.456757
G02 X153.703946 Y83.339557 Z-0.125000 I-37.787308 J-1.146355
G02 X153.668395 Y81.938832 Z-0.125000 I-37.603918 J0.253604
G02 X153.577504 Y80.516253 Z-0.125000 I-35.967616 J1.583839
G02 X153.429352 Y79.098768 Z-0.125000 I-34.581113 J2.897847
G02 X153.221603 Y77.698101 Z-0.125000 I-31.125418 J3.900812
G02 X152.948903 Y76.309025 Z-0.125000 I-29.029764 J4.977759
G02 X152.614803 Y74.972804 Z-0.125000 I-24.793071 J5.489204
G00 Z5.000000

(End cutting path id: path1028)


(Start cutting path id: path5955)
(ZZZanette)
(Change tool to Default tool)

G00 Z5.000000
G00 X163.639720 Y68.225430

G01 Z-0.125000 F100.0(Penetrate)
G02 X161.805880 Y69.426886 Z-0.125000 I56.050286 J87.552502 F400.000000
G02 X160.460740 Y70.354670 Z-0.125000 I34.303468 J51.173621
G03 X155.525940 Y73.461196 Z-0.125000 I-30.996189 J-43.765480
G03 X149.868020 Y76.472620 Z-0.125000 I-84.945930 J-152.777207
G01 X149.868020 Y76.474620 Z-0.125000
G01 X149.866020 Y76.474620 Z-0.125000
G03 X143.598331 Y79.593447 Z-0.125000 I-219.593987 J-433.445400
G02 X140.201860 Y81.429890 Z-0.125000 I20.606711 J42.170856
G01 X140.199860 Y81.429890 Z-0.125000
G02 X139.746309 Y81.710573 Z-0.125000 I19.172046 J31.486642
G02 X139.401270 Y81.937060 Z-0.125000 I5.644101 J8.974483
G03 X135.400673 Y83.430911 Z-0.125000 I-5.007148 J-7.305547
G03 X133.385840 Y83.652310 Z-0.125000 I-25.893058 J-226.360265
G03 X131.500171 Y83.842531 Z-0.125000 I-13.411373 J-123.506088
G03 X129.186740 Y83.856180 Z-0.125000 I-1.234952 J-13.253765
G01 X129.186790 Y83.856110 Z-0.125000
G03 X128.439784 Y83.784887 Z-0.125000 I1.821713 J-23.059507
G03 X127.404560 Y83.652240 Z-0.125000 I3.586168 J-32.093765
G02 X122.096881 Y83.236589 Z-0.125000 I-6.056534 J43.243040
G02 X119.754630 Y83.606740 Z-0.125000 I-0.117530 J6.852040
G03 X119.113466 Y83.629769 Z-0.125000 I-0.358548 J-1.045526
G03 X117.897730 Y83.180450 Z-0.125000 I1.738631 J-6.573660
G03 X116.703346 Y82.536741 Z-0.125000 I6.565424 J-13.611884
G03 X114.808850 Y81.357370 Z-0.125000 I32.563618 J-54.420252
G03 X111.062860 Y78.871641 Z-0.125000 I106.763130 J-164.957366
G02 X104.682000 Y74.658120 Z-0.125000 I-157.092259 J230.958642
G01 X104.680000 Y74.658120 Z-0.125000
G02 X86.391348 Y63.867160 Z-0.125000 I-117.288436 J177.888488
G02 X68.456193 Y54.858660 Z-0.125000 I-262.856508 J500.966957
G02 X39.282235 Y42.003541 Z-0.125000 I-208.941079 J434.647958
G02 X28.192471 Y37.957260 Z-0.125000 I-68.502166 J170.525787
G02 X19.608293 Y35.338593 Z-0.125000 I-65.312910 J198.721255
G02 X10.865892 Y32.959520 Z-0.125000 I-137.426313 J487.749370
G00 Z5.000000

(End cutting path id: path5955)


(Start cutting path id: path1028)
(ZZZanette)
(Change tool to Default tool)

G00 Z5.000000
G00 X85.346204 Y63.936772

G01 Z-0.125000 F100.0(Penetrate)
G02 X84.523648 Y65.388356 Z-0.125000 I19.223137 J11.851845 F400.000000
G02 X83.779680 Y66.924072 Z-0.125000 I27.572679 J14.305469
G02 X83.115895 Y68.498711 Z-0.125000 I31.524893 J14.216462
G02 X82.579183 Y69.950805 Z-0.125000 I35.679855 J14.012953
G02 X82.101190 Y71.427434 Z-0.125000 I35.279507 J12.235866
G02 X81.785542 Y72.560994 Z-0.125000 I27.219316 J8.190144
G02 X81.524105 Y73.716415 Z-0.125000 I20.240313 J5.187052
G02 X81.439591 Y74.298667 Z-0.125000 I5.772217 J1.135096
G00 Z5.000000

(End cutting path id: path1028)


(Start cutting path id: path1076)
(ZZZanette)
(Change tool to Default tool)

G00 Z5.000000
G00 X84.694832 Y75.270390

G01 Z-0.125000 F100.0(Penetrate)
G02 X80.995865 Y77.305709 Z-0.125000 I1.225091 J6.605357 F400.000000
G02 X79.032850 Y81.221770 Z-0.125000 I5.740054 J5.327367
G01 X78.068647 Y80.991950 Z-0.125000
G03 X79.069292 Y79.572467 Z-0.125000 I1.513743 J0.004656
G03 X81.143745 Y76.595735 Z-0.125000 I6.188467 J2.101479
G03 X84.329340 Y75.176700 Z-0.125000 I4.240525 J5.234370
G01 X84.703943 Y74.931430 Z-0.125000
G01 X84.533999 Y74.660022 Z-0.125000
G02 X81.188506 Y75.815179 Z-0.125000 I0.223946 J6.070663
G02 X78.695689 Y78.436491 Z-0.125000 I5.857313 J8.066156
G02 X77.994664 Y80.090949 Z-0.125000 I5.556064 J3.329958
G03 X76.691613 Y81.193624 Z-0.125000 I-1.445669 J-0.387116
G02 X75.365267 Y83.306915 Z-0.125000 I1.553827 J2.448083
G02 X76.371849 Y85.636124 Z-0.125000 I2.520267 J0.292956
G02 X79.181255 Y86.737858 Z-0.125000 I2.775622 J-2.944959
G02 X81.844555 Y85.180430 Z-0.125000 I-0.025882 J-3.100180
G02 X84.044010 Y84.944448 Z-0.125000 I0.920037 J-1.792791
G02 X85.203180 Y83.486305 Z-0.125000 I-2.820498 J-3.432011
G02 X86.929693 Y81.976705 Z-0.125000 I-0.313296 J-2.100411
G02 X86.092880 Y79.762297 Z-0.125000 I-1.895506 J-0.549015
G02 X84.029367 Y79.025088 Z-0.125000 I-1.521087 J1.001075
G02 X83.276098 Y81.005124 Z-0.125000 I0.401280 J1.285961
G01 X83.966646 Y81.424502 Z-0.125000
G01 X84.497199 Y81.207866 Z-0.125000
G01 X84.495021 Y81.067588 Z-0.125000
G01 X84.083771 Y81.034936 Z-0.125000
G01 X84.037398 Y79.795148 Z-0.125000
G03 X85.646058 Y80.326912 Z-0.125000 I0.562696 J0.996859
G03 X85.693507 Y82.277585 Z-0.125000 I-0.969910 J0.999506
G03 X84.262435 Y83.205644 Z-0.125000 I-2.581905 J-2.413919
G03 X82.628117 Y84.372826 Z-0.125000 I-1.291379 J-0.080425
G02 X80.929368 Y85.095606 Z-0.125000 I-0.393714 J1.432327
G03 X78.443248 Y85.699045 Z-0.125000 I-2.062836 J-3.075695
G03 X76.348458 Y84.059051 Z-0.125000 I0.291029 J-2.529587
G03 X76.875226 Y82.045097 Z-0.125000 I1.066681 J-0.796867
G01 X78.145851 Y83.128219 Z-0.125000
G02 X79.665930 Y82.250553 Z-0.125000 I0.135431 J-1.520627
G02 X80.270668 Y80.335398 Z-0.125000 I-7.087218 J-3.290949
G03 X81.977677 Y77.618385 Z-0.125000 I5.536296 J1.583536
G03 X84.696553 Y76.165764 Z-0.125000 I4.368979 J4.906660
G03 X87.171272 Y75.734239 Z-0.125000 I3.138283 J10.685697
G03 X89.671823 Y75.651417 Z-0.125000 I2.812165 J47.114529
G02 X87.206087 Y75.191783 Z-0.125000 I-5.381731 J22.027055
G02 X84.694832 Y75.270390 Z-0.125000 I-1.012466 J7.807626
G01 X84.694832 Y75.270390 Z-0.125000
G00 Z5.000000

(End cutting path id: path1076)


(Start cutting path id: path1076)
(ZZZanette)
(Change tool to Default tool)

G00 Z5.000000
G00 X100.846011 Y84.319772

G01 Z-0.125000 F100.0(Penetrate)
G03 X95.452258 Y80.065518 Z-0.125000 I4.769217 J-11.593012 F400.000000
G02 X89.876833 Y76.046337 Z-0.125000 I-8.835888 J6.380461
G02 X85.935389 Y76.441777 Z-0.125000 I-1.407478 J5.811711
G02 X82.762202 Y78.922706 Z-0.125000 I3.808984 J8.141577
G02 X84.668289 Y78.062739 Z-0.125000 I-0.299045 J-3.205192
G03 X86.528638 Y77.050536 Z-0.125000 I2.861201 J3.042973
G03 X89.695440 Y76.795008 Z-0.125000 I1.974862 J4.723670
G03 X92.507235 Y78.358223 Z-0.125000 I-1.391719 J5.813751
G03 X95.689526 Y81.654652 Z-0.125000 I-18.231379 J20.784393
G02 X99.609759 Y84.015592 Z-0.125000 I5.256286 J-4.292667
G01 X100.025078 Y84.223874 Z-0.125000
G01 X99.906552 Y84.441479 Z-0.125000
G03 X96.291351 Y83.034249 Z-0.125000 I0.905065 J-7.672505
G03 X93.488620 Y80.241491 Z-0.125000 I7.328010 J-10.156924
G02 X91.421981 Y78.758437 Z-0.125000 I-3.817110 J3.137693
G02 X88.898831 Y79.079475 Z-0.125000 I-0.959674 J2.533268
G02 X87.334714 Y81.234167 Z-0.125000 I1.192230 J2.510505
G02 X88.850007 Y83.283561 Z-0.125000 I1.824913 J0.235575
G01 X89.485768 Y82.964922 Z-0.125000
G01 X89.182091 Y82.571843 Z-0.125000
G01 X89.003319 Y80.990807 Z-0.125000
G03 X90.872594 Y81.276100 Z-0.125000 I0.804493 J0.995372
G03 X92.006258 Y83.165106 Z-0.125000 I-0.683772 J1.695038
G02 X91.914912 Y84.468466 Z-0.125000 I17.872687 J1.907488
G03 X91.732816 Y86.614536 Z-0.125000 I-0.966712 J0.998735
G03 X89.497633 Y86.284024 Z-0.125000 I-0.938993 J-1.373079
G03 X89.447533 Y86.822413 Z-0.125000 I-3.178726 J-0.024274
G01 X88.525803 Y87.271191 Z-0.125000
G03 X86.444657 Y85.973521 Z-0.125000 I1.773246 J-5.161515
G02 X83.963140 Y85.372579 Z-0.125000 I-1.734621 J1.738875
G02 X82.899110 Y86.809782 Z-0.125000 I0.155809 J1.227831
G01 X84.411640 Y87.421128 Z-0.125000
G01 X84.152944 Y87.009606 Z-0.125000
G01 X83.528762 Y86.473082 Z-0.125000
G03 X85.510881 Y86.020097 Z-0.125000 I1.157460 J0.501622
G03 X86.267160 Y88.127365 Z-0.125000 I-1.489125 J1.723777
G03 X84.751331 Y89.836247 Z-0.125000 I-1.568145 J0.135742
G02 X82.761740 Y90.405959 Z-0.125000 I0.141434 J4.252881
G03 X81.287753 Y90.915508 Z-0.125000 I-2.252734 J-4.129856
G03 X79.806674 Y90.216858 Z-0.125000 I-0.237601 J-1.415512
G03 X77.551679 Y90.830652 Z-0.125000 I-1.505081 J-1.080294
G02 X75.416934 Y90.218502 Z-0.125000 I-3.279726 J7.409039
G03 X74.799978 Y87.967923 Z-0.125000 I0.876864 J-1.450230
G03 X76.743516 Y87.907925 Z-0.125000 I0.989054 J0.529909
G03 X76.459750 Y88.564317 Z-0.125000 I-1.101899 J-0.086832
G01 X76.703734 Y88.957953 Z-0.125000
G02 X76.792658 Y87.012918 Z-0.125000 I-0.725956 J-1.007740
G02 X74.807347 Y87.375327 Z-0.125000 I-0.847736 J0.975087
G03 X73.238193 Y88.522987 Z-0.125000 I-1.738760 J-0.730791
G03 X71.682724 Y87.380814 Z-0.125000 I-0.131078 J-1.451736
G02 X70.783542 Y86.131653 Z-0.125000 I-1.363604 J0.033351
G03 X70.167411 Y84.528907 Z-0.125000 I0.386942 J-1.068549
G02 X70.820125 Y82.360301 Z-0.125000 I-1.644291 J-1.677434
G03 X71.479814 Y80.314695 Z-0.125000 I2.105404 J-0.450201
G03 X73.560947 Y79.599969 Z-0.125000 I1.811638 J1.887833
G03 X75.277710 Y81.097405 Z-0.125000 I-0.203606 J1.966252
G03 X74.037318 Y82.447786 Z-0.125000 I-1.165427 J0.174369
G01 X73.454083 Y81.853862 Z-0.125000
G02 X75.194932 Y82.612790 Z-0.125000 I1.095399 J-0.136588
G02 X75.894806 Y80.538780 Z-0.125000 I-1.100108 J-1.526322
G03 X79.807513 Y74.949543 Z-0.125000 I9.761095 J2.669037
G03 X86.154529 Y73.281831 Z-0.125000 I5.393877 J7.616478
G03 X91.612000 Y75.174261 Z-0.125000 I-0.693962 J10.816736
G03 X95.801438 Y79.332806 Z-0.125000 I-9.449978 J13.709734
G02 X100.625434 Y83.187932 Z-0.125000 I11.616366 J-9.590048
G02 X106.344162 Y85.087586 Z-0.125000 I9.270717 J-18.350944
G03 X107.013453 Y85.267010 Z-0.125000 I-0.132316 J1.831576
G03 X107.796973 Y85.710955 Z-0.125000 I-3.084247 J6.356783
G01 X107.788023 Y85.808576 Z-0.125000
G01 X107.402577 Y85.817173 Z-0.125000
G02 X104.115484 Y85.105310 Z-0.125000 I-4.512354 J12.891052
G03 X100.846011 Y84.319772 Z-0.125000 I1.036987 J-11.512686
G01 X100.846011 Y84.319772 Z-0.125000
G00 Z5.000000

(End cutting path id: path1076)


(Start cutting path id: path1072)
(ZZZanette)
(Change tool to Default tool)

G00 Z5.000000
G00 X110.653680 Y88.102790

G01 Z-0.125000 F100.0(Penetrate)
G03 X109.449906 Y88.414129 Z-0.125000 I-1.246914 J-2.338292 F400.000000
G03 X108.228358 Y88.245729 Z-0.125000 I-0.065742 J-4.037789
G01 X107.503377 Y88.399896 Z-0.125000
G01 X107.086196 Y89.056875 Z-0.125000
G02 X107.119249 Y89.827928 Z-0.125000 I1.336722 J0.328935
G01 X107.654304 Y90.360026 Z-0.125000
G01 X108.204204 Y90.146526 Z-0.125000
G01 X108.433393 Y89.578230 Z-0.125000
G03 X108.019354 Y89.741154 Z-0.125000 I-0.796302 J-1.416088
G01 X107.584276 Y89.581112 Z-0.125000
G01 X107.573170 Y89.001788 Z-0.125000
G01 X107.975654 Y88.618248 Z-0.125000
G01 X108.669694 Y88.572185 Z-0.125000
G01 X109.168973 Y89.080649 Z-0.125000
G03 X109.261583 Y89.932991 Z-0.125000 I-1.119232 J0.552811
G03 X108.811794 Y90.640566 Z-0.125000 I-1.278605 J-0.316032
G03 X107.837207 Y91.032193 Z-0.125000 I-1.046147 J-1.194926
G03 X106.841120 Y90.694630 Z-0.125000 I-0.065219 J-1.445970
G03 X106.056388 Y89.837896 Z-0.125000 I1.115716 J-1.809704
G03 X105.925348 Y88.640580 Z-0.125000 I1.545481 J-0.774973
G01 X106.080595 Y88.182765 Z-0.125000
G02 X106.334993 Y87.787157 Z-0.125000 I-2.325425 J-1.774978
G02 X105.454081 Y88.258452 Z-0.125000 I-0.008555 J1.042926
G02 X105.336149 Y89.296193 Z-0.125000 I0.970354 J0.635846
G01 X104.949400 Y89.057176 Z-0.125000
G03 X104.830194 Y88.611159 Z-0.125000 I1.043029 J-0.517707
G03 X105.100814 Y87.560443 Z-0.125000 I1.578511 J-0.153651
G03 X105.857845 Y86.843711 Z-0.125000 I2.047212 J1.404157
G01 X106.509377 Y86.658305 Z-0.125000
G03 X107.145331 Y86.860476 Z-0.125000 I-0.134896 J1.525660
G02 X107.992425 Y87.326687 Z-0.125000 I4.455794 J-7.093380
G02 X108.925232 Y87.560372 Z-0.125000 I1.043069 J-2.185046
G02 X110.129675 Y87.595467 Z-0.125000 I0.770819 J-5.768760
G02 X111.315257 Y87.358316 Z-0.125000 I-0.367561 J-4.919631
G01 X111.499607 Y87.317929 Z-0.125000
G01 X111.505006 Y87.482041 Z-0.125000
G03 X111.101943 Y87.829493 Z-0.125000 I-1.626571 J-1.479401
G03 X110.653680 Y88.102790 Z-0.125000 I-3.428650 J-5.119411
G01 X110.653680 Y88.102790 Z-0.125000
G00 Z5.000000

(End cutting path id: path1072)


(Start cutting path id: path1056)
(ZZZanette)
(Change tool to Default tool)

G00 Z5.000000
G00 X111.562130 Y103.044170

G01 Z-0.125000 F100.0(Penetrate)
G01 X112.153784 Y103.942161 Z-0.125000 F400.000000
G01 X113.148531 Y103.589037 Z-0.125000
G02 X113.271712 Y102.503307 Z-0.125000 I-0.851122 J-0.646417
G02 X112.459287 Y101.837789 Z-0.125000 I-1.076376 J0.485338
G02 X110.982335 Y101.704883 Z-0.125000 I-0.969121 J2.496658
G02 X109.783895 Y102.706968 Z-0.125000 I0.305789 J1.583385
G02 X109.745245 Y103.886879 Z-0.125000 I1.048524 J0.624936
G01 X109.489198 Y104.887647 Z-0.125000
G02 X109.663337 Y105.989391 Z-0.125000 I0.972850 J0.410867
G02 X110.641204 Y106.383819 Z-0.125000 I0.873106 J-0.755227
G02 X111.784816 Y106.036735 Z-0.125000 I0.055003 J-1.876357
G03 X112.980908 Y105.810129 Z-0.125000 I0.844189 J1.185914
G03 X114.111165 Y106.576474 Z-0.125000 I-0.088769 J1.347583
G03 X113.875774 Y107.968576 Z-0.125000 I-1.108465 J0.528522
G01 X113.094468 Y108.320984 Z-0.125000
G01 X113.106114 Y107.950614 Z-0.125000
G01 X113.630539 Y106.987828 Z-0.125000
G01 X112.811917 Y106.274213 Z-0.125000
G02 X111.603488 Y106.850738 Z-0.125000 I-0.251400 J1.027783
G02 X111.922730 Y108.196118 Z-0.125000 I1.002481 J0.472690
G01 X112.483791 Y108.468516 Z-0.125000
G01 X112.779077 Y108.958453 Z-0.125000
G02 X113.414799 Y110.234469 Z-0.125000 I1.460791 J0.068590
G02 X114.770378 Y110.339673 Z-0.125000 I0.769236 J-1.125719
G02 X116.002182 Y111.681076 Z-0.125000 I1.963969 J-0.567222
G02 X117.758577 Y111.466419 Z-0.125000 I0.675959 J-1.762109
G01 X118.789994 Y111.155129 Z-0.125000
G01 X119.930347 Y110.946485 Z-0.125000
G02 X120.523828 Y109.908668 Z-0.125000 I-0.766930 J-1.127174
G02 X119.897109 Y108.875064 Z-0.125000 I-1.051752 J-0.069083
G01 X118.910026 Y109.250882 Z-0.125000
G01 X119.443372 Y110.208717 Z-0.125000
G01 X118.754987 Y110.626584 Z-0.125000
G01 X118.093734 Y109.380335 Z-0.125000
G03 X119.241914 Y108.242479 Z-0.125000 I1.197563 J0.060202
G03 X120.580240 Y109.132711 Z-0.125000 I0.056323 J1.366425
G02 X121.297084 Y110.237087 Z-0.125000 I1.277144 J-0.044150
G01 X122.299832 Y109.898158 Z-0.125000
G02 X123.474213 Y110.006201 Z-0.125000 I0.672601 J-0.874350
G02 X124.101072 Y108.946097 Z-0.125000 I-0.523520 J-1.024955
G01 X124.529484 Y108.167668 Z-0.125000
G01 X125.266020 Y107.380251 Z-0.125000
G02 X124.955657 Y106.255857 Z-0.125000 I-1.259624 J-0.257341
G01 X123.835297 Y106.082325 Z-0.125000
G01 X123.307103 Y106.918473 Z-0.125000
G01 X124.145661 Y107.007192 Z-0.125000
G01 X124.706293 Y106.910627 Z-0.125000
G01 X124.302476 Y107.838349 Z-0.125000
G01 X123.250603 Y107.929044 Z-0.125000
G03 X122.694203 Y107.008099 Z-0.125000 I0.682603 J-1.040953
G03 X122.873118 Y105.767290 Z-0.125000 I1.416531 J-0.429051
G01 X124.052395 Y105.395457 Z-0.125000
G03 X125.511304 Y106.256384 Z-0.125000 I-1.481902 J4.177786
G02 X127.073503 Y106.957610 Z-0.125000 I1.900793 J-2.143851
G02 X128.366388 Y106.750750 Z-0.125000 I0.385339 J-1.735340
G02 X129.390874 Y105.922260 Z-0.125000 I-2.340526 J-3.941892
G03 X130.271012 Y105.185431 Z-0.125000 I4.482536 J4.460286
G03 X131.305913 Y104.721052 Z-0.125000 I1.762796 J2.543155
G02 X129.486314 Y105.365747 Z-0.125000 I-0.118590 J2.555471
G03 X127.714547 Y106.115875 Z-0.125000 I-1.992095 J-2.237758
G03 X126.284919 Y106.030753 Z-0.125000 I-0.570188 J-2.471564
G03 X125.043857 Y105.289059 Z-0.125000 I1.277049 J-3.546033
G02 X123.452310 Y104.507414 Z-0.125000 I-4.377739 J6.902599
G02 X121.659954 Y104.646036 Z-0.125000 I-0.743045 J2.049297
G01 X121.329589 Y104.977082 Z-0.125000
G01 X121.446775 Y105.410826 Z-0.125000
G03 X121.067270 Y107.539784 Z-0.125000 I-1.679623 J0.798897
G03 X119.002733 Y107.749750 Z-0.125000 I-1.164058 J-1.190867
G02 X118.245582 Y108.383413 Z-0.125000 I1.199474 J2.202408
G03 X117.191442 Y108.832913 Z-0.125000 I-0.946497 J-0.758864
G03 X116.123914 Y108.518435 Z-0.125000 I-0.095762 J-1.644077
G03 X115.480377 Y107.550306 Z-0.125000 I0.992103 J-1.357425
G03 X114.551007 Y106.710624 Z-0.125000 I1.449484 J-2.538465
G03 X114.542969 Y105.332106 Z-0.125000 I0.973168 J-0.694957
G01 X115.482121 Y104.917662 Z-0.125000
G01 X116.335227 Y104.425871 Z-0.125000
G03 X118.202797 Y102.804613 Z-0.125000 I4.656652 J3.477838
G03 X120.532792 Y102.173165 Z-0.125000 I2.478648 J4.531550
G03 X118.584625 Y102.191728 Z-0.125000 I-3.495769 J-264.640259
G02 X116.688603 Y102.831869 Z-0.125000 I0.018613 J3.183098
G03 X114.850369 Y104.070473 Z-0.125000 I-15.120793 J-20.457648
G03 X112.723874 Y104.665987 Z-0.125000 I-2.113358 J-3.452041
G03 X111.627663 Y104.305955 Z-0.125000 I-0.124383 J-1.470151
G01 X111.562130 Y103.044170 Z-0.125000
G01 X111.562130 Y103.044170 Z-0.125000
G00 Z5.000000

(End cutting path id: path1056)


(Start cutting path id: path1060)
(ZZZanette)
(Change tool to Default tool)

G00 Z5.000000
G00 X116.033080 Y105.453440

G01 Z-0.125000 F100.0(Penetrate)
G02 X115.333147 Y105.223183 Z-0.125000 I-0.781612 J1.196986 F400.000000
G01 X114.691440 Y105.675588 Z-0.125000
G01 X114.793289 Y106.713324 Z-0.125000
G01 X115.717034 Y107.075542 Z-0.125000
G02 X116.319397 Y108.205761 Z-0.125000 I1.204199 J0.083836
G02 X117.521252 Y108.369876 Z-0.125000 I0.802707 J-1.395626
G01 X118.347302 Y107.831036 Z-0.125000
G01 X118.773744 Y107.424921 Z-0.125000
G02 X120.187962 Y107.639855 Z-0.125000 I0.915806 J-1.265708
G02 X121.198684 Y106.556625 Z-0.125000 I-0.497212 J-1.477079
G02 X121.188796 Y105.428547 Z-0.125000 I-1.439455 J-0.551466
G01 X120.277712 Y104.814947 Z-0.125000
G01 X119.307536 Y105.379499 Z-0.125000
G01 X119.999321 Y106.078433 Z-0.125000
G01 X120.240208 Y105.783132 Z-0.125000
G01 X120.444810 Y105.779044 Z-0.125000
G01 X119.832600 Y106.528696 Z-0.125000
G01 X119.058702 Y105.970547 Z-0.125000
G03 X119.149177 Y104.924728 Z-0.125000 I0.997582 J-0.440522
G01 X120.063564 Y104.505475 Z-0.125000
G01 X121.016177 Y104.368213 Z-0.125000
G03 X122.013184 Y104.012790 Z-0.125000 I0.880243 J0.893118
G03 X124.090719 Y104.384488 Z-0.125000 I0.464625 J3.394912
G02 X125.948289 Y105.370357 Z-0.125000 I228.656182 J-428.589932
G02 X127.310291 Y105.786335 Z-0.125000 I1.659127 J-2.994607
G02 X128.710762 Y105.504230 Z-0.125000 I0.219989 J-2.525171
G02 X130.108971 Y104.762131 Z-0.125000 I-4.022478 J-9.267106
G03 X131.660739 Y104.429773 Z-0.125000 I1.223644 J1.924401
G01 X131.764373 Y104.239721 Z-0.125000
G02 X131.089276 Y104.040035 Z-0.125000 I-0.633549 J0.900875
G02 X129.200268 Y104.280964 Z-0.125000 I-0.622720 J2.643418
G03 X127.441591 Y104.950261 Z-0.125000 I-3.621732 J-6.871399
G03 X126.277974 Y104.666003 Z-0.125000 I-0.312972 J-1.242620
G02 X125.344843 Y103.928224 Z-0.125000 I-6.941472 J7.820465
G02 X123.153920 Y102.647130 Z-0.125000 I-5.588433 J7.043318
G02 X120.665558 Y102.291196 Z-0.125000 I-1.954695 J4.789297
G02 X117.969659 Y103.233681 Z-0.125000 I0.366616 J5.375611
G02 X116.033080 Y105.453440 Z-0.125000 I3.398691 J4.919755
G01 X116.033080 Y105.453440 Z-0.125000
G00 Z5.000000

(End cutting path id: path1060)


(Start cutting path id: path1064)
(ZZZanette)
(Change tool to Default tool)

G00 Z5.000000
G00 X129.211800 Y106.985070

G01 Z-0.125000 F100.0(Penetrate)
G01 X128.514766 Y107.542440 Z-0.125000 F400.000000
G02 X127.825127 Y108.008403 Z-0.125000 I0.216266 J1.063405
G01 X127.936971 Y108.762769 Z-0.125000
G01 X128.583514 Y108.605774 Z-0.125000
G01 X128.506730 Y108.433013 Z-0.125000
G01 X128.337620 Y108.485116 Z-0.125000
G01 X127.990429 Y107.986123 Z-0.125000
G01 X128.647328 Y107.769675 Z-0.125000
G01 X129.074486 Y108.382895 Z-0.125000
G01 X128.715261 Y109.039022 Z-0.125000
G01 X127.660476 Y109.149686 Z-0.125000
G01 X127.140764 Y108.169378 Z-0.125000
G01 X126.750218 Y108.337970 Z-0.125000
G01 X126.991389 Y108.916711 Z-0.125000
G01 X126.509144 Y108.711095 Z-0.125000
G01 X126.559507 Y108.032550 Z-0.125000
G01 X127.068395 Y107.427226 Z-0.125000
G03 X127.783887 Y107.343495 Z-0.125000 I0.596949 J2.002149
G02 X128.639831 Y107.032525 Z-0.125000 I-0.310973 J-2.189427
G02 X129.350314 Y106.432227 Z-0.125000 I-1.690707 J-2.721635
G01 X129.620848 Y106.579908 Z-0.125000
G01 X129.211800 Y106.985070 Z-0.125000
G01 X129.211800 Y106.985070 Z-0.125000
G00 Z5.000000

(End cutting path id: path1064)


(Start cutting path id: path1036)
(ZZZanette)
(Change tool to Default tool)

G00 Z5.000000
G00 X138.278560 Y95.904340

G01 Z-0.125000 F100.0(Penetrate)
G02 X137.327560 Y95.591525 Z-0.125000 I-1.061899 J1.626324 F400.000000
G01 X136.455750 Y96.206334 Z-0.125000
G02 X136.594107 Y97.616112 Z-0.125000 I1.237363 J0.590242
G02 X137.849054 Y98.108025 Z-0.125000 I1.022870 J-0.762761
G02 X138.667386 Y99.643689 Z-0.125000 I1.636473 J0.113819
G02 X140.300316 Y99.866773 Z-0.125000 I1.090651 J-1.895439
G02 X141.422754 Y99.134419 Z-0.125000 I-0.009581 J-1.241011
G03 X142.001967 Y98.582614 Z-0.125000 I0.965953 J0.434038
G02 X143.923432 Y98.874968 Z-0.125000 I1.244642 J-1.719790
G02 X145.296788 Y97.403187 Z-0.125000 I-0.674895 J-2.006409
G02 X145.283250 Y95.870360 Z-0.125000 I-1.955104 J-0.749205
G02 X144.045079 Y95.036987 Z-0.125000 I-1.235048 J0.498469
G02 X142.732824 Y95.748883 Z-0.125000 I-0.258527 J1.088855
G01 X143.576353 Y96.796720 Z-0.125000
G01 X143.990770 Y96.361682 Z-0.125000
G01 X144.272608 Y96.346685 Z-0.125000
G01 X143.440767 Y97.365107 Z-0.125000
G01 X142.389297 Y96.607064 Z-0.125000
G03 X142.512135 Y95.186076 Z-0.125000 I1.355420 J-0.598634
G03 X143.754600 Y94.616492 Z-0.125000 I1.083046 J0.722587
G02 X145.048815 Y94.429909 Z-0.125000 I0.520520 J-0.971349
G03 X146.403417 Y93.946849 Z-0.125000 I1.196060 J1.213178
G03 X149.151319 Y94.418476 Z-0.125000 I0.624997 J4.599540
G03 X151.608905 Y95.720698 Z-0.125000 I-51.888363 J100.895116
G02 X153.519288 Y96.348914 Z-0.125000 I2.474592 J-4.306332
G02 X155.503099 Y95.973568 Z-0.125000 I0.387006 J-3.384738
G02 X157.402694 Y94.965286 Z-0.125000 I-5.468382 J-12.595944
G03 X159.510886 Y94.513622 Z-0.125000 I1.662714 J2.614960
G01 X159.651646 Y94.255461 Z-0.125000
G02 X158.734399 Y93.984142 Z-0.125000 I-0.860919 J1.224382
G02 X156.167882 Y94.311292 Z-0.125000 I-0.846230 J3.592106
G03 X153.778481 Y95.220767 Z-0.125000 I-4.927187 J-9.351369
G03 X152.197598 Y94.834501 Z-0.125000 I-0.425127 J-1.688265
G02 X150.929928 Y93.832118 Z-0.125000 I-9.432039 J10.625515
G02 X147.953265 Y92.091711 Z-0.125000 I-7.592463 J9.569850
G02 X144.572585 Y91.608041 Z-0.125000 I-2.656067 J6.508253
G02 X140.909745 Y92.888436 Z-0.125000 I0.498242 J7.304685
G02 X138.278560 Y95.904340 Z-0.125000 I4.615970 J6.682865
G01 X138.278560 Y95.904340 Z-0.125000
G00 Z5.000000

(End cutting path id: path1036)


(Start cutting path id: path1032)
(ZZZanette)
(Change tool to Default tool)

G00 Z5.000000
G00 X132.204010 Y92.631100

G01 Z-0.125000 F100.0(Penetrate)
G02 X133.272276 Y93.893062 Z-0.125000 I1.214027 J0.055443 F400.000000
G02 X134.594488 Y92.878889 Z-0.125000 I0.142885 J-1.182710
G02 X134.031036 Y91.304494 Z-0.125000 I-1.486315 J-0.356094
G02 X132.568355 Y90.781716 Z-0.125000 I-1.561548 J2.061451
G02 X130.767502 Y91.065523 Z-0.125000 I-0.505034 J2.650804
G02 X129.603677 Y92.563946 Z-0.125000 I1.144047 J2.089764
G02 X129.758688 Y93.999117 Z-0.125000 I9.833959 J-0.336200
G03 X129.308807 Y95.375262 Z-0.125000 I-1.493565 J0.273341
G02 X130.116783 Y97.020231 Z-0.125000 I1.508199 J0.280119
G02 X131.857810 Y96.983036 Z-0.125000 I0.836095 J-1.629687
G03 X133.788317 Y96.365695 Z-0.125000 I2.099345 J3.237781
G03 X135.598611 Y97.509947 Z-0.125000 I0.082085 J1.874273
G03 X135.449584 Y99.327674 Z-0.125000 I-1.313190 J0.807311
G03 X133.774920 Y99.510651 Z-0.125000 I-0.936100 J-0.812474
G02 X134.974176 Y98.442537 Z-0.125000 I-0.062083 J-1.277013
G02 X134.101241 Y97.047215 Z-0.125000 I-1.226848 J-0.203186
G02 X132.277912 Y97.684660 Z-0.125000 I-0.550242 J1.352524
G02 X132.693984 Y99.630500 Z-0.125000 I1.311906 J0.736883
G02 X133.475337 Y100.027113 Z-0.125000 I1.858654 J-2.693704
G01 X133.863549 Y100.925631 Z-0.125000
G02 X135.104334 Y102.582749 Z-0.125000 I1.810381 J-0.062458
G02 X136.613800 Y102.699932 Z-0.125000 I0.991701 J-2.993887
G02 X138.490214 Y104.494758 Z-0.125000 I2.642259 J-0.884101
G02 X140.918025 Y103.753033 Z-0.125000 I0.641573 J-2.244221
G03 X142.584841 Y103.609483 Z-0.125000 I1.187719 J4.042286
G02 X144.193935 Y102.539123 Z-0.125000 I0.170374 J-1.488546
G02 X144.004403 Y100.688611 Z-0.125000 I-1.295853 J-0.802239
G02 X142.329001 Y100.828205 Z-0.125000 I-0.781795 J0.740775
G01 X142.552992 Y102.031518 Z-0.125000
G01 X142.781210 Y102.577936 Z-0.125000
G03 X141.279978 Y102.154176 Z-0.125000 I-0.481313 J-1.165926
G03 X141.294713 Y100.495064 Z-0.125000 I1.126357 J-0.819618
G03 X143.120982 Y99.688639 Z-0.125000 I1.495737 J0.916177
G03 X144.483905 Y101.181405 Z-0.125000 I-0.318376 J1.659254
G02 X145.348171 Y102.496100 Z-0.125000 I1.490633 J-0.038498
G02 X146.792711 Y101.942951 Z-0.125000 I0.453234 J-0.979158
G02 X148.666591 Y101.948490 Z-0.125000 I0.940414 J-1.172592
G02 X149.130469 Y100.071925 Z-0.125000 I-0.980990 J-1.238113
G03 X150.246645 Y99.262697 Z-0.125000 I4.464673 J4.983774
G02 X150.760430 Y97.707419 Z-0.125000 I-0.616214 J-1.066069
G02 X149.340013 Y96.464391 Z-0.125000 I-1.446912 J0.220323
G02 X148.130269 Y97.748858 Z-0.125000 I-0.021575 J1.191597
G01 X149.016653 Y98.197639 Z-0.125000
G02 X149.586545 Y97.557771 Z-0.125000 I-0.481051 J-1.002162
G01 X149.822571 Y99.028611 Z-0.125000
G03 X148.411172 Y99.414635 Z-0.125000 I-0.973974 J-0.787862
G03 X147.097482 Y97.753502 Z-0.125000 I0.608614 J-1.831341
G03 X148.066497 Y95.857785 Z-0.125000 I1.993517 J-0.176513
G03 X149.980507 Y96.187207 Z-0.125000 I0.633475 J2.044484
G02 X151.573673 Y97.284824 Z-0.125000 I15.203706 J-20.362826
G02 X153.761325 Y97.984814 Z-0.125000 I2.203182 J-3.117034
G02 X155.906098 Y97.050404 Z-0.125000 I0.011806 J-2.901583
G03 X157.324035 Y95.751182 Z-0.125000 I12.822812 J12.571112
G03 X159.028630 Y94.909347 Z-0.125000 I2.654568 J3.228422
G02 X156.455440 Y95.840160 Z-0.125000 I-0.122089 J3.684632
G03 X153.903704 Y96.851446 Z-0.125000 I-2.661171 J-2.989833
G03 X151.792320 Y96.502375 Z-0.125000 I-0.581315 J-3.043837
G03 X150.002516 Y95.365650 Z-0.125000 I10.592585 J-18.655722
G02 X147.924584 Y94.526168 Z-0.125000 I-3.519711 J5.720736
G02 X145.687251 Y94.912190 Z-0.125000 I-0.645340 J2.936351
G01 X145.569320 Y95.944207 Z-0.125000
G01 X145.742058 Y97.300557 Z-0.125000
G03 X144.438496 Y99.042630 Z-0.125000 I-2.824605 J-0.754849
G03 X142.313339 Y99.024251 Z-0.125000 I-1.047783 J-1.720025
G02 X140.989285 Y100.090582 Z-0.125000 I9.946778 J13.706040
G03 X139.272918 Y100.448594 Z-0.125000 I-1.168968 J-1.310943
G03 X137.750476 Y99.272373 Z-0.125000 I0.364343 J-2.044985
G02 X136.487098 Y97.873031 Z-0.125000 I-2.870727 J1.321816
G03 X136.042951 Y95.973092 Z-0.125000 I1.111172 J-1.261641
G03 X137.756571 Y95.208624 Z-0.125000 I1.257570 J0.516103
G02 X139.103933 Y94.132957 Z-0.125000 I-0.252535 J-1.697995
G03 X140.503554 Y92.760981 Z-0.125000 I2.217943 J0.862735
G03 X142.363921 Y91.818145 Z-0.125000 I4.368365 J6.312666
G03 X144.392008 Y91.447848 Z-0.125000 I2.220989 J6.425199
G02 X141.577765 Y91.488930 Z-0.125000 I-0.301681 J75.747179
G02 X138.880105 Y92.552619 Z-0.125000 I0.143239 J4.315934
G03 X136.300667 Y94.218290 Z-0.125000 I-15.104670 J-20.560830
G03 X133.298492 Y94.789226 Z-0.125000 I-2.347635 J-4.165967
G03 X132.102042 Y94.103450 Z-0.125000 I0.208400 J-1.750179
G03 X132.204010 Y92.631100 Z-0.125000 I0.894532 J-0.677755
G01 X132.204010 Y92.631100 Z-0.125000
G00 Z5.000000

(End cutting path id: path1032)


(Start cutting path id: path1040)
(ZZZanette)
(Change tool to Default tool)

G00 Z5.000000
G00 X156.183620 Y97.985360

G01 Z-0.125000 F100.0(Penetrate)
G03 X155.574728 Y98.590012 Z-0.125000 I-1.339056 J-0.739539 F400.000000
G03 X154.826348 Y98.947225 Z-0.125000 I-3.787995 J-6.973484
G02 X154.564140 Y99.063302 Z-0.125000 I270.334009 J611.017021
G01 X154.348712 Y99.272015 Z-0.125000
G01 X154.294616 Y100.035349 Z-0.125000
G01 X154.876024 Y100.493569 Z-0.125000
G01 X155.219747 Y100.397779 Z-0.125000
G01 X155.352074 Y100.050964 Z-0.125000
G01 X155.299488 Y99.856886 Z-0.125000
G01 X155.122032 Y99.910579 Z-0.125000
G01 X154.841176 Y100.041525 Z-0.125000
G01 X154.619720 Y99.789490 Z-0.125000
G01 X154.640807 Y99.317161 Z-0.125000
G01 X154.982648 Y99.007691 Z-0.125000
G01 X155.402249 Y99.044388 Z-0.125000
G01 X155.757331 Y99.299345 Z-0.125000
G01 X155.970517 Y99.943783 Z-0.125000
G01 X155.714607 Y100.572029 Z-0.125000
G03 X154.926976 Y101.012424 Z-0.125000 I-0.900363 J-0.685744
G03 X154.063192 Y100.840278 Z-0.125000 I-0.150140 J-1.499833
G03 X153.672947 Y100.534738 Z-0.125000 I0.554963 J-1.110802
G03 X153.422400 Y100.094398 Z-0.125000 I1.030012 J-0.877509
G01 X153.362707 Y99.774096 Z-0.125000
G01 X153.324201 Y99.454349 Z-0.125000
G01 X153.085547 Y99.625764 Z-0.125000
G01 X153.006839 Y99.955794 Z-0.125000
G01 X153.076280 Y100.301381 Z-0.125000
G03 X153.151308 Y100.643692 Z-0.125000 I-1.016776 J0.402236
G01 X152.940178 Y100.688743 Z-0.125000
G03 X152.745487 Y100.480984 Z-0.125000 I2.649064 J-2.677542
G03 X152.528755 Y99.858782 Z-0.125000 I0.847228 J-0.643962
G03 X152.637897 Y99.209145 Z-0.125000 I1.772219 J-0.036247
G01 X152.897907 Y98.759471 Z-0.125000
G01 X153.343187 Y98.539552 Z-0.125000
G03 X153.817999 Y98.480345 Z-0.125000 I0.453576 J1.703993
G02 X154.292715 Y98.464080 Z-0.125000 I0.061806 J-5.131837
G02 X155.380962 Y98.059857 Z-0.125000 I-0.502961 J-3.021072
G02 X156.301750 Y97.321491 Z-0.125000 I-2.373094 J-3.902712
G01 X156.398896 Y97.161115 Z-0.125000
G01 X156.519901 Y97.232425 Z-0.125000
G03 X156.382100 Y97.624782 Z-0.125000 I-1.824933 J-0.420563
G03 X156.183620 Y97.985360 Z-0.125000 I-3.423725 J-1.649673
G01 X156.183620 Y97.985360 Z-0.125000
G00 Z5.000000

(End cutting path id: path1040)


(Start cutting path id: path8218)
(ZZZanette)
(Change tool to Default tool)

G00 Z5.000000
G00 X156.298769 Y122.365449

G01 Z-0.125000 F100.0(Penetrate)
G01 X144.852860 Y122.365449 Z-0.125000 F400.000000
G01 X144.852860 Y126.553772 Z-0.125000
G01 X148.055612 Y126.553772 Z-0.125000
G01 X148.055612 Y141.799912 Z-0.125000
G01 X144.852860 Y141.799912 Z-0.125000
G01 X144.852860 Y145.988235 Z-0.125000
G01 X156.298769 Y145.988235 Z-0.125000
G01 X156.298769 Y141.799912 Z-0.125000
G01 X153.096013 Y141.799912 Z-0.125000
G01 X153.096013 Y126.553772 Z-0.125000
G01 X156.298769 Y126.553772 Z-0.125000
G01 X156.298769 Y122.365449 Z-0.125000
G00 Z5.000000

(End cutting path id: path8218)


(Start cutting path id: path8216)
(ZZZanette)
(Change tool to Default tool)

G00 Z5.000000
G00 X143.500881 Y122.365449

G01 Z-0.125000 F100.0(Penetrate)
G01 X137.344768 Y122.365449 Z-0.125000 F400.000000
G01 X132.015595 Y131.027667 Z-0.125000
G01 X129.692284 Y131.027667 Z-0.125000
G01 X129.692284 Y122.365449 Z-0.125000
G01 X124.678137 Y122.365449 Z-0.125000
G01 X124.678137 Y145.988235 Z-0.125000
G01 X133.131307 Y145.988235 Z-0.125000
G02 X134.857437 Y145.919414 Z-0.125000 I-0.000000 J-21.681414
G02 X136.110918 Y145.750263 Z-0.125000 I-0.925358 J-11.586263
G02 X137.300374 Y145.379569 Z-0.125000 I-1.030714 J-5.400948
G02 X138.447354 Y144.719045 Z-0.125000 I-2.505715 J-5.677218
G02 X139.423155 Y143.817245 Z-0.125000 I-3.178869 J-4.418558
G02 X140.193118 Y142.656614 Z-0.125000 I-4.565276 J-3.864320
G02 X140.658465 Y141.356317 Z-0.125000 I-4.424231 J-2.316748
G02 X140.849421 Y139.499505 Z-0.125000 I-8.932085 J-1.856812
G02 X140.553422 Y136.965255 Z-0.125000 I-10.996730 J-0.000000
G02 X139.838715 Y135.231854 Z-0.125000 I-5.778499 J1.368520
G02 X138.662681 Y133.762659 Z-0.125000 I-6.154171 J3.720893
G02 X136.977237 Y132.487232 Z-0.125000 I-6.279532 J6.546891
G01 X143.500881 Y122.365449 Z-0.125000
G00 Z5.000000

(End cutting path id: path8216)


(Start cutting path id: path1160)
(ZZZanette)
(Change tool to Default tool)

G00 Z5.000000
G00 X164.075196 Y43.359888

G01 Z-0.125000 F100.0(Penetrate)
G02 X155.861853 Y47.198381 Z-0.125000 I24.144945 J62.370113 F400.000000
G03 X151.825923 Y49.216322 Z-0.125000 I-26.390799 J-47.737267
G03 X148.747343 Y46.927886 Z-0.125000 I-0.902159 J-2.001335
G02 X148.127189 Y43.529226 Z-0.125000 I-5.585230 J-0.736771
G01 X146.757216 Y43.360224 Z-0.125000
G03 X143.145214 Y46.863514 Z-0.125000 I-29.581031 J-26.885289
G03 X139.615782 Y47.609817 Z-0.125000 I-2.449320 J-2.864489
G02 X134.141423 Y48.350491 Z-0.125000 I-1.919221 J6.415912
G03 X126.320509 Y50.914684 Z-0.125000 I-9.087666 J-14.508641
G03 X116.938907 Y48.350491 Z-0.125000 I-1.076327 J-14.506357
G02 X107.570081 Y46.545636 Z-0.125000 I-6.719270 J9.660314
G02 X99.900278 Y50.367923 Z-0.125000 I4.139551 J17.912682
G03 X96.430252 Y51.479629 Z-0.125000 I-3.097069 J-3.695605
G03 X92.086936 Y50.492967 Z-0.125000 I1.184428 J-15.266922
G03 X87.527209 Y48.428965 Z-0.125000 I16.217032 J-41.894748
G02 X83.691342 Y46.863514 Z-0.125000 I-10.281004 J19.709526
G02 X80.808347 Y46.727611 Z-0.125000 I-1.710928 J5.647661
G02 X79.909125 Y47.322830 Z-0.125000 I0.285317 J1.407895
G02 X79.141617 Y48.506690 Z-0.125000 I22.265340 J15.275571
G03 X77.074607 Y50.538046 Z-0.125000 I-5.095160 J-3.117266
G03 X73.714362 Y50.792367 Z-0.125000 I-1.940375 J-3.311466
G03 X64.272877 Y46.697651 Z-0.125000 I62.908001 J-157.983908
G03 X54.666642 Y42.073667 Z-0.125000 I248.062646 J-527.635538
G02 X53.279689 Y42.357844 Z-0.125000 I-0.510343 J1.035886
G01 X53.456310 Y43.456909 Z-0.125000
G02 X60.194697 Y47.437830 Z-0.125000 I175.475412 J-289.328596
G03 X67.174241 Y51.556646 Z-0.125000 I-182.395155 J317.050955
G03 X68.552800 Y53.456613 Z-0.125000 I-1.564501 J2.585259
G03 X68.609946 Y54.308246 Z-0.125000 I-2.582064 J0.600994
G03 X68.456638 Y54.858377 Z-0.125000 I-1.613574 J-0.153237
G00 Z5.000000

(End cutting path id: path1160)


(Footer)
M5
G00 X0.0000 Y0.0000
M2
(Using default footer. To add your own footer create file "footer" in the output dir.)
(end)
%