%
(Header)
(Generated by gcodetools from Inkscape.)
(Using default header. To add your own header create file "header" in the output dir.)
M3
(Header end.)
G21 (All units in mm)

(Start cutting path id: rect5863)
(ZZZanette)
(Change tool to Default tool)

G00 Z5.000000
G00 X26.264786 Y206.428954

G01 Z-0.125000 F100.0(Penetrate)
G01 X26.264786 Y206.205232 Z-0.125000 F400.000000
G01 X26.264786 Y31.632670 Z-0.125000
G01 X185.189940 Y31.632670 Z-0.125000
G01 X185.189940 Y206.428954 Z-0.125000
G01 X26.264786 Y206.428954 Z-0.125000
G00 Z5.000000

(End cutting path id: rect5863)


(Start cutting path id: rect5863)
(ZZZanette)
(Change tool to Default tool)

G00 Z5.000000
G00 X26.695465 Y205.981511

G01 Z-0.125000 F100.0(Penetrate)
G01 X184.759260 Y205.981511 Z-0.125000 F400.000000
G01 X184.759260 Y32.080110 Z-0.125000
G01 X26.695465 Y32.080110 Z-0.125000
G01 X26.695465 Y205.981511 Z-0.125000
G00 Z5.000000

(End cutting path id: rect5863)


(Start cutting path id: path8191)
(ZZZanette)
(Change tool to Default tool)

G00 Z5.000000
G00 X46.916502 Y196.386671

G01 Z-0.125000 F100.0(Penetrate)
G03 X46.692901 Y197.539482 Z-0.125000 I-3.083555 J0.000000 F400.000000
G03 X46.113830 Y198.377984 Z-0.125000 I-2.153640 J-0.868104
G03 X45.241346 Y198.907785 Z-0.125000 I-1.691493 J-1.802262
G03 X44.005114 Y199.118555 Z-0.125000 I-1.236232 J-3.520072
G03 X43.520330 Y199.083084 Z-0.125000 I0.000000 J-3.330577
G03 X42.998373 Y198.970441 Z-0.125000 I0.585022 J-3.976433
G03 X42.511328 Y198.787285 Z-0.125000 I0.999769 J-3.397732
G03 X42.073261 Y198.542555 Z-0.125000 I1.382680 J-2.989431
G03 X41.720456 Y198.225245 Z-0.125000 I1.189221 J-1.677037
G03 X41.420240 Y197.801984 Z-0.125000 I1.844209 J-1.626187
G03 X41.231241 Y197.338900 Z-0.125000 I1.555937 J-0.905137
G03 X41.161752 Y196.781643 Z-0.125000 I2.199690 J-0.557258
G03 X41.295683 Y195.858863 Z-0.125000 I3.245933 J0.000000
G03 X41.610704 Y195.267587 Z-0.125000 I1.606525 J0.476371
G03 X42.126169 Y194.790674 Z-0.125000 I2.256592 J1.921983
G03 X43.107212 Y194.181416 Z-0.125000 I4.708573 J6.487395
G03 X43.491214 Y193.990260 Z-0.125000 I6.020183 J11.612287
G03 X44.141161 Y193.687703 Z-0.125000 I15.743843 J32.971182
G03 X44.810083 Y193.413638 Z-0.125000 I16.437782 J39.167098
G03 X45.746505 Y193.045874 Z-0.125000 I30.541916 J76.391617
G03 X46.323706 Y193.960507 Z-0.125000 I-8.744423 J6.157825
G03 X46.644410 Y194.642216 Z-0.125000 I-4.523112 J2.544143
G03 X46.837270 Y195.364580 Z-0.125000 I-3.292657 J1.266019
G03 X46.916502 Y196.386671 Z-0.125000 I-6.552905 J1.022092
G01 X46.916502 Y196.386671 Z-0.125000
G00 Z5.000000

(End cutting path id: path8191)


(Start cutting path id: path8191)
(ZZZanette)
(Change tool to Default tool)

G00 Z5.000000
G00 X47.338243 Y184.784396

G01 Z-0.125000 F100.0(Penetrate)
G03 X47.186556 Y185.915877 Z-0.125000 I-4.295888 J0.000000 F400.000000
G03 X46.848478 Y186.578225 Z-0.125000 I-1.758479 J-0.480113
G03 X46.287976 Y187.100705 Z-0.125000 I-2.093159 J-1.683595
G03 X44.834997 Y187.977078 Z-0.125000 I-7.515641 J-10.817860
G03 X44.378620 Y188.208615 Z-0.125000 I-3.710457 J-6.748042
G03 X43.528953 Y188.585993 Z-0.125000 I-10.739897 J-23.035679
G02 X42.673630 Y188.952097 Z-0.125000 I38.144000 J90.297595
G02 X42.086865 Y189.211364 Z-0.125000 I18.540341 J42.753574
G03 X41.552808 Y188.534085 Z-0.125000 I4.467903 J-4.072297
G03 X41.025708 Y187.647936 Z-0.125000 I7.148009 J-4.851622
G03 X40.686901 Y186.713007 Z-0.125000 I3.557845 J-1.818174
G03 X40.563151 Y185.607254 Z-0.125000 I4.878303 J-1.105753
G03 X40.847656 Y184.012440 Z-0.125000 I4.612179 J-0.000000
G03 X41.569892 Y182.875370 Z-0.125000 I2.992255 J1.102691
G03 X42.703967 Y182.149244 Z-0.125000 I2.289379 J2.326917
G03 X44.222789 Y181.871486 Z-0.125000 I1.518822 J4.013689
G03 X44.654255 Y181.902638 Z-0.125000 I-0.000000 J3.003502
G03 X45.243134 Y182.019599 Z-0.125000 I-0.831096 J5.725387
G03 X45.803104 Y182.233631 Z-0.125000 I-0.894616 J3.180114
G03 X46.249874 Y182.513311 Z-0.125000 I-1.124506 J2.293008
G03 X46.696111 Y182.930137 Z-0.125000 I-2.002497 J2.591062
G03 X47.038942 Y183.401999 Z-0.125000 I-2.234089 J1.983653
G03 X47.247539 Y183.936810 Z-0.125000 I-1.566816 J0.919203
G03 X47.338243 Y184.784396 Z-0.125000 I-3.914792 J0.847585
G01 X47.338243 Y184.784396 Z-0.125000
G00 Z5.000000

(End cutting path id: path8191)


(Start cutting path id: path8191)
(ZZZanette)
(Change tool to Default tool)

G00 Z5.000000
G00 X52.535204 Y185.064168

G01 Z-0.125000 F100.0(Penetrate)
G02 X51.919161 Y182.079634 Z-0.125000 I-7.537583 J0.000000 F400.000000
G02 X50.236024 Y179.732058 Z-0.125000 I-6.218809 J2.681520
G02 X47.716826 Y178.263660 Z-0.125000 I-4.720003 J5.202508
G02 X43.950697 Y177.658459 Z-0.125000 I-3.766129 J11.415590
G02 X41.733073 Y177.818763 Z-0.125000 I-0.000000 J15.419365
G02 X40.100592 Y178.218001 Z-0.125000 I1.266988 J8.717907
G02 X38.580605 Y178.918138 Z-0.125000 I2.865159 J8.220221
G02 X37.447695 Y179.764971 Z-0.125000 I3.132588 J5.372074
G02 X36.544710 Y180.824219 Z-0.125000 I4.305931 J4.585217
G02 X35.910374 Y182.036056 Z-0.125000 I5.030233 J3.405017
G02 X35.548679 Y183.359492 Z-0.125000 I6.877027 J2.590639
G02 X35.420610 Y184.833769 Z-0.125000 I8.421607 J1.474277
G02 X35.657229 Y186.609120 Z-0.125000 I6.778516 J0.000000
G02 X36.304910 Y188.092278 Z-0.125000 I5.341511 J-1.449589
G02 X37.389560 Y189.316413 Z-0.125000 I4.219697 J-2.646283
G02 X39.393155 Y190.593762 Z-0.125000 I6.617075 J-8.169209
G01 X39.393155 Y190.692505 Z-0.125000
G02 X37.808259 Y191.863053 Z-0.125000 I3.793351 J6.794339
G02 X36.794674 Y193.177531 Z-0.125000 I3.817075 J3.991344
G02 X36.190622 Y194.733518 Z-0.125000 I5.395344 J2.989780
G02 X35.964794 Y196.649986 Z-0.125000 I8.019041 J1.916468
G02 X36.551053 Y199.288342 Z-0.125000 I6.229857 J0.000000
G02 X38.195947 Y201.422553 Z-0.125000 I5.609530 J-2.622430
G02 X40.618597 Y202.753373 Z-0.125000 I4.625041 J-5.548978
G02 X44.005114 Y203.282208 Z-0.125000 I3.386517 J-10.578754
G02 X47.582845 Y202.776573 Z-0.125000 I0.000000 J-12.910332
G02 X49.882304 Y201.587124 Z-0.125000 I-1.836653 J-6.368036
G02 X51.446063 Y199.630445 Z-0.125000 I-3.387785 J-4.310696
G02 X52.018228 Y197.094328 Z-0.125000 I-5.334580 J-2.536118
G02 X51.781493 Y195.420714 Z-0.125000 I-6.034240 J-0.000000
G02 X51.120324 Y193.983931 Z-0.125000 I-5.076046 J1.465344
G02 X50.064479 Y192.793492 Z-0.125000 I-4.632054 J3.044889
G02 X48.372194 Y191.663476 Z-0.125000 I-5.848553 J6.926478
G01 X48.372194 Y191.564733 Z-0.125000
G02 X50.287781 Y190.359212 Z-0.125000 I-3.560423 J-7.782262
G02 X51.514856 Y188.948049 Z-0.125000 I-3.738247 J-4.489671
G02 X52.256369 Y187.222911 Z-0.125000 I-5.373631 J-3.331669
G02 X52.535204 Y185.064168 Z-0.125000 I-8.217102 J-2.158742
G01 X52.535204 Y185.064168 Z-0.125000
G00 Z5.000000

(End cutting path id: path8191)


(Start cutting path id: path8193)
(ZZZanette)
(Change tool to Default tool)

G00 Z5.000000
G00 X64.711325 Y196.353757

G01 Z-0.125000 F100.0(Penetrate)
G03 X64.505597 Y197.631206 Z-0.125000 I-4.068972 J-0.000000 F400.000000
G03 X63.949468 Y198.657755 Z-0.125000 I-3.145339 J-1.040061
G03 X63.080536 Y199.383372 Z-0.125000 I-2.068678 J-1.594171
G03 X62.072032 Y199.628726 Z-0.125000 I-1.008505 J-1.950011
G03 X61.071809 Y199.389061 Z-0.125000 I0.000000 J-2.207006
G03 X60.194595 Y198.674212 Z-0.125000 I1.210716 J-2.381361
G03 X59.639646 Y197.647250 Z-0.125000 I2.573565 J-2.054123
G03 X59.432738 Y196.353757 Z-0.125000 I3.939704 J-1.293492
G03 X59.643137 Y195.029577 Z-0.125000 I4.272175 J0.000000
G03 X60.194595 Y194.016845 Z-0.125000 I3.004404 J0.979466
G03 X61.077549 Y193.326171 Z-0.125000 I2.081916 J1.751792
G03 X62.072032 Y193.095246 Z-0.125000 I0.994482 J2.025911
G03 X63.083279 Y193.337553 Z-0.125000 I-0.000000 J2.231332
G03 X63.949468 Y194.049759 Z-0.125000 I-1.176017 J2.313113
G03 X64.505597 Y195.076309 Z-0.125000 I-2.589210 J2.066610
G03 X64.711325 Y196.353757 Z-0.125000 I-3.863244 J1.277449
G01 X64.711325 Y196.353757 Z-0.125000
G00 Z5.000000

(End cutting path id: path8193)


(Start cutting path id: path8193)
(ZZZanette)
(Change tool to Default tool)

G00 Z5.000000
G00 X67.813174 Y196.353757

G01 Z-0.125000 F100.0(Penetrate)
G02 X67.358661 Y193.622918 Z-0.125000 I-8.431078 J0.000000 F400.000000
G02 X66.139809 Y191.465990 Z-0.125000 I-6.388212 J2.187054
G02 X64.244395 Y189.977871 Z-0.125000 I-4.432458 J3.694458
G02 X62.072032 Y189.474678 Z-0.125000 I-2.172364 J4.437622
G02 X59.897924 Y189.976766 Z-0.125000 I-0.000000 J4.958125
G02 X57.990650 Y191.465990 Z-0.125000 I2.556914 J5.240634
G02 X56.782262 Y193.620748 Z-0.125000 I5.193273 J4.328598
G02 X56.330889 Y196.353757 Z-0.125000 I8.048336 J2.733010
G02 X56.782262 Y199.086767 Z-0.125000 I8.499709 J0.000000
G02 X57.990650 Y201.241524 Z-0.125000 I6.401661 J-2.173841
G02 X59.897924 Y202.730748 Z-0.125000 I4.464187 J-3.751410
G02 X62.072032 Y203.232837 Z-0.125000 I2.174107 J-4.456037
G02 X64.257309 Y202.728169 Z-0.125000 I-0.000000 J-4.983599
G02 X66.153413 Y201.241524 Z-0.125000 I-2.522052 J-5.169183
G02 X67.361801 Y199.086767 Z-0.125000 I-5.193273 J-4.328598
G02 X67.813174 Y196.353757 Z-0.125000 I-8.048336 J-2.733010
G01 X67.813174 Y196.353757 Z-0.125000
G00 Z5.000000

(End cutting path id: path8193)


(Start cutting path id: path8195)
(ZZZanette)
(Change tool to Default tool)

G00 Z5.000000
G00 X98.219469 Y197.983013

G01 Z-0.125000 F100.0(Penetrate)
G01 X91.893327 Y197.983013 Z-0.125000 F400.000000
G01 X91.893327 Y178.218001 Z-0.125000
G01 X86.669157 Y178.218001 Z-0.125000
G01 X86.669157 Y197.983013 Z-0.125000
G01 X80.343015 Y197.983013 Z-0.125000
G01 X80.343015 Y202.722666 Z-0.125000
G01 X98.219469 Y202.722666 Z-0.125000
G01 X98.219469 Y197.983013 Z-0.125000
G00 Z5.000000

(End cutting path id: path8195)


(Start cutting path id: path8197)
(ZZZanette)
(Change tool to Default tool)

G00 Z5.000000
G00 X114.136855 Y184.257767

G01 Z-0.125000 F100.0(Penetrate)
G03 X114.779329 Y185.429863 Z-0.125000 I-5.745604 J3.911530 F400.000000
G03 X115.266039 Y186.890907 Z-0.125000 I-8.479638 J3.636369
G03 X115.528958 Y188.433774 Z-0.125000 I-11.407072 J2.737705
G03 X115.633363 Y190.478563 Z-0.125000 I-19.971450 J2.044789
G03 X115.510739 Y192.667402 Z-0.125000 I-19.596579 J-0.000000
G03 X115.211620 Y194.230788 Z-0.125000 I-10.266244 J-1.153908
G03 X114.681621 Y195.726441 Z-0.125000 I-10.298464 J-2.807626
G03 X114.109647 Y196.732271 Z-0.125000 I-5.194251 J-2.288211
G03 X113.325131 Y197.613326 Z-0.125000 I-4.206511 J-2.955789
G03 X112.504303 Y198.164041 Z-0.125000 I-2.402378 J-2.693619
G03 X111.580366 Y198.497086 Z-0.125000 I-1.921956 J-3.883790
G03 X110.626866 Y198.608384 Z-0.125000 I-0.953500 J-4.028731
G03 X109.658702 Y198.499453 Z-0.125000 I-0.000000 J-4.356947
G03 X108.749433 Y198.180498 Z-0.125000 I0.947046 J-4.155356
G03 X107.961408 Y197.653250 Z-0.125000 I1.577902 J-3.210844
G03 X107.144089 Y196.765185 Z-0.125000 I3.833675 J-4.348415
G03 X106.579330 Y195.788025 Z-0.125000 I4.070161 J-3.004171
G03 X106.028512 Y194.214331 Z-0.125000 I10.115195 J-4.423724
G03 X105.725767 Y192.586230 Z-0.125000 I11.147757 J-2.915117
G03 X105.606768 Y190.462105 Z-0.125000 I18.898198 J-2.124125
G03 X105.725142 Y188.288660 Z-0.125000 I20.012270 J-0.000000
G03 X106.014908 Y186.726338 Z-0.125000 I10.601462 J1.158229
G03 X106.541963 Y185.245404 Z-0.125000 I10.384269 J2.861440
G03 X107.116880 Y184.224854 Z-0.125000 I5.473444 J2.411203
G03 X107.885858 Y183.356329 Z-0.125000 I4.191585 J2.936480
G03 X108.708618 Y182.793084 Z-0.125000 I2.528632 J2.811148
G03 X109.647768 Y182.448234 Z-0.125000 I1.947306 J3.851974
G03 X110.626866 Y182.332285 Z-0.125000 I0.979098 J4.075864
G03 X111.605967 Y182.448234 Z-0.125000 I0.000000 J4.191831
G03 X112.545118 Y182.793084 Z-0.125000 I-1.008152 J4.196818
G03 X113.367111 Y183.371387 Z-0.125000 I-1.787765 J3.414446
G03 X114.136855 Y184.257767 Z-0.125000 I-3.560714 J3.869588
G01 X114.136855 Y184.257767 Z-0.125000
G00 Z5.000000

(End cutting path id: path8197)


(Start cutting path id: path8197)
(ZZZanette)
(Change tool to Default tool)

G00 Z5.000000
G00 X121.061601 Y190.462105

G01 Z-0.125000 F100.0(Penetrate)
G02 X120.249031 Y184.889251 Z-0.125000 I-19.516456 J-0.000000 F400.000000
G02 X118.286261 Y181.147371 Z-0.125000 I-10.528803 J3.137074
G02 X115.056610 Y178.658175 Z-0.125000 I-6.807905 J5.493253
G02 X110.613262 Y177.707832 Z-0.125000 I-4.443348 J9.912318
G02 X106.182923 Y178.656928 Z-0.125000 I0.000000 J10.814867
G02 X102.953871 Y181.147371 Z-0.125000 I3.588758 J7.991683
G02 X100.991100 Y184.889251 Z-0.125000 I8.566032 J6.878955
G02 X100.178530 Y190.462105 Z-0.125000 I18.703886 J5.572854
G02 X100.996332 Y196.080341 Z-0.125000 I19.707316 J0.000000
G02 X102.953871 Y199.793297 Z-0.125000 I10.324563 J-3.070795
G02 X106.182923 Y202.283741 Z-0.125000 I6.817811 J-5.501239
G02 X110.613262 Y203.232837 Z-0.125000 I4.430339 J-9.865768
G02 X115.032522 Y202.286115 Z-0.125000 I0.000000 J-10.787821
G02 X118.272656 Y199.793297 Z-0.125000 I-3.615827 J-8.051962
G02 X120.240301 Y196.077994 Z-0.125000 I-8.342148 J-6.796736
G02 X121.061601 Y190.462105 Z-0.125000 I-18.789521 J-5.615889
G01 X121.061601 Y190.462105 Z-0.125000
G00 Z5.000000

(End cutting path id: path8197)


(Start cutting path id: path8199)
(ZZZanette)
(Change tool to Default tool)

G00 Z5.000000
G00 X134.326096 Y186.742794

G01 Z-0.125000 F100.0(Penetrate)
G01 X123.945781 Y186.742794 Z-0.125000 F400.000000
G01 X123.945781 Y191.482447 Z-0.125000
G01 X134.326096 Y191.482447 Z-0.125000
G01 X134.326096 Y186.742794 Z-0.125000
G00 Z5.000000

(End cutting path id: path8199)


(Start cutting path id: path8201)
(ZZZanette)
(Change tool to Default tool)

G00 Z5.000000
G00 X154.637769 Y185.919940

G01 Z-0.125000 F100.0(Penetrate)
G02 X153.952854 Y182.606066 Z-0.125000 I-8.359334 J0.000000 F400.000000
G02 X152.093708 Y180.028287 Z-0.125000 I-6.769983 J2.923331
G02 X149.313796 Y178.428617 Z-0.125000 I-5.224192 J5.863315
G02 X145.209777 Y177.773659 Z-0.125000 I-4.104018 J12.530571
G02 X142.713437 Y177.922711 Z-0.125000 I-0.000000 J20.978975
G02 X140.815491 Y178.300288 Z-0.125000 I1.494771 J12.472642
G02 X138.983310 Y178.923734 Z-0.125000 I6.091511 J20.905651
G02 X137.319106 Y179.666228 Z-0.125000 I7.025237 J17.982437
G01 X137.319106 Y185.541424 Z-0.125000
G01 X137.890502 Y185.541424 Z-0.125000
G03 X139.622383 Y184.149380 Z-0.125000 I8.500567 J8.802433
G03 X141.509327 Y183.138683 Z-0.125000 I6.281809 J9.461182
G03 X143.561717 Y182.493837 Z-0.125000 I4.578395 J10.983380
G03 X145.373033 Y182.299368 Z-0.125000 I1.811316 J8.338222
G03 X145.848008 Y182.318075 Z-0.125000 I-0.000000 J6.039272
G03 X146.624657 Y182.398111 Z-0.125000 I-1.281431 J16.242860
G03 X147.386108 Y182.545010 Z-0.125000 I-0.766692 J6.021099
G03 X147.889886 Y182.727254 Z-0.125000 I-0.729290 J2.803402
G03 X148.449826 Y183.073217 Z-0.125000 I-1.556539 J3.145368
G03 X148.869418 Y183.467825 Z-0.125000 I-1.620850 J2.143851
G03 X149.142817 Y183.958184 Z-0.125000 I-0.972889 J0.863830
G03 X149.263951 Y184.784396 Z-0.125000 I-2.757099 J0.826211
G03 X149.115962 Y185.529846 Z-0.125000 I-1.951495 J-0.000000
G03 X148.692558 Y186.166796 Z-0.125000 I-1.826549 J-0.754974
G03 X148.068363 Y186.650365 Z-0.125000 I-1.845415 J-1.737433
G03 X147.046401 Y187.071937 Z-0.125000 I-2.393888 J-4.353703
G03 X145.898640 Y187.381430 Z-0.125000 I-9.653028 J-33.515461
G03 X144.624781 Y187.680852 Z-0.125000 I-10.306231 J-40.987284
G02 X143.373505 Y188.021472 Z-0.125000 I4.130613 J17.642509
G02 X142.243975 Y188.421420 Z-0.125000 I4.594893 J14.771826
G02 X139.914723 Y189.707298 Z-0.125000 I3.738072 J9.523738
G02 X138.557126 Y191.136848 Z-0.125000 I3.331272 J4.523007
G02 X137.756701 Y192.957737 Z-0.125000 I5.273401 J3.404449
G02 X137.441550 Y195.415701 Z-0.125000 I9.427648 J2.457964
G02 X138.114407 Y198.528095 Z-0.125000 I7.534836 J-0.000000
G02 X139.972007 Y200.994667 Z-0.125000 I6.452499 J-2.926666
G02 X142.740784 Y202.557781 Z-0.125000 I5.387736 J-6.309658
G02 X146.502217 Y203.167008 Z-0.125000 I3.761433 J-11.307133
G02 X148.487632 Y203.047359 Z-0.125000 I-0.000000 J-16.532470
G02 X150.447551 Y202.689752 Z-0.125000 I-1.991927 J-16.466655
G02 X152.372096 Y202.133043 Z-0.125000 I-4.537733 J-19.291924
G02 X153.835100 Y201.521295 Z-0.125000 I-4.048571 J-11.737478
G01 X153.835100 Y195.876500 Z-0.125000
G01 X153.277308 Y195.876500 Z-0.125000
G03 X151.963279 Y196.928466 Z-0.125000 I-6.240897 J-6.448942
G03 X150.270691 Y197.851356 Z-0.125000 I-6.462808 J-9.839298
G03 X148.458890 Y198.458861 Z-0.125000 I-3.808441 J-8.352682
G03 X146.651866 Y198.657755 Z-0.125000 I-1.807024 J-8.109262
G03 X146.001352 Y198.629121 Z-0.125000 I0.000000 J-7.403614
G03 X145.345825 Y198.542555 Z-0.125000 I0.670798 J-7.604942
G03 X144.721619 Y198.395729 Z-0.125000 I0.629542 J-4.076644
G03 X144.107805 Y198.147584 Z-0.125000 I1.336538 J-4.189321
G03 X143.624965 Y197.841986 Z-0.125000 I0.938309 J-2.016749
G03 X143.196296 Y197.390556 Z-0.125000 I1.686736 J-2.030935
G03 X142.914627 Y196.863001 Z-0.125000 I1.426387 J-1.100539
G03 X142.815368 Y196.255014 Z-0.125000 I1.812399 J-0.607987
G03 X142.990386 Y195.364354 Z-0.125000 I2.353776 J-0.000000
G03 X143.427576 Y194.757416 Z-0.125000 I1.479574 J0.604840
G03 X144.095596 Y194.356957 Z-0.125000 I1.617905 J1.941487
G03 X145.740357 Y193.819360 Z-0.125000 I4.688605 J11.559776
G02 X146.855474 Y193.537767 Z-0.125000 I-85.598452 J-341.321175
G02 X147.876282 Y193.276274 Z-0.125000 I-72.793092 J-286.291141
G02 X148.899435 Y192.979296 Z-0.125000 I-3.969159 J-15.585601
G02 X150.093831 Y192.552161 Z-0.125000 I-7.077077 J-21.673075
G02 X152.218376 Y191.376778 Z-0.125000 I-3.498778 J-8.831948
G02 X153.522192 Y190.034220 Z-0.125000 I-3.340867 J-4.548836
G02 X154.313955 Y188.351535 Z-0.125000 I-4.362109 J-3.080144
G02 X154.637769 Y185.919940 Z-0.125000 I-8.967795 J-2.431595
G01 X154.637769 Y185.919940 Z-0.125000
G00 Z5.000000

(End cutting path id: path8201)


(Start cutting path id: path8203)
(ZZZanette)
(Change tool to Default tool)

G00 Z5.000000
G00 X168.881793 Y187.664392

G01 Z-0.125000 F100.0(Penetrate)
G01 X166.392149 Y196.452500 Z-0.125000 F400.000000
G01 X163.902507 Y187.664392 Z-0.125000
G01 X168.881793 Y187.664392 Z-0.125000
G00 Z5.000000

(End cutting path id: path8203)


(Start cutting path id: path8203)
(ZZZanette)
(Change tool to Default tool)

G00 Z5.000000
G00 X176.949324 Y178.218001

G01 Z-0.125000 F100.0(Penetrate)
G01 X171.548295 Y178.218001 Z-0.125000 F400.000000
G01 X170.147022 Y183.171596 Z-0.125000
G01 X162.637279 Y183.171596 Z-0.125000
G01 X161.236003 Y178.218001 Z-0.125000
G01 X155.971021 Y178.218001 Z-0.125000
G01 X163.453555 Y202.722666 Z-0.125000
G01 X169.466790 Y202.722666 Z-0.125000
G01 X176.949324 Y178.218001 Z-0.125000
G00 Z5.000000

(End cutting path id: path8203)


(Start cutting path id: path8216)
(ZZZanette)
(Change tool to Default tool)

G00 Z5.000000
G00 X155.795115 Y165.274514

G01 Z-0.125000 F100.0(Penetrate)
G03 X155.706685 Y166.176164 Z-0.125000 I-4.640941 J-0.000000 F400.000000
G03 X155.482210 Y166.854396 Z-0.125000 I-2.830857 J-0.560667
G03 X155.075222 Y167.420223 Z-0.125000 I-1.759762 J-0.836480
G03 X154.407446 Y167.891197 Z-0.125000 I-1.859420 J-1.927505
G03 X153.860279 Y168.093430 Z-0.125000 I-1.218238 J-2.454772
G03 X153.169426 Y168.203880 Z-0.125000 I-0.965276 J-3.821867
G03 X152.461116 Y168.250965 Z-0.125000 I-1.245412 J-13.383816
G03 X151.523269 Y168.269710 Z-0.125000 I-0.937847 J-23.452016
G01 X149.632228 Y168.269710 Z-0.125000
G01 X149.632228 Y161.670402 Z-0.125000
G01 X151.237573 Y161.670402 Z-0.125000
G03 X152.485359 Y161.714453 Z-0.125000 I-0.000000 J17.694411
G03 X153.332682 Y161.818515 Z-0.125000 I-0.583336 J8.251481
G03 X154.124275 Y162.071568 Z-0.125000 I-0.531700 J3.027894
G03 X154.747562 Y162.493257 Z-0.125000 I-1.085042 J2.275247
G03 X155.228788 Y163.046501 Z-0.125000 I-2.468550 J2.633123
G03 X155.536627 Y163.612344 Z-0.125000 I-2.276518 J1.605166
G03 X155.716190 Y164.253381 Z-0.125000 I-2.594637 J1.072459
G03 X155.795115 Y165.274514 Z-0.125000 I-6.566245 J1.021132
G01 X155.795115 Y165.274514 Z-0.125000
G00 Z5.000000

(End cutting path id: path8216)


(Start cutting path id: path8214)
(ZZZanette)
(Change tool to Default tool)

G00 Z5.000000
G00 X139.537607 Y157.144693

G01 Z-0.125000 F100.0(Penetrate)
G02 X138.854493 Y152.874182 Z-0.125000 I-13.690176 J0.000000 F400.000000
G02 X137.252034 Y150.183326 Z-0.125000 I-6.821080 J2.239514
G02 X134.655864 Y148.484861 Z-0.125000 I-4.853604 J4.585515
G02 X130.517755 Y147.764128 Z-0.125000 I-4.138109 J11.519183
G02 X126.379643 Y148.484861 Z-0.125000 I-0.000000 J12.239928
G02 X123.783473 Y150.183326 Z-0.125000 I2.257432 J6.283979
G02 X122.190131 Y152.871227 Z-0.125000 I5.243711 J4.924587
G02 X121.511504 Y157.128233 Z-0.125000 I13.012725 J4.257006
G01 X121.511504 Y172.778962 Z-0.125000
G01 X126.762882 Y172.778962 Z-0.125000
G01 X126.762882 Y157.490292 Z-0.125000
G03 X127.045352 Y155.029205 Z-0.125000 I10.862659 J-0.000000
G03 X127.647182 Y153.688694 Z-0.125000 I3.722568 J0.865917
G03 X128.724897 Y152.811576 Z-0.125000 I2.109834 J1.491697
G03 X130.517755 Y152.437954 Z-0.125000 I1.792858 J4.114787
G03 X132.297006 Y152.796828 Z-0.125000 I-0.000000 J4.590090
G03 X133.374720 Y153.639324 Z-0.125000 I-1.010604 J2.403306
G03 X133.988616 Y154.940820 Z-0.125000 I-2.771502 J2.102805
G03 X134.286229 Y157.490292 Z-0.125000 I-10.771086 J2.549472
G01 X134.286229 Y172.778962 Z-0.125000
G01 X139.537607 Y172.778962 Z-0.125000
G01 X139.537607 Y157.144693 Z-0.125000
G00 Z5.000000

(End cutting path id: path8214)


(Start cutting path id: path8212)
(ZZZanette)
(Change tool to Default tool)

G00 Z5.000000
G00 X118.205584 Y155.976236

G01 Z-0.125000 F100.0(Penetrate)
G02 X117.520669 Y152.662365 Z-0.125000 I-8.359327 J0.000000 F400.000000
G02 X115.661523 Y150.084583 Z-0.125000 I-6.770000 J2.923338
G02 X112.881611 Y148.484915 Z-0.125000 I-5.224189 J5.863319
G02 X108.777592 Y147.829958 Z-0.125000 I-4.104019 J12.530591
G02 X106.281251 Y147.979010 Z-0.125000 I-0.000000 J20.979107
G02 X104.383306 Y148.356584 Z-0.125000 I1.494770 J12.472711
G02 X102.551125 Y148.980030 Z-0.125000 I6.091454 J20.905456
G02 X100.886921 Y149.722527 Z-0.125000 I7.025198 J17.982293
G01 X100.886921 Y155.597720 Z-0.125000
G01 X101.458317 Y155.597720 Z-0.125000
G03 X103.190201 Y154.205676 Z-0.125000 I8.500577 J8.802459
G03 X105.077142 Y153.194982 Z-0.125000 I6.281782 J9.461154
G03 X107.129532 Y152.550136 Z-0.125000 I4.578395 J10.983380
G03 X108.940848 Y152.355668 Z-0.125000 I1.811316 J8.338222
G03 X109.415822 Y152.374374 Z-0.125000 I-0.000000 J6.039272
G03 X110.192472 Y152.454411 Z-0.125000 I-1.281431 J16.242860
G03 X110.953923 Y152.601309 Z-0.125000 I-0.766692 J6.021099
G03 X111.457701 Y152.783553 Z-0.125000 I-0.729290 J2.803402
G03 X112.017641 Y153.129516 Z-0.125000 I-1.556539 J3.145368
G03 X112.437233 Y153.524125 Z-0.125000 I-1.620850 J2.143851
G03 X112.710632 Y154.014484 Z-0.125000 I-0.972889 J0.863830
G03 X112.831765 Y154.840695 Z-0.125000 I-2.757099 J0.826211
G03 X112.683777 Y155.586142 Z-0.125000 I-1.951483 J-0.000000
G03 X112.260373 Y156.223092 Z-0.125000 I-1.826552 J-0.754977
G03 X111.636177 Y156.706663 Z-0.125000 I-1.845408 J-1.737416
G03 X110.614216 Y157.128233 Z-0.125000 I-2.393855 J-4.353642
G03 X109.466455 Y157.437726 Z-0.125000 I-9.653028 J-33.515461
G03 X108.192595 Y157.737148 Z-0.125000 I-10.306231 J-40.987284
G02 X106.941319 Y158.077771 Z-0.125000 I4.130730 J17.642810
G02 X105.811790 Y158.477720 Z-0.125000 I4.594988 J14.772064
G02 X103.482538 Y159.763596 Z-0.125000 I3.738058 J9.523718
G02 X102.124941 Y161.193147 Z-0.125000 I3.331269 J4.523004
G02 X101.324516 Y163.014034 Z-0.125000 I5.273381 J3.404442
G02 X101.009364 Y165.472000 Z-0.125000 I9.427657 J2.457966
G02 X101.682221 Y168.584393 Z-0.125000 I7.534830 J-0.000000
G02 X103.539821 Y171.050963 Z-0.125000 I6.452491 J-2.926664
G02 X106.308599 Y172.614078 Z-0.125000 I5.387736 J-6.309657
G02 X110.070032 Y173.223305 Z-0.125000 I3.761432 J-11.307129
G02 X112.055447 Y173.103656 Z-0.125000 I-0.000000 J-16.532505
G02 X114.015366 Y172.746049 Z-0.125000 I-1.991927 J-16.466686
G02 X115.939911 Y172.189341 Z-0.125000 I-4.537700 J-19.291811
G02 X117.402914 Y171.577592 Z-0.125000 I-4.048554 J-11.737420
G01 X117.402914 Y165.932799 Z-0.125000
G01 X116.845123 Y165.932799 Z-0.125000
G03 X115.531094 Y166.984765 Z-0.125000 I-6.240891 J-6.448932
G03 X113.838506 Y167.907654 Z-0.125000 I-6.462794 J-9.839277
G03 X112.026705 Y168.515158 Z-0.125000 I-3.808440 J-8.352693
G03 X110.219681 Y168.714052 Z-0.125000 I-1.807024 J-8.109276
G03 X109.569166 Y168.685418 Z-0.125000 I0.000000 J-7.403636
G03 X108.913640 Y168.598852 Z-0.125000 I0.670798 J-7.604963
G03 X108.289434 Y168.452025 Z-0.125000 I0.629542 J-4.076632
G03 X107.675620 Y168.203880 Z-0.125000 I1.336540 J-4.189312
G03 X107.192780 Y167.898283 Z-0.125000 I0.938310 J-2.016757
G03 X106.764111 Y167.446855 Z-0.125000 I1.686729 J-2.030934
G03 X106.482442 Y166.919299 Z-0.125000 I1.426396 J-1.100542
G03 X106.383183 Y166.311311 Z-0.125000 I1.812405 J-0.607987
G03 X106.558201 Y165.420650 Z-0.125000 I2.353773 J0.000000
G03 X106.995391 Y164.813715 Z-0.125000 I1.479564 J0.604836
G03 X107.663414 Y164.413255 Z-0.125000 I1.617918 J1.941506
G03 X109.308172 Y163.875657 Z-0.125000 I4.688603 J11.559752
G02 X110.423288 Y163.594063 Z-0.125000 I-85.628240 J-341.438337
G02 X111.444096 Y163.332571 Z-0.125000 I-72.818014 J-286.389151
G02 X112.467250 Y163.035594 Z-0.125000 I-3.969034 J-15.585188
G02 X113.661646 Y162.608457 Z-0.125000 I-7.076915 J-21.672538
G02 X115.786190 Y161.433075 Z-0.125000 I-3.498766 J-8.831931
G02 X117.090007 Y160.090516 Z-0.125000 I-3.340865 J-4.548833
G02 X117.881769 Y158.407831 Z-0.125000 I-4.362109 J-3.080144
G02 X118.205584 Y155.976236 Z-0.125000 I-8.967795 J-2.431595
G01 X118.205584 Y155.976236 Z-0.125000
G00 Z5.000000

(End cutting path id: path8212)


(Start cutting path id: path8210)
(ZZZanette)
(Change tool to Default tool)

G00 Z5.000000
G00 X98.846232 Y168.039310

G01 Z-0.125000 F100.0(Penetrate)
G01 X92.520090 Y168.039310 Z-0.125000 F400.000000
G01 X92.520090 Y148.274301 Z-0.125000
G01 X87.295920 Y148.274301 Z-0.125000
G01 X87.295920 Y168.039310 Z-0.125000
G01 X80.969781 Y168.039310 Z-0.125000
G01 X80.969781 Y172.778962 Z-0.125000
G01 X98.846232 Y172.778962 Z-0.125000
G01 X98.846232 Y168.039310 Z-0.125000
G00 Z5.000000

(End cutting path id: path8210)


(Start cutting path id: path8208)
(ZZZanette)
(Change tool to Default tool)

G00 Z5.000000
G00 X80.058272 Y148.274301

G01 Z-0.125000 F100.0(Penetrate)
G01 X74.657246 Y148.274301 Z-0.125000 F400.000000
G01 X73.255970 Y153.227895 Z-0.125000
G01 X65.746227 Y153.227895 Z-0.125000
G01 X64.344954 Y148.274301 Z-0.125000
G01 X59.079972 Y148.274301 Z-0.125000
G01 X66.562504 Y172.778962 Z-0.125000
G01 X72.575741 Y172.778962 Z-0.125000
G01 X80.058272 Y148.274301 Z-0.125000
G00 Z5.000000

(End cutting path id: path8208)


(Start cutting path id: path8208)
(ZZZanette)
(Change tool to Default tool)

G00 Z5.000000
G00 X71.990741 Y157.720691

G01 Z-0.125000 F100.0(Penetrate)
G01 X69.501100 Y166.508797 Z-0.125000 F400.000000
G01 X67.011456 Y157.720691 Z-0.125000
G01 X71.990741 Y157.720691 Z-0.125000
G00 Z5.000000

(End cutting path id: path8208)


(Start cutting path id: path8206)
(ZZZanette)
(Change tool to Default tool)

G00 Z5.000000
G00 X56.182191 Y148.274301

G01 Z-0.125000 F100.0(Penetrate)
G01 X50.985233 Y148.274301 Z-0.125000 F400.000000
G01 X50.985233 Y164.682055 Z-0.125000
G01 X47.230360 Y154.034294 Z-0.125000
G01 X43.625139 Y154.034294 Z-0.125000
G01 X39.870269 Y164.682055 Z-0.125000
G01 X39.870269 Y148.274301 Z-0.125000
G01 X34.945403 Y148.274301 Z-0.125000
G01 X34.945403 Y172.778962 Z-0.125000
G01 X41.013054 Y172.778962 Z-0.125000
G01 X45.570599 Y160.485488 Z-0.125000
G01 X50.114537 Y172.778962 Z-0.125000
G01 X56.182191 Y172.778962 Z-0.125000
G01 X56.182191 Y148.274301 Z-0.125000
G00 Z5.000000

(End cutting path id: path8206)


(Start cutting path id: path1044)
(ZZZanette)
(Change tool to Default tool)

G00 Z5.000000
G00 X77.226486 Y125.469250

G01 Z-0.125000 F100.0(Penetrate)
G01 X77.539750 Y126.123189 Z-0.125000 F400.000000
G01 X78.236540 Y126.217449 Z-0.125000
G01 X78.730198 Y125.699296 Z-0.125000
G01 X78.657396 Y124.954035 Z-0.125000
G02 X78.082869 Y124.464545 Z-0.125000 I-0.934395 J0.514812
G02 X77.324027 Y124.292021 Z-0.125000 I-1.091695 J3.046647
G02 X76.827652 Y124.301636 Z-0.125000 I-0.209384 J2.008059
G02 X76.354084 Y124.453026 Z-0.125000 I0.212862 J1.482251
G02 X75.869852 Y124.922656 Z-0.125000 I0.533854 J1.034910
G02 X75.819582 Y126.658475 Z-0.125000 I1.650533 J0.916439
G01 X75.368132 Y127.226246 Z-0.125000
G01 X75.592289 Y127.976505 Z-0.125000
G02 X76.248306 Y128.326343 Z-0.125000 I0.783558 J-0.679328
G02 X77.000713 Y128.229061 Z-0.125000 I0.187192 J-1.510506
G02 X77.310734 Y128.081667 Z-0.125000 I-1.013974 J-2.532473
G03 X77.620602 Y127.934833 Z-0.125000 I1.296132 J2.334886
G03 X78.350233 Y127.827620 Z-0.125000 I0.591966 J1.492249
G03 X79.031152 Y128.097416 Z-0.125000 I-0.109313 J1.270048
G03 X79.447120 Y128.722229 Z-0.125000 I-0.749815 J0.950058
G03 X79.377257 Y129.468482 Z-0.125000 I-1.010160 J0.281828
G01 X78.809148 Y129.940033 Z-0.125000
G01 X78.120463 Y129.791755 Z-0.125000
G02 X78.467578 Y129.717955 Z-0.125000 I-0.075842 J-1.209947
G01 X78.767396 Y129.524045 Z-0.125000
G01 X78.926070 Y129.215323 Z-0.125000
G02 X78.936650 Y128.848456 Z-0.125000 I-1.272329 J-0.220279
G01 X78.639841 Y128.389455 Z-0.125000
G01 X77.743364 Y128.320929 Z-0.125000
G02 X77.565552 Y128.411559 Z-0.125000 I0.427510 J1.058493
G01 X77.415491 Y128.545388 Z-0.125000
G01 X77.203633 Y129.094048 Z-0.125000
G01 X77.344690 Y129.668633 Z-0.125000
G01 X77.785213 Y130.048425 Z-0.125000
G01 X78.349579 Y130.088824 Z-0.125000
G02 X78.293407 Y130.828021 Z-0.125000 I1.243934 J0.466259
G02 X78.639468 Y131.470624 Z-0.125000 I1.261386 J-0.264809
G02 X79.273404 Y131.809644 Z-0.125000 I0.866689 J-0.858418
G02 X79.977698 Y131.730757 Z-0.125000 I0.226212 J-1.163785
G02 X80.491371 Y132.532547 Z-0.125000 I1.739244 J-0.548821
G02 X81.312890 Y132.942713 Z-0.125000 I1.140888 J-1.257288
G02 X82.223749 Y132.861720 Z-0.125000 I0.313442 J-1.637321
G02 X82.976259 Y132.304376 Z-0.125000 I-0.626873 J-1.633066
G02 X84.650985 Y131.942529 Z-0.125000 I0.608618 J-1.239618
G01 X84.773024 Y130.849966 Z-0.125000
G01 X84.381391 Y130.444973 Z-0.125000
G01 X83.857169 Y130.401679 Z-0.125000
G01 X83.569399 Y130.668358 Z-0.125000
G01 X83.533247 Y131.086107 Z-0.125000
G01 X83.736364 Y131.442507 Z-0.125000
G01 X84.078384 Y131.658779 Z-0.125000
G01 X83.509650 Y131.814162 Z-0.125000
G01 X82.992971 Y131.498721 Z-0.125000
G01 X82.818254 Y130.906862 Z-0.125000
G01 X83.047363 Y130.327490 Z-0.125000
G01 X83.558678 Y129.997591 Z-0.125000
G03 X84.161036 Y130.003586 Z-0.125000 I0.290602 J1.065714
G03 X84.680751 Y130.312237 Z-0.125000 I-0.344518 J1.171989
G03 X85.024930 Y130.838601 Z-0.125000 I-1.088741 J1.087614
G03 X85.215223 Y131.399990 Z-0.125000 I-5.910012 J2.316245
G01 X85.559736 Y131.792633 Z-0.125000
G01 X86.048619 Y131.743464 Z-0.125000
G01 X86.367111 Y131.298570 Z-0.125000
G01 X86.994237 Y131.535646 Z-0.125000
G01 X87.624513 Y131.306778 Z-0.125000
G02 X87.969915 Y130.714789 Z-0.125000 I-0.664541 J-0.784492
G02 X87.868822 Y130.025369 Z-0.125000 I-1.044119 J-0.199018
G02 X88.841335 Y128.440091 Z-0.125000 I-0.172222 J-1.196592
G01 X87.975783 Y128.002707 Z-0.125000
G02 X87.546571 Y128.170231 Z-0.125000 I1.103656 J3.461282
G01 X87.257138 Y128.496771 Z-0.125000
G01 X87.296343 Y128.909726 Z-0.125000
G01 X87.619347 Y129.125952 Z-0.125000
G01 X87.979098 Y128.972942 Z-0.125000
G01 X88.026833 Y128.576326 Z-0.125000
G01 X88.348520 Y128.640030 Z-0.125000
G01 X88.499650 Y128.974419 Z-0.125000
G01 X88.400452 Y129.319709 Z-0.125000
G03 X88.152026 Y129.584027 Z-0.125000 I-0.904906 J-0.601595
G03 X87.810615 Y129.760383 Z-0.125000 I-0.682753 J-0.903107
G01 X87.440673 Y129.766183 Z-0.125000
G01 X87.157882 Y129.603172 Z-0.125000
G03 X86.947497 Y129.333049 Z-0.125000 I0.869078 J-0.893867
G03 X86.733133 Y128.575261 Z-0.125000 I1.384490 J-0.800859
G03 X86.906171 Y127.805713 Z-0.125000 I1.605382 J-0.043248
G01 X87.350336 Y127.469748 Z-0.125000
G03 X87.937496 Y127.487176 Z-0.125000 I0.255271 J1.299354
G03 X88.468060 Y127.728816 Z-0.125000 I-0.425095 J1.636672
G03 X88.956362 Y128.073739 Z-0.125000 I-11.755418 J17.160061
G02 X89.548761 Y128.463465 Z-0.125000 I4.425298 J-6.081524
G02 X90.186416 Y128.748065 Z-0.125000 I1.551355 J-2.619220
G02 X90.877158 Y128.853990 Z-0.125000 I0.691489 J-2.204076
G02 X91.552906 Y128.703867 Z-0.125000 I0.000515 J-1.593616
G02 X92.057170 Y128.361400 Z-0.125000 I-0.813433 J-1.740218
G03 X92.515253 Y127.939253 Z-0.125000 I18.857775 J20.003447
G03 X93.140118 Y127.423845 Z-0.125000 I6.338205 J7.047767
G03 X94.157959 Y126.908506 Z-0.125000 I1.938897 J2.566662
G02 X93.373457 Y127.075718 Z-0.125000 I-0.021596 J1.822601
G02 X92.062795 Y127.790876 Z-0.125000 I4.622708 J10.030574
G03 X91.377330 Y128.066520 Z-0.125000 I-1.077647 J-1.689746
G03 X90.641001 Y128.152031 Z-0.125000 I-0.892631 J-4.473355
G03 X89.767193 Y128.002062 Z-0.125000 I-0.074530 J-2.186384
G03 X88.983406 Y127.543686 Z-0.125000 I1.073276 J-2.734512
G02 X88.110505 Y126.998636 Z-0.125000 I-2.580125 J3.160581
G02 X87.162331 Y126.661948 Z-0.125000 I-2.328690 J5.054562
G02 X86.227905 Y126.698276 Z-0.125000 I-0.406269 J1.585780
G02 X85.375593 Y127.167692 Z-0.125000 I0.902021 J2.646256
G01 X85.704978 Y127.494432 Z-0.125000
G03 X85.830786 Y127.971454 Z-0.125000 I-1.050456 J0.532143
G03 X85.762956 Y128.449310 Z-0.125000 I-1.297086 J0.059626
G03 X85.554874 Y128.884761 Z-0.125000 I-1.943314 J-0.661176
G03 X84.721220 Y129.610363 Z-0.125000 I-1.629607 J-1.030578
G03 X83.713136 Y129.563507 Z-0.125000 I-0.458146 J-1.010848
G02 X83.607289 Y129.507324 Z-0.125000 I-0.920069 J1.605592
G01 X83.496479 Y129.496895 Z-0.125000
G01 X83.411133 Y129.555018 Z-0.125000
G02 X83.348192 Y129.646850 Z-0.125000 I1.000732 J0.753377
G03 X82.786705 Y130.208549 Z-0.125000 I-1.496694 J-0.934643
G03 X82.054022 Y130.437352 Z-0.125000 I-0.803577 J-1.285733
G03 X81.304791 Y130.268562 Z-0.125000 I-0.068444 J-1.443437
G03 X80.740405 Y129.719145 Z-0.125000 I0.668100 J-1.250893
G01 X80.642052 Y129.463604 Z-0.125000
G01 X80.514631 Y129.233605 Z-0.125000
G01 X80.331713 Y129.093919 Z-0.125000
G03 X79.654992 Y128.294094 Z-0.125000 I0.782766 J-1.348484
G01 X79.630125 Y127.786737 Z-0.125000
G03 X79.860406 Y127.323330 Z-0.125000 I1.260906 J0.337663
G01 X80.377626 Y127.062437 Z-0.125000
G03 X80.985018 Y127.169271 Z-0.125000 I0.038035 J1.563800
G03 X82.664810 Y125.405807 Z-0.125000 I4.311508 J2.425160
G03 X84.919184 Y124.721683 Z-0.125000 I2.380997 J3.789583
G01 X83.980235 Y124.716947 Z-0.125000
G02 X83.228278 Y124.732147 Z-0.125000 I-0.082477 J14.527687
G02 X82.490679 Y124.860589 Z-0.125000 I0.136942 J2.968528
G02 X81.353676 Y125.469262 Z-0.125000 I0.991075 J3.217630
G03 X80.273969 Y126.228498 Z-0.125000 I-5.849970 J-7.171881
G03 X79.603736 Y126.562670 Z-0.125000 I-2.436095 J-4.046749
G03 X78.894716 Y126.784754 Z-0.125000 I-1.746352 J-4.332518
G03 X78.128632 Y126.858638 Z-0.125000 I-0.670975 J-2.948534
G03 X77.415187 Y126.621855 Z-0.125000 I0.041481 J-1.318204
G01 X77.048632 Y126.071133 Z-0.125000
G01 X77.226486 Y125.469250 Z-0.125000
G00 Z5.000000

(End cutting path id: path1044)


(Start cutting path id: path1048)
(ZZZanette)
(Change tool to Default tool)

G00 Z5.000000
G00 X81.060743 Y127.536980

G01 Z-0.125000 F100.0(Penetrate)
G02 X80.803220 Y127.417966 Z-0.125000 I-1.058258 J1.951737 F400.000000
G02 X80.534141 Y127.333356 Z-0.125000 I-0.791292 J2.046329
G02 X80.427386 Y127.313067 Z-0.125000 I-0.254324 J1.047178
G01 X80.319915 Y127.315362 Z-0.125000
G01 X80.197711 Y127.363674 Z-0.125000
G01 X80.092319 Y127.448901 Z-0.125000
G01 X79.848700 Y127.920460 Z-0.125000
G01 X79.921545 Y128.453129 Z-0.125000
G01 X80.284744 Y128.839460 Z-0.125000
G01 X80.789694 Y128.929198 Z-0.125000
G01 X80.842438 Y129.339517 Z-0.125000
G02 X81.083837 Y129.681816 Z-0.125000 I1.050139 J-0.484316
G02 X81.670211 Y130.022950 Z-0.125000 I0.965418 J-0.984927
G02 X82.336985 Y130.040131 Z-0.125000 I0.366659 J-1.282734
G02 X82.932109 Y129.733371 Z-0.125000 I-0.305925 J-1.324168
G02 X83.326072 Y129.164075 Z-0.125000 I-0.963038 J-1.087402
G02 X84.112427 Y129.472315 Z-0.125000 I0.848841 J-1.008333
G02 X84.927451 Y129.250576 Z-0.125000 I0.065011 J-1.369769
G02 X85.460797 Y128.595730 Z-0.125000 I-0.761443 J-1.164782
G02 X85.526069 Y127.729554 Z-0.125000 I-1.367581 J-0.538604
G02 X85.460502 Y127.523120 Z-0.125000 I-1.286264 J0.294911
G01 X85.357423 Y127.336513 Z-0.125000
G01 X85.065856 Y127.081602 Z-0.125000
G01 X84.700463 Y126.988932 Z-0.125000
G01 X84.333333 Y127.074338 Z-0.125000
G01 X84.037121 Y127.323254 Z-0.125000
G01 X83.933683 Y127.513367 Z-0.125000
G01 X83.898254 Y127.727976 Z-0.125000
G01 X83.954881 Y127.940037 Z-0.125000
G01 X84.102148 Y128.088816 Z-0.125000
G01 X84.343783 Y128.121230 Z-0.125000
G01 X84.561595 Y127.994423 Z-0.125000
G01 X84.680771 Y127.770334 Z-0.125000
G01 X84.691650 Y127.509199 Z-0.125000
G01 X84.831400 Y127.681429 Z-0.125000
G01 X84.841761 Y127.940755 Z-0.125000
G01 X84.784676 Y128.172438 Z-0.125000
G01 X84.657921 Y128.366944 Z-0.125000
G01 X84.464391 Y128.494543 Z-0.125000
G01 X84.240408 Y128.515952 Z-0.125000
G01 X84.111470 Y128.473067 Z-0.125000
G01 X83.993364 Y128.401039 Z-0.125000
G03 X83.845570 Y128.273175 Z-0.125000 I0.638204 J-0.887027
G01 X83.723834 Y128.117229 Z-0.125000
G01 X83.586411 Y127.525662 Z-0.125000
G01 X83.839911 Y126.979462 Z-0.125000
G01 X84.369252 Y126.720770 Z-0.125000
G01 X84.935352 Y126.862338 Z-0.125000
G03 X85.669511 Y126.419752 Z-0.125000 I1.365468 J1.434828
G03 X86.509687 Y126.279880 Z-0.125000 I0.855056 J2.542805
G03 X87.350570 Y126.393466 Z-0.125000 I0.018502 J3.032380
G03 X88.153912 Y126.699439 Z-0.125000 I-1.307366 J4.640102
G03 X89.564935 Y127.471455 Z-0.125000 I-7.364990 J15.136577
G02 X91.044903 Y127.828683 Z-0.125000 I1.294553 J-2.118922
G02 X92.315443 Y127.391438 Z-0.125000 I-0.197845 J-2.639480
G03 X93.550895 Y126.765736 Z-0.125000 I3.228226 J4.841586
G03 X94.157934 Y126.634868 Z-0.125000 I0.776631 J2.129132
G03 X94.749042 Y126.759737 Z-0.125000 I0.080927 J1.078442
G02 X93.968763 Y126.319324 Z-0.125000 I-1.057721 J0.962545
G02 X93.060757 Y126.315869 Z-0.125000 I-0.462915 J2.340856
G02 X92.195713 Y126.588144 Z-0.125000 I0.721725 J3.803292
G03 X91.352416 Y126.945682 Z-0.125000 I-8.799574 J-19.581588
G03 X90.843643 Y127.105949 Z-0.125000 I-1.325631 J-3.320575
G03 X90.325346 Y127.102583 Z-0.125000 I-0.252181 J-1.074607
G03 X89.932638 Y126.920699 Z-0.125000 I0.280273 J-1.120033
G03 X89.578441 Y126.649244 Z-0.125000 I4.111726 J-5.731830
G02 X88.330156 Y125.723924 Z-0.125000 I-10.345890 J12.652266
G02 X86.961537 Y125.052455 Z-0.125000 I-3.170551 J4.731842
G02 X85.250874 Y124.807489 Z-0.125000 I-1.528994 J4.581866
G02 X83.559746 Y125.180628 Z-0.125000 I0.182365 J4.845316
G02 X82.120651 Y126.122585 Z-0.125000 I1.827383 J4.362107
G02 X81.060743 Y127.536980 Z-0.125000 I3.709868 J3.884400
G00 Z5.000000

(End cutting path id: path1048)


(Start cutting path id: path1052)
(ZZZanette)
(Change tool to Default tool)

G00 Z5.000000
G00 X92.362139 Y128.851690

G01 Z-0.125000 F100.0(Penetrate)
G03 X92.118668 Y129.131155 Z-0.125000 I-1.593948 J-1.142866 F400.000000
G03 X91.815178 Y129.333126 Z-0.125000 I-0.732039 J-0.770989
G03 X91.480742 Y129.454852 Z-0.125000 I-1.098707 J-2.498350
G01 X91.206836 Y129.658292 Z-0.125000
G01 X91.141932 Y129.971865 Z-0.125000
G01 X91.276726 Y130.275793 Z-0.125000
G01 X91.475224 Y130.431692 Z-0.125000
G01 X91.702444 Y130.419434 Z-0.125000
G01 X91.836917 Y130.185349 Z-0.125000
G02 X91.803024 Y129.871071 Z-0.125000 I-1.346517 J-0.013751
G03 X91.762352 Y129.987936 Z-0.125000 I-1.207855 J-0.354849
G01 X91.698797 Y130.090164 Z-0.125000
G01 X91.599424 Y130.158492 Z-0.125000
G01 X91.485179 Y130.157407 Z-0.125000
G01 X91.422548 Y130.113427 Z-0.125000
G01 X91.378521 Y130.047229 Z-0.125000
G01 X91.386858 Y129.704645 Z-0.125000
G01 X91.660206 Y129.504233 Z-0.125000
G01 X91.983438 Y129.573080 Z-0.125000
G01 X92.190758 Y129.856865 Z-0.125000
G01 X92.199375 Y130.208170 Z-0.125000
G01 X92.037609 Y130.521404 Z-0.125000
G01 X91.931287 Y130.625809 Z-0.125000
G01 X91.806366 Y130.701666 Z-0.125000
G01 X91.353921 Y130.776771 Z-0.125000
G01 X90.633135 Y130.212338 Z-0.125000
G03 X90.570590 Y129.938775 Z-0.125000 I1.327453 J-0.447431
G01 X90.640124 Y129.691440 Z-0.125000
G01 X90.447859 Y129.866203 Z-0.125000
G01 X90.360567 Y130.119839 Z-0.125000
G01 X90.403134 Y130.384866 Z-0.125000
G01 X90.562942 Y130.592751 Z-0.125000
G01 X90.287826 Y130.521756 Z-0.125000
G01 X90.104407 Y130.277056 Z-0.125000
G01 X90.059902 Y129.976974 Z-0.125000
G03 X90.114738 Y129.672814 Z-0.125000 I1.393404 J0.094190
G03 X90.212332 Y129.439155 Z-0.125000 I1.165611 J0.349637
G01 X90.375760 Y129.262410 Z-0.125000
G01 X90.685044 Y129.175670 Z-0.125000
G02 X91.017831 Y129.174331 Z-0.125000 I0.147983 J-4.575384
G02 X91.410455 Y129.100382 Z-0.125000 I-0.054583 J-1.369065
G02 X91.776891 Y128.932824 Z-0.125000 I-0.683216 J-1.978605
G02 X92.297270 Y128.593683 Z-0.125000 I-1.150182 J-2.333650
G02 X92.593686 Y128.182100 Z-0.125000 I-0.659715 J-0.787644
G01 X92.532225 Y128.528293 Z-0.125000
G03 X92.362139 Y128.851690 Z-0.125000 I-1.295670 J-0.475016
G00 Z5.000000

(End cutting path id: path1052)


(Start cutting path id: path1068)
(ZZZanette)
(Change tool to Default tool)

G00 Z5.000000
G00 X91.354398 Y116.016070

G01 Z-0.125000 F100.0(Penetrate)
G03 X90.568899 Y116.286983 Z-0.125000 I-1.771298 J-3.861575 F400.000000
G03 X89.742079 Y116.334923 Z-0.125000 I-0.547992 J-2.297194
G03 X88.941120 Y116.184380 Z-0.125000 I0.714864 J-6.009456
G02 X88.177468 Y116.270205 Z-0.125000 I-0.269555 J1.041876
G01 X87.710135 Y116.813328 Z-0.125000
G02 X87.646916 Y117.582552 Z-0.125000 I1.507951 J0.511142
G02 X87.874285 Y118.130275 Z-0.125000 I1.280608 J-0.210548
G01 X88.339429 Y118.367055 Z-0.125000
G01 X88.860336 Y118.059247 Z-0.125000
G02 X89.134649 Y117.392819 Z-0.125000 I-2.658593 J-1.483990
G03 X88.926765 Y117.577884 Z-0.125000 I-1.917971 J-1.945168
G01 X88.689484 Y117.707251 Z-0.125000
G01 X88.419478 Y117.727145 Z-0.125000
G01 X88.190838 Y117.590760 Z-0.125000
G01 X88.113809 Y117.429580 Z-0.125000
G01 X88.097551 Y117.246336 Z-0.125000
G01 X88.489847 Y116.577231 Z-0.125000
G01 X89.248295 Y116.494665 Z-0.125000
G01 X89.819429 Y117.008625 Z-0.125000
G03 X89.922576 Y117.818376 Z-0.125000 I-1.177608 J0.561451
G03 X89.555188 Y118.530696 Z-0.125000 I-1.400786 J-0.271572
G03 X88.896721 Y118.962773 Z-0.125000 I-1.255153 J-1.195023
G03 X88.572245 Y119.046285 Z-0.125000 I-0.579646 J-1.580032
G03 X88.240368 Y119.051483 Z-0.125000 I-0.184856 J-1.205145
G03 X87.256544 Y118.675280 Z-0.125000 I0.261828 J-2.159235
G03 X86.433575 Y116.702708 Z-0.125000 I1.141749 J-1.634305
G03 X86.606488 Y116.081285 Z-0.125000 I3.145596 J0.540504
G01 X87.012442 Y115.673225 Z-0.125000
G02 X86.439642 Y115.797371 Z-0.125000 I-0.054888 J1.130246
G02 X85.990841 Y116.199173 Z-0.125000 I0.546910 J1.062433
G02 X85.788221 Y116.773218 Z-0.125000 I1.038602 J0.689375
G02 X85.881145 Y117.378297 Z-0.125000 I1.256337 J0.116735
G01 X85.408428 Y116.915739 Z-0.125000
G03 X85.310178 Y116.212748 Z-0.125000 I1.205636 J-0.526861
G03 X85.548838 Y115.559709 Z-0.125000 I1.602075 J0.215364
G03 X85.985979 Y115.020997 Z-0.125000 I2.559630 J1.630311
G03 X86.433019 Y114.670618 Z-0.125000 I1.826658 J1.870218
G03 X86.951364 Y114.508939 Z-0.125000 I0.571116 J0.919254
G03 X87.658432 Y114.695500 Z-0.125000 I0.060043 J1.205616
G02 X88.325755 Y115.085399 Z-0.125000 I5.610271 J-8.836097
G02 X89.192614 Y115.398279 Z-0.125000 I1.502300 J-2.804952
G02 X90.100035 Y115.492647 Z-0.125000 I0.936447 J-4.594736
G02 X91.503314 Y115.426493 Z-0.125000 I0.430734 J-5.779626
G02 X92.541910 Y114.953123 Z-0.125000 I-0.373854 J-2.196305
G03 X92.042619 Y115.571907 Z-0.125000 I-1.943978 J-1.057752
G03 X91.354398 Y116.016070 Z-0.125000 I-1.941611 J-2.253208
G00 Z5.000000

(End cutting path id: path1068)


(Start cutting path id: path1028)
(ZZZanette)
(Change tool to Default tool)

G00 Z5.000000
G00 X98.827433 Y116.015937

G01 Z-0.125000 F100.0(Penetrate)
G02 X110.341575 Y134.731937 Z-0.125000 I31.206977 J-6.298862 F400.000000
G02 X138.154246 Y144.366044 Z-0.125000 I27.812671 J-35.329098
G02 X153.887120 Y140.767895 Z-0.125000 I-0.000000 J-36.194999
G02 X168.444522 Y127.469125 Z-0.125000 I-14.957217 J-30.989770
G00 Z5.000000

(End cutting path id: path1028)


(Start cutting path id: path1028)
(ZZZanette)
(Change tool to Default tool)

G00 Z5.000000
G00 X172.385056 Y119.330953

G01 Z-0.125000 F100.0(Penetrate)
G02 X174.590942 Y112.462095 Z-0.125000 I-14.387042 J-8.408929 F400.000000
G02 X173.390484 Y99.112409 Z-0.125000 I-36.822031 J-3.417631
G00 Z5.000000

(End cutting path id: path1028)


(Start cutting path id: path5955)
(ZZZanette)
(Change tool to Default tool)

G00 Z5.000000
G00 X184.817360 Y92.113150

G01 Z-0.125000 F100.0(Penetrate)
G02 X182.916673 Y93.359445 Z-0.125000 I58.116656 J90.704421 F400.000000
G02 X181.522480 Y94.321880 Z-0.125000 I35.562521 J53.007285
G03 X176.407605 Y97.544455 Z-0.125000 I-32.141801 J-45.345042
G03 X170.543560 Y100.668220 Z-0.125000 I-88.073740 J-158.269267
G01 X170.543560 Y100.670220 Z-0.125000
G01 X170.541560 Y100.670220 Z-0.125000
G03 X164.045418 Y103.905453 Z-0.125000 I-227.652476 J-448.972212
G02 X160.525060 Y105.810480 Z-0.125000 I21.366726 J43.689424
G01 X160.523060 Y105.810480 Z-0.125000
G02 X160.052971 Y106.101638 Z-0.125000 I19.846805 J32.568744
G02 X159.695350 Y106.336580 Z-0.125000 I5.855784 J9.303124
G03 X155.548697 Y107.886193 Z-0.125000 I-5.190642 J-7.566907
G03 X153.460610 Y108.115870 Z-0.125000 I-26.758363 J-233.664419
G03 X151.506180 Y108.313191 Z-0.125000 I-13.897811 J-127.877877
G03 X149.108410 Y108.327350 Z-0.125000 I-1.279982 J-13.725919
G01 X149.108460 Y108.327270 Z-0.125000
G03 X148.334227 Y108.253386 Z-0.125000 I1.890626 J-23.905459
G03 X147.261250 Y108.115790 Z-0.125000 I3.714256 J-33.216224
G02 X141.760128 Y107.684636 Z-0.125000 I-6.277219 J44.781313
G02 X139.332410 Y108.068590 Z-0.125000 I-0.121822 J7.096867
G03 X138.667896 Y108.092485 Z-0.125000 I-0.371621 J-1.082731
G03 X137.407810 Y107.626390 Z-0.125000 I1.801664 J-6.807155
G03 X136.169916 Y106.958670 Z-0.125000 I6.807488 J-14.101810
G03 X134.206320 Y105.735250 Z-0.125000 I33.766699 J-56.383257
G03 X130.323747 Y103.156723 Z-0.125000 I110.718816 J-170.925269
G02 X123.710250 Y98.785910 Z-0.125000 I-162.908631 J239.308943
G01 X123.708250 Y98.785910 Z-0.125000
G02 X104.752341 Y87.591868 Z-0.125000 I-121.616722 J184.297948
G02 X86.163754 Y78.247300 Z-0.125000 I-272.517510 J518.941831
G02 X55.925825 Y64.912162 Z-0.125000 I-216.617614 J450.238227
G02 X44.432054 Y60.714950 Z-0.125000 I-71.009791 J176.619291
G02 X35.534843 Y57.998503 Z-0.125000 I-67.702462 J205.817919
G02 X26.473764 Y55.530630 Z-0.125000 I-142.458900 J505.185772
G00 Z5.000000

(End cutting path id: path5955)


(Start cutting path id: path1028)
(ZZZanette)
(Change tool to Default tool)

G00 Z5.000000
G00 X103.669333 Y87.664384

G01 Z-0.125000 F100.0(Penetrate)
G02 X100.187649 Y95.470740 Z-0.125000 I27.524789 J16.955835 F400.000000
G02 X99.620289 Y98.413105 Z-0.125000 I14.921812 J4.403171
G00 Z5.000000

(End cutting path id: path1028)


(Start cutting path id: path1076)
(ZZZanette)
(Change tool to Default tool)

G00 Z5.000000
G00 X102.994210 Y99.421110

G01 Z-0.125000 F100.0(Penetrate)
G02 X99.609838 Y101.109010 Z-0.125000 I1.354956 J6.953707 F400.000000
G02 X97.470515 Y104.392685 Z-0.125000 I5.088785 J5.654084
G02 X97.194005 Y105.354614 Z-0.125000 I12.826789 J4.207809
G03 X96.884355 Y106.302328 Z-0.125000 I-6.636940 J-1.644068
G01 X96.571083 Y105.905275 Z-0.125000
G03 X96.527919 Y105.364396 Z-0.125000 I1.165520 J-0.365174
G03 X96.682747 Y104.856460 Z-0.125000 I1.740784 J0.253056
G03 X96.919907 Y104.379110 Z-0.125000 I17.509113 J8.401427
G02 X97.560435 Y103.049675 Z-0.125000 I-25.529848 J-13.119411
G03 X98.304022 Y101.795457 Z-0.125000 I5.953434 J2.682072
G03 X99.518076 Y100.629228 Z-0.125000 I4.260431 J3.220111
G03 X100.975925 Y99.825832 Z-0.125000 I4.601457 J6.625429
G03 X102.404897 Y99.360950 Z-0.125000 I3.415922 J8.071338
G02 X103.842911 Y98.967455 Z-0.125000 I-4.401514 J-18.909533
G01 X103.155797 Y98.713032 Z-0.125000
G03 X102.393161 Y98.814659 Z-0.125000 I-1.906545 J-11.394916
G02 X101.604579 Y98.954551 Z-0.125000 I0.514599 J5.193426
G02 X100.841008 Y99.207700 Z-0.125000 I1.483544 J5.752951
G02 X99.402210 Y100.002044 Z-0.125000 I2.679790 J6.554138
G02 X98.112282 Y101.064306 Z-0.125000 I7.136636 J9.980495
G02 X97.584209 Y101.596780 Z-0.125000 I7.742953 J8.207035
G02 X97.107393 Y102.181237 Z-0.125000 I4.343550 J4.030315
G02 X96.355203 Y103.602304 Z-0.125000 I4.925088 J3.516523
G02 X95.886759 Y105.170875 Z-0.125000 I12.125130 J4.475326
G01 X95.838052 Y105.217937 Z-0.125000
G02 X93.785823 Y106.571616 Z-0.125000 I0.628111 J3.184708
G02 X93.357794 Y107.855676 Z-0.125000 I2.039828 J1.393327
G02 X93.628419 Y109.202308 Z-0.125000 I2.856412 J0.126470
G02 X94.283487 Y110.094151 Z-0.125000 I2.610976 J-1.231289
G02 X95.173887 Y110.729327 Z-0.125000 I2.976989 J-3.231513
G02 X96.468195 Y111.199884 Z-0.125000 I2.246610 J-4.164167
G02 X97.826039 Y111.221181 Z-0.125000 I0.735211 J-3.578168
G02 X99.092527 Y110.719388 Z-0.125000 I-0.566030 J-3.277772
G02 X100.040014 Y109.701107 Z-0.125000 I-1.625604 J-2.462535
G02 X101.067371 Y109.833245 Z-0.125000 I1.304684 J-6.083897
G02 X102.070454 Y109.655962 Z-0.125000 I0.104246 J-2.336580
G02 X102.877693 Y109.000657 Z-0.125000 I-0.702315 J-1.690001
G02 X103.088105 Y107.990668 Z-0.125000 I-1.104404 J-0.756993
G02 X104.454689 Y107.517351 Z-0.125000 I-0.054727 J-2.367502
G02 X105.337633 Y106.302012 Z-0.125000 I-1.531498 J-2.041033
G02 X105.428886 Y105.921807 Z-0.125000 I-1.957871 J-0.670964
G02 X105.417246 Y105.533924 Z-0.125000 I-1.129212 J-0.160229
G02 X105.294284 Y105.198882 Z-0.125000 I-1.169066 J0.238967
G02 X105.107302 Y104.895272 Z-0.125000 I-3.118023 J1.710896
G02 X104.630580 Y104.286072 Z-0.125000 I-5.028333 J3.443727
G02 X104.061999 Y103.782129 Z-0.125000 I-2.408152 J2.144310
G02 X103.380667 Y103.444989 Z-0.125000 I-1.471649 J2.117048
G02 X102.641420 Y103.365411 Z-0.125000 I-0.561655 J1.744121
G02 X101.934739 Y103.607049 Z-0.125000 I0.156881 J1.612986
G02 X101.425344 Y104.172329 Z-0.125000 I0.745632 J1.184073
G02 X101.300522 Y104.938964 Z-0.125000 I1.193888 J0.587867
G02 X101.650814 Y105.605272 Z-0.125000 I1.089894 J-0.147749
G01 X102.347898 Y105.850823 Z-0.125000
G01 X102.987829 Y105.498567 Z-0.125000
G01 X103.112150 Y105.214433 Z-0.125000
G01 X103.070177 Y104.916424 Z-0.125000
G01 X102.810274 Y105.340844 Z-0.125000
G01 X102.341504 Y105.423747 Z-0.125000
G01 X101.965248 Y105.118687 Z-0.125000
G01 X101.934626 Y104.616197 Z-0.125000
G01 X102.338308 Y104.208116 Z-0.125000
G03 X102.929790 Y104.136656 Z-0.125000 I0.445044 J1.200056
G03 X103.668289 Y104.397511 Z-0.125000 I-0.200581 J1.743657
G03 X104.228518 Y104.972933 Z-0.125000 I-0.925721 J1.461707
G03 X104.470005 Y105.747620 Z-0.125000 I-1.489213 J0.889203
G03 X104.321805 Y106.544782 Z-0.125000 I-1.635835 J0.108239
G03 X104.149352 Y106.824889 Z-0.125000 I-1.270657 J-0.589163
G01 X103.910977 Y107.036320 Z-0.125000
G01 X103.626514 Y107.154960 Z-0.125000
G03 X103.323906 Y107.218476 Z-0.125000 I-1.123128 J-4.598261
G03 X102.984255 Y107.278597 Z-0.125000 I-313.336194 J-1770.038642
G03 X102.644155 Y107.338756 Z-0.125000 I-1574.190093 J-8877.401460
G01 X102.706359 Y107.503738 Z-0.125000
G01 X102.672415 Y107.694861 Z-0.125000
G03 X102.234013 Y108.452673 Z-0.125000 I-1.901386 J-0.594256
G03 X101.532002 Y108.928915 Z-0.125000 I-1.373990 J-1.269820
G03 X100.695670 Y109.041220 Z-0.125000 I-0.654044 J-1.700432
G03 X99.892639 Y108.764122 Z-0.125000 I0.184797 J-1.837686
G03 X96.754579 Y110.452843 Z-0.125000 I-2.892317 J-1.614633
G03 X94.263805 Y107.434728 Z-0.125000 I0.201065 J-2.702777
G03 X94.511237 Y106.810377 Z-0.125000 I1.294008 J0.151614
G03 X95.013142 Y106.386934 Z-0.125000 I1.147140 J0.850526
G03 X95.647179 Y106.284779 Z-0.125000 I0.476984 J0.941769
G01 X96.198831 Y106.603186 Z-0.125000
G01 X96.377147 Y107.243063 Z-0.125000
G01 X96.018030 Y107.764314 Z-0.125000
G02 X97.007560 Y107.348727 Z-0.125000 I-0.463877 J-2.490361
G02 X97.761315 Y106.542888 Z-0.125000 I-1.534948 J-2.191177
G02 X98.187941 Y105.501319 Z-0.125000 I-3.108614 J-1.881444
G03 X98.502143 Y104.399946 Z-0.125000 I12.481746 J2.965314
G03 X99.025475 Y103.252629 Z-0.125000 I5.681816 J1.898663
G03 X99.768661 Y102.255741 Z-0.125000 I5.002164 J2.953676
G03 X101.581310 Y100.907538 Z-0.125000 I4.540868 J4.212513
G03 X103.695839 Y100.168677 Z-0.125000 I4.122096 J8.401745
G03 X105.912853 Y99.877903 Z-0.125000 I2.802316 J12.769078
G03 X108.152657 Y99.816361 Z-0.125000 I2.896595 J64.631801
G02 X105.579264 Y99.337321 Z-0.125000 I-5.530474 J22.557961
G02 X102.994210 Y99.421110 Z-0.125000 I-1.033032 J8.047790
G00 Z5.000000

(End cutting path id: path1076)


(Start cutting path id: path1076)
(ZZZanette)
(Change tool to Default tool)

G00 Z5.000000
G00 X119.734246 Y108.808320

G01 Z-0.125000 F100.0(Penetrate)
G03 X114.624360 Y104.890156 Z-0.125000 I4.556107 J-11.232982 F400.000000
G02 X109.613650 Y100.718935 Z-0.125000 I-11.462757 J8.674534
G02 X108.619713 Y100.303000 Z-0.125000 I-3.501197 J6.971076
G02 X107.579260 Y100.072074 Z-0.125000 I-1.577206 J4.646839
G02 X106.531180 Y100.070045 Z-0.125000 I-0.533387 J4.826821
G02 X105.494732 Y100.257703 Z-0.125000 I0.766017 J7.186770
G02 X103.026299 Y101.349486 Z-0.125000 I2.068781 J8.013705
G02 X100.991118 Y103.209773 Z-0.125000 I4.734759 J7.223295
G01 X101.354932 Y103.286887 Z-0.125000
G02 X101.738024 Y103.088862 Z-0.125000 I-0.553552 J-1.540452
G03 X104.534757 Y101.426285 Z-0.125000 I12.758703 J18.278701
G03 X107.578956 Y100.886569 Z-0.125000 I2.433624 J4.871483
G03 X110.354401 Y102.030932 Z-0.125000 I-0.609806 J5.416823
G03 X112.675415 Y104.198848 Z-0.125000 I-12.150879 J15.335394
G02 X114.854277 Y106.503253 Z-0.125000 I61.526080 J-55.991898
G02 X117.407536 Y108.170614 Z-0.125000 I5.079196 J-4.989254
G02 X118.539183 Y108.535263 Z-0.125000 I4.160327 J-10.972814
G03 X119.619992 Y109.016994 Z-0.125000 I-0.969023 J3.627409
G03 X116.927498 Y108.468906 Z-0.125000 I0.410935 J-8.906230
G03 X114.492540 Y107.113350 Z-0.125000 I3.193963 J-8.601965
G03 X112.280927 Y104.771460 Z-0.125000 I6.457680 J-8.313682
G02 X109.823014 Y102.979947 Z-0.125000 I-3.779439 J2.603444
G02 X108.719971 Y102.879384 Z-0.125000 I-0.797943 J2.652634
G02 X107.659177 Y103.219560 Z-0.125000 I0.308872 J2.787238
G02 X106.691270 Y103.942230 Z-0.125000 I2.252921 J4.026962
G02 X106.092439 Y104.986508 Z-0.125000 I1.533431 J1.573168
G02 X107.034211 Y107.591953 Z-0.125000 I2.418373 J0.598778
G01 X107.571056 Y107.716328 Z-0.125000
G02 X107.949319 Y107.612183 Z-0.125000 I-0.395203 J-2.174423
G02 X108.286966 Y107.410104 Z-0.125000 I-0.380927 J-1.019599
G01 X108.520905 Y107.085887 Z-0.125000
G01 X108.558624 Y106.688739 Z-0.125000
G01 X108.035558 Y107.033947 Z-0.125000
G01 X107.432492 Y106.968130 Z-0.125000
G01 X107.025618 Y106.494630 Z-0.125000
G01 X107.075752 Y105.865721 Z-0.125000
G01 X107.255810 Y105.636470 Z-0.125000
G03 X107.492354 Y105.471417 Z-0.125000 I0.833792 J0.942914
G03 X108.208787 Y105.286929 Z-0.125000 I0.731272 J1.356469
G03 X108.942408 Y105.421221 Z-0.125000 I0.018946 J1.967489
G03 X109.585998 Y105.799019 Z-0.125000 I-0.855537 J2.194520
G03 X110.122627 Y106.345262 Z-0.125000 I-2.339097 J2.834643
G03 X110.360517 Y106.685371 Z-0.125000 I-2.603507 J2.074275
G03 X110.535583 Y107.064417 Z-0.125000 I-1.548887 J0.945319
G03 X110.582481 Y107.980435 Z-0.125000 I-1.652272 J0.543802
G03 X110.195555 Y108.813055 Z-0.125000 I-2.060709 J-0.451414
G01 X110.841173 Y109.326661 Z-0.125000
G03 X110.880168 Y110.225477 Z-0.125000 I-1.141455 J0.499775
G03 X110.362055 Y110.925087 Z-0.125000 I-1.345620 J-0.454876
G03 X109.568678 Y111.270430 Z-0.125000 I-1.201480 J-1.676228
G03 X108.604556 Y111.226291 Z-0.125000 I-0.393637 J-1.953524
G03 X107.854564 Y110.640617 Z-0.125000 I0.374103 J-1.252105
G02 X107.904140 Y111.220324 Z-0.125000 I1.159466 J0.192816
G02 X108.186994 Y111.730398 Z-0.125000 I1.619150 J-0.564412
G03 X107.257854 Y111.946247 Z-0.125000 I-0.736962 J-1.064614
G03 X106.314565 Y111.603489 Z-0.125000 I0.375716 J-2.503359
G03 X105.514600 Y111.000013 Z-0.125000 I2.655190 J-4.351668
G02 X104.720783 Y110.386482 Z-0.125000 I-3.924195 J4.257012
G02 X104.081969 Y110.058592 Z-0.125000 I-2.009170 J3.128144
G02 X103.398657 Y109.862112 Z-0.125000 I-1.345973 J3.394539
G02 X102.734323 Y109.811568 Z-0.125000 I-0.567830 J3.072234
G02 X102.083217 Y109.939457 Z-0.125000 I0.063129 J2.042797
G02 X101.513469 Y110.286285 Z-0.125000 I0.617716 J1.656133
G02 X101.131505 Y110.848345 Z-0.125000 I0.971135 J1.070781
G02 X101.063511 Y111.535221 Z-0.125000 I1.250855 J0.470626
G02 X101.371560 Y112.128806 Z-0.125000 I1.061217 J-0.174007
G01 X101.975991 Y112.392988 Z-0.125000
G01 X102.579431 Y112.161323 Z-0.125000
G02 X102.872696 Y111.736780 Z-0.125000 I-0.994572 J-1.000589
G01 X103.208436 Y111.378398 Z-0.125000
G01 X102.964414 Y111.309300 Z-0.125000
G01 X102.711918 Y111.440274 Z-0.125000
G02 X102.505690 Y111.635953 Z-0.125000 I1.849539 J2.155759
G01 X102.273741 Y111.774596 Z-0.125000
G01 X101.880652 Y111.674799 Z-0.125000
G01 X101.697002 Y111.265379 Z-0.125000
G01 X101.812731 Y110.840056 Z-0.125000
G03 X102.116946 Y110.518758 Z-0.125000 I0.994874 J0.637309
G03 X102.790509 Y110.272940 Z-0.125000 I0.773788 J1.074526
G03 X103.475535 Y110.443307 Z-0.125000 I0.085048 J1.120421
G03 X103.788600 Y110.720596 Z-0.125000 I-0.690213 J1.094639
G03 X104.040424 Y111.069647 Z-0.125000 I-2.846394 J2.318901
G03 X104.457254 Y111.882802 Z-0.125000 I-4.182325 J2.657306
G03 X104.645727 Y112.776929 Z-0.125000 I-2.455115 J0.984443
G03 X104.476421 Y113.687449 Z-0.125000 I-2.140021 J0.073074
G03 X103.904292 Y114.355407 Z-0.125000 I-1.341564 J-0.570091
G03 X103.019959 Y114.615757 Z-0.125000 I-0.913773 J-1.471739
G02 X102.080786 Y114.714353 Z-0.125000 I0.091713 J5.395904
G02 X101.355951 Y114.945231 Z-0.125000 I0.621977 J3.205919
G02 X100.655345 Y115.264611 Z-0.125000 I60.630348 J133.929548
G03 X99.938728 Y115.546574 Z-0.125000 I-2.922894 J-6.376990
G03 X99.191921 Y115.660178 Z-0.125000 I-0.706344 J-2.131877
G03 X98.456024 Y115.473744 Z-0.125000 I0.031100 J-1.668354
G03 X97.927835 Y114.925554 Z-0.125000 I0.545695 J-1.054340
G03 X97.305005 Y115.497026 Z-0.125000 I-1.575164 J-1.091584
G03 X96.516676 Y115.733419 Z-0.125000 I-0.901880 J-1.574948
G03 X95.673168 Y115.583184 Z-0.125000 I-0.113236 J-1.807314
G03 X94.962700 Y115.065091 Z-0.125000 I0.831115 J-1.885905
G01 X94.334961 Y115.285516 Z-0.125000
G03 X93.682508 Y115.077403 Z-0.125000 I0.045700 J-1.270083
G03 X93.199077 Y114.591717 Z-0.125000 I0.919504 J-1.398668
G03 X92.871487 Y113.959841 Z-0.125000 I3.029360 J-1.971403
G03 X92.738602 Y113.546484 Z-0.125000 I2.862222 J-1.148179
G03 X92.709222 Y113.116618 Z-0.125000 I1.220024 J-0.299322
G03 X92.957886 Y112.505415 Z-0.125000 I1.179079 J0.123516
G03 X93.451265 Y112.072297 Z-0.125000 I1.423809 J1.124335
G03 X93.891800 Y111.897793 Z-0.125000 I0.756443 J1.266323
G01 X94.340076 Y111.952964 Z-0.125000
G01 X94.697564 Y112.409228 Z-0.125000
G01 X94.620849 Y113.023172 Z-0.125000
G03 X94.207539 Y113.456320 Z-0.125000 I-0.919277 J-0.463412
G03 X93.641182 Y113.639094 Z-0.125000 I-0.730283 J-1.294042
G01 X94.438428 Y113.742907 Z-0.125000
G02 X95.094274 Y113.234372 Z-0.125000 I-0.312527 J-1.080241
G02 X95.251476 Y112.403061 Z-0.125000 I-1.071223 J-0.633088
G02 X94.856954 Y111.658735 Z-0.125000 I-1.293059 J0.208653
G02 X94.108798 Y111.315664 Z-0.125000 I-0.881330 J0.934659
G02 X93.303586 Y111.478789 Z-0.125000 I-0.142382 J1.366074
G02 X92.730044 Y111.970666 Z-0.125000 I0.897699 J1.627061
G03 X92.240355 Y112.580882 Z-0.125000 I-16.231906 J-12.524265
G03 X91.660179 Y113.109636 Z-0.125000 I-2.215449 J-1.848228
G03 X90.955909 Y113.282989 Z-0.125000 I-0.581539 J-0.845307
G01 X90.648956 Y113.195995 Z-0.125000
G03 X90.362760 Y113.041798 Z-0.125000 I1.109135 J-2.401296
G03 X89.906242 Y112.700325 Z-0.125000 I1.744039 J-2.807515
G03 X89.543231 Y112.254453 Z-0.125000 I1.209566 J-1.355493
G03 X89.354956 Y111.703500 Z-0.125000 I1.304720 J-0.753501
G03 X89.428977 Y111.132786 Z-0.125000 I1.093433 J-0.148341
G03 X88.302273 Y110.718849 Z-0.125000 I-0.084899 J-1.509279
G03 X87.787791 Y109.571987 Z-0.125000 I1.142738 J-1.201461
G03 X87.948373 Y108.762975 Z-0.125000 I1.817843 J-0.059616
G03 X88.399171 Y108.075906 Z-0.125000 I2.409791 J1.089683
G03 X88.593279 Y107.863080 Z-0.125000 I62.592066 J56.892348
G01 X88.747099 Y107.620357 Z-0.125000
G01 X88.774409 Y107.045724 Z-0.125000
G03 X88.634972 Y106.449758 Z-0.125000 I4.654305 J-1.403254
G03 X88.738664 Y105.453567 Z-0.125000 I1.845146 J-0.311433
G03 X89.301049 Y104.635455 Z-0.125000 I2.047375 J0.805049
G03 X90.144114 Y104.135792 Z-0.125000 I1.617604 J1.768262
G03 X91.102373 Y103.969021 Z-0.125000 I1.006593 J2.947403
G03 X91.814694 Y104.044377 Z-0.125000 I0.046906 J2.960980
G03 X92.473421 Y104.329230 Z-0.125000 I-0.446670 J1.937018
G03 X92.978920 Y104.848382 Z-0.125000 I-0.970715 J1.450866
G03 X93.198448 Y105.550025 Z-0.125000 I-1.210165 J0.763796
G03 X93.014847 Y106.270559 Z-0.125000 I-1.288861 J0.055242
G01 X92.463393 Y106.704840 Z-0.125000
G01 X91.769214 Y106.632731 Z-0.125000
G01 X91.359444 Y106.052297 Z-0.125000
G03 X91.362952 Y106.293423 Z-0.125000 I-1.148789 J0.137299
G02 X91.366737 Y106.534048 Z-0.125000 I1.137069 J0.102455
G02 X91.401411 Y106.754698 Z-0.125000 I3.048298 J-0.365972
G01 X91.480383 Y106.957080 Z-0.125000
G02 X91.725958 Y107.247591 Z-0.125000 I1.093371 J-0.675199
G01 X92.052869 Y107.388636 Z-0.125000
G02 X93.393044 Y106.631097 Z-0.125000 I0.125918 J-1.341468
G02 X93.654856 Y105.832573 Z-0.125000 I-2.889624 J-1.389603
G03 X95.710168 Y101.248680 Z-0.125000 I10.551193 J1.978188
G03 X99.524352 Y98.232832 Z-0.125000 I7.961835 J6.149592
G03 X102.918733 Y97.367955 Z-0.125000 I4.137890 J9.146572
G03 X106.404510 Y97.663632 Z-0.125000 I0.819464 J11.034194
G03 X109.640132 Y98.999011 Z-0.125000 I-2.860234 J11.517991
G03 X112.443564 Y101.210157 Z-0.125000 I-7.161210 J11.962196
G03 X113.866595 Y102.822843 Z-0.125000 I-14.960576 J14.635368
G02 X115.269224 Y104.458665 Z-0.125000 I22.677028 J-18.025072
G02 X119.850191 Y107.819329 Z-0.125000 I10.925532 J-10.090223
G02 X125.211754 Y109.541681 Z-0.125000 I9.272410 J-19.658109
G03 X127.167527 Y110.183442 Z-0.125000 I-1.360103 J7.445921
G01 X127.464624 Y110.742271 Z-0.125000
G02 X123.625773 Y109.706348 Z-0.125000 I-4.537301 J9.183176
G03 X119.734246 Y108.808320 Z-0.125000 I0.862406 J-12.617972
G00 Z5.000000

(End cutting path id: path1076)


(Start cutting path id: path1072)
(ZZZanette)
(Change tool to Default tool)

G00 Z5.000000
G00 X129.899500 Y112.732560

G01 Z-0.125000 F100.0(Penetrate)
G03 X129.113952 Y113.003593 Z-0.125000 I-1.766312 J-3.845480 F400.000000
G03 X128.287181 Y113.051413 Z-0.125000 I-0.547741 J-2.299008
G03 X127.486222 Y112.900870 Z-0.125000 I0.714864 J-6.009456
G02 X126.722570 Y112.986695 Z-0.125000 I-0.269555 J1.041876
G01 X126.255121 Y113.529797 Z-0.125000
G02 X126.192018 Y114.299042 Z-0.125000 I1.505192 J0.510685
G02 X126.419377 Y114.847048 Z-0.125000 I1.282250 J-0.210818
G01 X126.884227 Y115.083545 Z-0.125000
G01 X127.405288 Y114.775735 Z-0.125000
G02 X127.679447 Y114.109309 Z-0.125000 I-2.648107 J-1.479005
G03 X127.471940 Y114.294252 Z-0.125000 I-1.895964 J-1.918397
G01 X127.234282 Y114.423741 Z-0.125000
G01 X126.964648 Y114.443678 Z-0.125000
G01 X126.735940 Y114.307250 Z-0.125000
G01 X126.658896 Y114.146296 Z-0.125000
G01 X126.642653 Y113.962826 Z-0.125000
G01 X127.034833 Y113.293731 Z-0.125000
G01 X127.793094 Y113.211155 Z-0.125000
G01 X128.364516 Y113.725237 Z-0.125000
G03 X128.467678 Y114.534866 Z-0.125000 I-1.177261 J0.561393
G03 X128.099983 Y115.247297 Z-0.125000 I-1.402353 J-0.272673
G03 X127.441823 Y115.679263 Z-0.125000 I-1.255190 J-1.195073
G03 X127.117570 Y115.762785 Z-0.125000 I-0.578431 J-1.574438
G03 X126.785470 Y115.767973 Z-0.125000 I-0.184938 J-1.206320
G03 X125.801550 Y115.391798 Z-0.125000 I0.261908 J-2.159894
G03 X124.978677 Y113.419198 Z-0.125000 I1.141267 J-1.634013
G03 X125.151386 Y112.798086 Z-0.125000 I3.153147 J0.542211
G01 X125.557544 Y112.390030 Z-0.125000
G02 X124.984742 Y112.513907 Z-0.125000 I-0.055709 J1.128652
G02 X124.535943 Y112.915663 Z-0.125000 I0.546653 J1.062215
G02 X124.333323 Y113.489708 Z-0.125000 I1.038602 J0.689375
G02 X124.426247 Y114.094787 Z-0.125000 I1.256337 J0.116735
G01 X123.953483 Y113.632220 Z-0.125000
G03 X123.854976 Y112.929238 Z-0.125000 I1.206849 J-0.527505
G03 X124.093911 Y112.276186 Z-0.125000 I1.604194 J0.216696
G03 X124.531081 Y111.737487 Z-0.125000 I2.560502 J1.631185
G03 X124.978121 Y111.387108 Z-0.125000 I1.826658 J1.870218
G03 X125.496466 Y111.225429 Z-0.125000 I0.571116 J0.919254
G03 X126.203321 Y111.412170 Z-0.125000 I0.059361 J1.206477
G02 X126.870857 Y111.802205 Z-0.125000 I5.610397 J-8.835799
G02 X127.737440 Y112.114876 Z-0.125000 I1.503957 J-2.811067
G02 X128.645137 Y112.209137 Z-0.125000 I0.934198 J-4.578462
G02 X130.048416 Y112.142983 Z-0.125000 I0.430734 J-5.779626
G02 X131.087012 Y111.669613 Z-0.125000 I-0.373854 J-2.196305
G03 X130.587721 Y112.288397 Z-0.125000 I-1.943978 J-1.057752
G03 X129.899500 Y112.732560 Z-0.125000 I-1.941611 J-2.253208
G00 Z5.000000

(End cutting path id: path1072)


(Start cutting path id: path1056)
(ZZZanette)
(Change tool to Default tool)

G00 Z5.000000
G00 X130.841070 Y128.231730

G01 Z-0.125000 F100.0(Penetrate)
G01 X131.219486 Y129.021883 Z-0.125000 F400.000000
G01 X132.062008 Y129.135882 Z-0.125000
G01 X132.658402 Y128.509668 Z-0.125000
G02 X132.570377 Y127.608863 Z-0.125000 I-1.090809 J-0.348112
G02 X131.875999 Y127.017331 Z-0.125000 I-1.129500 J0.622563
G02 X130.959274 Y126.808574 Z-0.125000 I-1.322339 J3.689643
G02 X130.359116 Y126.820485 Z-0.125000 I-0.251867 J2.435316
G02 X129.786651 Y127.003358 Z-0.125000 I0.257983 J1.795041
G02 X129.201413 Y127.571049 Z-0.125000 I0.645948 J1.251426
G02 X129.140326 Y129.668777 Z-0.125000 I1.994871 J1.107845
G01 X128.594882 Y130.355329 Z-0.125000
G02 X128.865934 Y131.262092 Z-0.125000 I1.138916 J0.153445
G02 X129.658711 Y131.685018 Z-0.125000 I0.947190 J-0.821017
G02 X130.568501 Y131.567370 Z-0.125000 I0.226523 J-1.824860
G02 X130.942718 Y131.389158 Z-0.125000 I-1.223803 J-3.051795
G03 X131.317534 Y131.211581 Z-0.125000 I1.549897 J2.787047
G03 X132.199170 Y131.082248 Z-0.125000 I0.715165 J1.805493
G03 X133.022228 Y131.407944 Z-0.125000 I-0.132243 J1.537000
G03 X133.524877 Y132.163349 Z-0.125000 I-0.907164 J1.148565
G03 X133.440653 Y133.065661 Z-0.125000 I-1.222640 J0.340963
G03 X132.753854 Y133.635356 Z-0.125000 I-0.982026 J-0.485053
G01 X131.921621 Y133.455861 Z-0.125000
G02 X132.341120 Y133.366704 Z-0.125000 I-0.092219 J-1.465380
G01 X132.703471 Y133.132273 Z-0.125000
G01 X132.895278 Y132.759307 Z-0.125000
G02 X132.907974 Y132.316200 Z-0.125000 I-1.540086 J-0.265863
G01 X132.549099 Y131.761077 Z-0.125000
G02 X131.465821 Y131.678179 Z-0.125000 I-0.625144 J1.049769
G02 X131.251032 Y131.787837 Z-0.125000 I0.525152 J1.293808
G01 X131.069578 Y131.949362 Z-0.125000
G02 X130.813479 Y132.612787 Z-0.125000 I0.925074 J0.738245
G02 X130.983888 Y133.307169 Z-0.125000 I1.192216 J0.075519
G02 X131.516776 Y133.766306 Z-0.125000 I0.970396 J-0.587458
G02 X132.198748 Y133.814807 Z-0.125000 I0.412968 J-0.987893
G02 X132.130569 Y134.708475 Z-0.125000 I1.502591 J0.564070
G02 X132.548803 Y135.485153 Z-0.125000 I1.524211 J-0.319828
G02 X133.315094 Y135.894805 Z-0.125000 I1.047319 J-1.037572
G02 X134.166287 Y135.799586 Z-0.125000 I0.273414 J-1.408015
G02 X134.786910 Y136.768434 Z-0.125000 I2.103469 J-0.664232
G02 X135.780125 Y137.264413 Z-0.125000 I1.378648 J-1.518325
G02 X136.880862 Y137.166449 Z-0.125000 I0.378623 J-1.978721
G02 X137.790206 Y136.492853 Z-0.125000 I-0.757732 J-1.973524
G02 X139.814558 Y136.055316 Z-0.125000 I0.735542 J-1.498670
G02 X139.962248 Y134.735060 Z-0.125000 I-0.939435 J-0.773478
G02 X139.488594 Y134.245340 Z-0.125000 I-1.020379 J0.512985
G01 X138.854956 Y134.193011 Z-0.125000
G01 X138.507097 Y134.515479 Z-0.125000
G01 X138.463575 Y135.020449 Z-0.125000
G01 X138.709112 Y135.451136 Z-0.125000
G02 X139.122663 Y135.712769 Z-0.125000 I0.826982 J-0.849513
G01 X138.435090 Y135.900358 Z-0.125000
G01 X137.810869 Y135.519248 Z-0.125000
G03 X137.599413 Y134.803501 Z-0.125000 I0.879231 J-0.648864
G03 X137.875896 Y134.103353 Z-0.125000 I1.213127 J0.074391
G03 X138.494283 Y133.704823 Z-0.125000 I0.939839 J0.779289
G03 X139.222635 Y133.711890 Z-0.125000 I0.351706 J1.288675
G03 X139.850460 Y134.084955 Z-0.125000 I-0.418034 J1.418311
G03 X140.266722 Y134.721169 Z-0.125000 I-1.316255 J1.315484
G03 X140.496348 Y135.399351 Z-0.125000 I-7.229421 J2.825780
G01 X140.913048 Y135.874406 Z-0.125000
G01 X141.503383 Y135.814715 Z-0.125000
G01 X141.888461 Y135.277109 Z-0.125000
G02 X142.646818 Y135.563745 Z-0.125000 I0.766057 J-0.880253
G02 X143.408100 Y135.287212 Z-0.125000 I0.007688 J-1.164987
G02 X143.825826 Y134.571571 Z-0.125000 I-0.803416 J-0.948697
G02 X143.703763 Y133.738409 Z-0.125000 I-1.261339 J-0.240729
G02 X144.878985 Y131.822286 Z-0.125000 I-0.208290 J-1.446214
G01 X143.832906 Y131.293978 Z-0.125000
G02 X143.314253 Y131.496032 Z-0.125000 I1.302763 J4.110749
G01 X142.964150 Y131.890958 Z-0.125000
G01 X143.011673 Y132.390248 Z-0.125000
G01 X143.402023 Y132.651469 Z-0.125000
G01 X143.836558 Y132.466607 Z-0.125000
G01 X143.894591 Y131.986930 Z-0.125000
G01 X144.283430 Y132.063955 Z-0.125000
G01 X144.466165 Y132.468050 Z-0.125000
G01 X144.346053 Y132.885605 Z-0.125000
G03 X144.045917 Y133.204883 Z-0.125000 I-1.087065 J-0.721181
G03 X143.633148 Y133.418121 Z-0.125000 I-0.822303 J-1.085629
G01 X143.186277 Y133.425239 Z-0.125000
G01 X142.844275 Y133.227983 Z-0.125000
G03 X142.590090 Y132.901500 Z-0.125000 I1.051676 J-1.080977
G03 X142.331050 Y131.985781 Z-0.125000 I1.672699 J-0.967674
G03 X142.540256 Y131.055627 Z-0.125000 I1.940357 J-0.052187
G01 X143.077060 Y130.649645 Z-0.125000
G03 X143.786718 Y130.670794 Z-0.125000 I0.308343 J1.570376
G03 X144.427786 Y130.962506 Z-0.125000 I-0.512145 J1.975758
G03 X145.017988 Y131.379215 Z-0.125000 I-14.244599 J20.801496
G02 X145.733903 Y131.850584 Z-0.125000 I5.368157 J-7.373821
G02 X146.504809 Y132.194657 Z-0.125000 I1.868731 J-3.151286
G02 X147.339491 Y132.322459 Z-0.125000 I0.834897 J-2.663196
G02 X148.156327 Y132.140989 Z-0.125000 I0.000149 J-1.928444
G02 X148.765451 Y131.727612 Z-0.125000 I-0.980509 J-2.100284
G03 X149.319834 Y131.217264 Z-0.125000 I22.171263 J23.527965
G03 X150.074330 Y130.594334 Z-0.125000 I7.615267 J8.455261
G03 X151.304693 Y129.971213 Z-0.125000 I2.343329 J3.100699
G02 X150.356664 Y130.173371 Z-0.125000 I-0.025914 J2.202468
G02 X148.772569 Y131.037948 Z-0.125000 I5.588255 J12.122397
G03 X147.944064 Y131.370799 Z-0.125000 I-1.303910 J-2.048042
G03 X147.053897 Y131.474240 Z-0.125000 I-1.079085 J-5.404203
G03 X145.997954 Y131.293104 Z-0.125000 I-0.091079 J-2.637465
G03 X145.050805 Y130.738669 Z-0.125000 I1.297046 J-3.301992
G02 X143.995706 Y130.080258 Z-0.125000 I-3.118925 J3.823457
G02 X142.849896 Y129.673196 Z-0.125000 I-2.823637 J6.131898
G02 X141.720245 Y129.717101 Z-0.125000 I-0.491156 J1.917412
G02 X140.690313 Y130.284383 Z-0.125000 I1.089294 J3.196265
G01 X141.088338 Y130.679587 Z-0.125000
G03 X141.240312 Y131.255778 Z-0.125000 I-1.266581 J0.642206
G03 X141.158466 Y131.833643 Z-0.125000 I-1.566273 J0.072889
G03 X140.906970 Y132.359766 Z-0.125000 I-2.344615 J-0.797596
G03 X139.899340 Y133.236710 Z-0.125000 I-1.969234 J-1.245332
G03 X138.680840 Y133.179943 Z-0.125000 I-0.553647 J-1.221908
G02 X138.552752 Y133.112210 Z-0.125000 I-1.147227 J2.014497
G01 X138.418907 Y133.099757 Z-0.125000
G01 X138.316191 Y133.169730 Z-0.125000
G02 X138.239929 Y133.280966 Z-0.125000 I1.251654 J0.939874
G03 X137.561410 Y133.959737 Z-0.125000 I-1.808670 J-1.129478
G03 X136.675621 Y134.236577 Z-0.125000 I-0.972421 J-1.555880
G03 X135.770046 Y134.032203 Z-0.125000 I-0.081714 J-1.746410
G03 X135.088524 Y133.368414 Z-0.125000 I0.806812 J-1.510125
G03 X134.969134 Y133.059098 Z-0.125000 I0.963964 J-0.549770
G01 X134.815347 Y132.781220 Z-0.125000
G02 X134.594286 Y132.612581 Z-0.125000 I-0.774539 J0.786101
G03 X133.776122 Y131.645978 Z-0.125000 I0.944238 J-1.628796
G01 X133.746056 Y131.032787 Z-0.125000
G03 X134.024685 Y130.472538 Z-0.125000 I1.525323 J0.409178
G01 X134.649710 Y130.157186 Z-0.125000
G03 X135.383579 Y130.286593 Z-0.125000 I0.045869 J1.885468
G03 X137.414163 Y128.154944 Z-0.125000 I5.210435 J2.930419
G03 X140.138794 Y127.328209 Z-0.125000 I2.877849 J4.581306
G01 X139.003547 Y127.322211 Z-0.125000
G02 X138.094872 Y127.340836 Z-0.125000 I-0.092232 J17.675412
G02 X137.203439 Y127.496159 Z-0.125000 I0.165902 J3.587875
G02 X135.829180 Y128.231954 Z-0.125000 I1.199277 J3.891175
G03 X134.524547 Y129.149457 Z-0.125000 I-7.078341 J-8.678665
G03 X133.714159 Y129.553362 Z-0.125000 I-2.953379 J-4.910679
G03 X132.857228 Y129.821889 Z-0.125000 I-2.111207 J-5.235760
G03 X131.931343 Y129.911127 Z-0.125000 I-0.810714 J-3.563665
G03 X131.069274 Y129.624895 Z-0.125000 I0.050210 J-1.592518
G03 X130.626073 Y128.959220 Z-0.125000 I0.626007 J-0.897168
G01 X130.841070 Y128.231730 Z-0.125000
G00 Z5.000000

(End cutting path id: path1056)


(Start cutting path id: path1060)
(ZZZanette)
(Change tool to Default tool)

G00 Z5.000000
G00 X135.475030 Y130.730940

G01 Z-0.125000 F100.0(Penetrate)
G02 X135.163772 Y130.587041 Z-0.125000 I-1.271145 J2.340949 F400.000000
G02 X134.838732 Y130.485013 Z-0.125000 I-0.952554 J2.465866
G02 X134.709696 Y130.460274 Z-0.125000 I-0.304157 J1.237580
G01 X134.580142 Y130.462914 Z-0.125000
G01 X134.432409 Y130.521368 Z-0.125000
G01 X134.304838 Y130.624551 Z-0.125000
G02 X134.010378 Y131.193923 Z-0.125000 I0.745041 J0.746138
G02 X134.098512 Y131.838085 Z-0.125000 I1.069220 J0.181819
G02 X134.537442 Y132.305112 Z-0.125000 I0.936983 J-0.440837
G01 X135.147461 Y132.413598 Z-0.125000
G01 X135.211406 Y132.909423 Z-0.125000
G02 X135.502986 Y133.323117 Z-0.125000 I1.271065 J-0.586269
G02 X136.212068 Y133.735469 Z-0.125000 I1.168196 J-1.192989
G02 X137.017459 Y133.756251 Z-0.125000 I0.442927 J-1.548742
G02 X137.737041 Y133.385316 Z-0.125000 I-0.370939 J-1.603023
G02 X138.213176 Y132.697408 Z-0.125000 I-1.162374 J-1.313268
G02 X139.163245 Y133.069997 Z-0.125000 I1.025657 J-1.217744
G02 X140.148505 Y132.801903 Z-0.125000 I0.078678 J-1.655346
G02 X140.793192 Y132.010285 Z-0.125000 I-0.919691 J-1.407311
G02 X140.872013 Y130.963608 Z-0.125000 I-1.653675 J-0.650837
G02 X140.792915 Y130.714208 Z-0.125000 I-1.556927 J0.356542
G02 X140.668118 Y130.488486 Z-0.125000 I-1.031528 J0.422949
G01 X140.315799 Y130.180558 Z-0.125000
G01 X139.874417 Y130.068611 Z-0.125000
G01 X139.430599 Y130.171735 Z-0.125000
G01 X139.072816 Y130.472701 Z-0.125000
G01 X138.947625 Y130.702497 Z-0.125000
G01 X138.904778 Y130.961714 Z-0.125000
G01 X138.973187 Y131.217932 Z-0.125000
G01 X139.151214 Y131.397689 Z-0.125000
G01 X139.443136 Y131.437117 Z-0.125000
G01 X139.706379 Y131.283723 Z-0.125000
G01 X139.850526 Y131.012973 Z-0.125000
G01 X139.863478 Y130.697161 Z-0.125000
G01 X140.032281 Y130.905544 Z-0.125000
G03 X140.044887 Y131.219005 Z-0.125000 I-1.134980 J0.202627
G01 X139.976196 Y131.498621 Z-0.125000
G01 X139.823064 Y131.733905 Z-0.125000
G01 X139.588927 Y131.888155 Z-0.125000
G01 X139.318037 Y131.914167 Z-0.125000
G01 X139.162599 Y131.862379 Z-0.125000
G03 X139.019335 Y131.775261 Z-0.125000 I0.496838 J-0.978396
G03 X138.841025 Y131.620732 Z-0.125000 I0.781289 J-1.081665
G03 X138.693894 Y131.432100 Z-0.125000 I0.814784 J-0.787220
G03 X138.527811 Y130.716887 Z-0.125000 I0.960173 J-0.599856
G03 X138.834584 Y130.057246 Z-0.125000 I1.106219 J0.113304
G03 X139.473914 Y129.744416 Z-0.125000 I0.750122 J0.723310
G01 X140.158229 Y129.915498 Z-0.125000
G03 X141.045359 Y129.380581 Z-0.125000 I1.650410 J1.734026
G03 X142.060741 Y129.211497 Z-0.125000 I1.033226 J3.071391
G03 X143.077289 Y129.348876 Z-0.125000 I0.021881 J3.667812
G03 X144.048335 Y129.718504 Z-0.125000 I-1.583398 J5.620050
G03 X145.753587 Y130.651581 Z-0.125000 I-8.896419 J18.283476
G02 X147.542199 Y131.083256 Z-0.125000 I1.564244 J-2.559998
G02 X149.077521 Y130.555031 Z-0.125000 I-0.239376 J-3.191131
G03 X150.571146 Y129.798691 Z-0.125000 I3.906589 J5.861775
G03 X151.304684 Y129.640712 Z-0.125000 I0.938002 J2.573393
G03 X152.019072 Y129.791430 Z-0.125000 I0.097710 J1.305283
G02 X151.076283 Y129.259275 Z-0.125000 I-1.278462 J1.163758
G02 X149.978301 Y129.254747 Z-0.125000 I-0.560681 J2.832720
G02 X148.933189 Y129.583977 Z-0.125000 I0.871732 J4.590662
G03 X147.913828 Y130.016521 Z-0.125000 I-10.616036 J-23.601035
G03 X147.299049 Y130.209997 Z-0.125000 I-1.601367 J-4.014937
G03 X146.672835 Y130.205622 Z-0.125000 I-0.304062 J-1.297014
G03 X146.198023 Y129.986080 Z-0.125000 I0.337926 J-1.354063
G03 X145.769742 Y129.658206 Z-0.125000 I4.946649 J-6.905144
G02 X144.261039 Y128.539467 Z-0.125000 I-12.504661 J15.286803
G02 X142.607094 Y127.727727 Z-0.125000 I-3.832418 J5.717819
G02 X140.539146 Y127.432044 Z-0.125000 I-1.847579 J5.542344
G02 X138.495469 Y127.883050 Z-0.125000 I0.221116 J5.857801
G02 X136.756496 Y129.021216 Z-0.125000 I2.207859 J5.270876
G02 X135.475030 Y130.730940 Z-0.125000 I4.486536 J4.697832
G00 Z5.000000

(End cutting path id: path1060)


(Start cutting path id: path1064)
(ZZZanette)
(Change tool to Default tool)

G00 Z5.000000
G00 X149.134230 Y132.319750

G01 Z-0.125000 F100.0(Penetrate)
G03 X148.840338 Y132.657439 Z-0.125000 I-1.918874 J-1.373270 F400.000000
G03 X148.473015 Y132.901893 Z-0.125000 I-0.885447 J-0.932297
G03 X148.069066 Y133.048812 Z-0.125000 I-1.318694 J-2.996923
G01 X147.737657 Y133.294618 Z-0.125000
G01 X147.659472 Y133.673634 Z-0.125000
G01 X147.822436 Y134.040923 Z-0.125000
G01 X148.062227 Y134.229500 Z-0.125000
G01 X148.336883 Y134.214555 Z-0.125000
G01 X148.499459 Y133.931644 Z-0.125000
G02 X148.458430 Y133.551910 Z-0.125000 I-1.637378 J-0.015167
G03 X148.409348 Y133.693218 Z-0.125000 I-1.405429 J-0.408977
G01 X148.332629 Y133.816779 Z-0.125000
G01 X148.212448 Y133.899233 Z-0.125000
G01 X148.074342 Y133.897912 Z-0.125000
G01 X147.998855 Y133.844790 Z-0.125000
G01 X147.945502 Y133.764689 Z-0.125000
G01 X147.955384 Y133.350836 Z-0.125000
G01 X148.286137 Y133.108673 Z-0.125000
G01 X148.676205 Y133.191533 Z-0.125000
G01 X148.926993 Y133.534862 Z-0.125000
G01 X148.937560 Y133.959457 Z-0.125000
G01 X148.741938 Y134.337992 Z-0.125000
G01 X148.613437 Y134.464135 Z-0.125000
G01 X148.462684 Y134.555822 Z-0.125000
G03 X147.915896 Y134.646513 Z-0.125000 I-0.452371 J-1.033735
G01 X147.044536 Y133.964209 Z-0.125000
G03 X146.968904 Y133.634100 Z-0.125000 I1.586463 J-0.537201
G01 X147.053045 Y133.334711 Z-0.125000
G01 X146.820681 Y133.545991 Z-0.125000
G01 X146.715144 Y133.852452 Z-0.125000
G01 X146.766717 Y134.173124 Z-0.125000
G01 X146.959757 Y134.424177 Z-0.125000
G01 X146.627101 Y134.338115 Z-0.125000
G01 X146.405808 Y134.042501 Z-0.125000
G01 X146.351656 Y133.680026 Z-0.125000
G03 X146.418266 Y133.312297 Z-0.125000 I1.665475 J0.111787
G03 X146.536022 Y133.030168 Z-0.125000 I1.391394 J0.415105
G01 X146.733680 Y132.816339 Z-0.125000
G01 X147.107417 Y132.711461 Z-0.125000
G02 X147.509453 Y132.709950 Z-0.125000 I0.180505 J-5.457721
G02 X147.984119 Y132.620596 Z-0.125000 I-0.065829 J-1.655145
G02 X148.426827 Y132.418247 Z-0.125000 I-0.825621 J-2.391788
G02 X149.055813 Y132.008051 Z-0.125000 I-1.393348 J-2.823860
G02 X149.414092 Y131.510622 Z-0.125000 I-0.798199 J-0.952654
G03 X149.339798 Y131.929048 Z-0.125000 I-1.215442 J-0.000000
G03 X149.134230 Y132.319750 Z-0.125000 I-1.564037 J-0.573486
G00 Z5.000000

(End cutting path id: path1064)


(Start cutting path id: path1036)
(ZZZanette)
(Change tool to Default tool)

G00 Z5.000000
G00 X158.531550 Y120.825360

G01 Z-0.125000 F100.0(Penetrate)
G02 X158.108884 Y120.630011 Z-0.125000 I-1.741635 J3.213357 F400.000000
G02 X157.667048 Y120.491038 Z-0.125000 I-1.297388 J3.352933
G02 X157.491624 Y120.457663 Z-0.125000 I-0.416688 J1.712456
G01 X157.315474 Y120.461363 Z-0.125000
G01 X157.114554 Y120.540776 Z-0.125000
G02 X156.941718 Y120.680771 Z-0.125000 I0.581424 J0.894509
G02 X156.541614 Y121.454797 Z-0.125000 I1.013695 J1.014414
G02 X156.661248 Y122.329650 Z-0.125000 I1.452532 J0.246975
G02 X157.257690 Y122.963985 Z-0.125000 I1.273603 J-0.599946
G02 X158.086385 Y123.111312 Z-0.125000 I0.632357 J-1.152616
G02 X158.173433 Y123.785291 Z-0.125000 I1.118393 J0.198163
G02 X158.569533 Y124.347260 Z-0.125000 I1.727308 J-0.796901
G02 X159.532864 Y124.907592 Z-0.125000 I1.585221 J-1.617083
G02 X160.627017 Y124.935717 Z-0.125000 I0.601580 J-2.106302
G02 X161.604527 Y124.431909 Z-0.125000 I-0.502511 J-2.175202
G02 X162.251491 Y123.496776 Z-0.125000 I-1.580395 J-1.784747
G02 X163.542781 Y124.003260 Z-0.125000 I1.394190 J-1.655191
G02 X164.881156 Y123.639155 Z-0.125000 I0.107029 J-2.248433
G02 X165.757118 Y122.563570 Z-0.125000 I-1.248427 J-1.911211
G02 X165.864166 Y121.141371 Z-0.125000 I-2.248269 J-0.884354
G02 X165.756637 Y120.802778 Z-0.125000 I-2.114229 J0.485058
G02 X165.587039 Y120.496089 Z-0.125000 I-1.404728 J0.576571
G02 X165.108288 Y120.077664 Z-0.125000 I-1.126042 J0.805287
G02 X164.508311 Y119.925627 Z-0.125000 I-0.612841 J1.158585
G02 X163.905503 Y120.065889 Z-0.125000 I-0.012860 J1.310219
G02 X163.419556 Y120.474622 Z-0.125000 I0.621020 J1.231578
G02 X163.249441 Y120.786616 Z-0.125000 I1.014549 J0.755556
G01 X163.191351 Y121.139161 Z-0.125000
G01 X163.283975 Y121.487104 Z-0.125000
G01 X163.526213 Y121.731406 Z-0.125000
G01 X163.922648 Y121.785047 Z-0.125000
G01 X164.280411 Y121.576400 Z-0.125000
G01 X164.476130 Y121.208898 Z-0.125000
G02 X164.494029 Y120.779584 Z-0.125000 I-1.087213 J-0.260359
G01 X164.723406 Y121.062509 Z-0.125000
G03 X164.740466 Y121.488321 Z-0.125000 I-1.544539 J0.275127
G03 X164.646902 Y121.868599 Z-0.125000 I-1.333735 J-0.126502
G01 X164.438422 Y122.188218 Z-0.125000
G01 X164.120629 Y122.397823 Z-0.125000
G01 X163.753202 Y122.432882 Z-0.125000
G01 X163.541353 Y122.362395 Z-0.125000
G03 X163.347235 Y122.244096 Z-0.125000 I0.655528 J-1.294085
G03 X163.104833 Y122.034306 Z-0.125000 I1.042842 J-1.449888
G03 X162.904805 Y121.778129 Z-0.125000 I1.120244 J-1.080894
G03 X162.679142 Y120.806684 Z-0.125000 I1.305018 J-0.815083
G03 X163.095937 Y119.909843 Z-0.125000 I1.503843 J0.153621
G03 X163.964641 Y119.485010 Z-0.125000 I1.019304 J0.983703
G03 X164.894222 Y119.717584 Z-0.125000 I0.147870 J1.382998
G03 X166.099724 Y118.990620 Z-0.125000 I2.242787 J2.356138
G03 X167.479219 Y118.760711 Z-0.125000 I1.404790 J4.175426
G03 X168.860005 Y118.947593 Z-0.125000 I0.027002 J4.994935
G03 X170.179382 Y119.449874 Z-0.125000 I-2.145324 J7.619257
G03 X172.496290 Y120.717633 Z-0.125000 I-12.118023 J24.897457
G02 X174.926393 Y121.304270 Z-0.125000 I2.126000 J-3.480220
G02 X177.012761 Y120.586422 Z-0.125000 I-0.324852 J-4.335006
G03 X179.041665 Y119.559105 Z-0.125000 I5.301300 J7.952672
G03 X180.038344 Y119.344219 Z-0.125000 I1.274169 J3.490989
G03 X181.008900 Y119.549003 Z-0.125000 I0.132766 J1.773092
G02 X179.727835 Y118.825852 Z-0.125000 I-1.737417 J1.581563
G02 X178.236417 Y118.819746 Z-0.125000 I-0.761467 J3.845631
G02 X176.816367 Y119.266897 Z-0.125000 I1.184750 J6.240946
G03 X175.431117 Y119.854596 Z-0.125000 I-14.506299 J-32.266020
G03 X174.596111 Y120.117635 Z-0.125000 I-2.162918 J-5.409217
G03 X173.744958 Y120.111572 Z-0.125000 I-0.413031 J-1.764284
G03 X173.100072 Y119.813481 Z-0.125000 I0.457031 J-1.835349
G03 X172.518247 Y119.367793 Z-0.125000 I6.723990 J-9.380479
G02 X170.468717 Y117.848024 Z-0.125000 I-16.976833 J20.752740
G02 X168.221567 Y116.745310 Z-0.125000 I-5.205513 J7.766965
G02 X165.412134 Y116.343395 Z-0.125000 I-2.510503 J7.528624
G02 X162.635275 Y116.956194 Z-0.125000 I0.299929 J7.957084
G02 X160.272375 Y118.502559 Z-0.125000 I2.998297 J7.159984
G02 X158.531550 Y120.825360 Z-0.125000 I6.093860 J6.380780
G00 Z5.000000

(End cutting path id: path1036)


(Start cutting path id: path1032)
(ZZZanette)
(Change tool to Default tool)

G00 Z5.000000
G00 X152.235530 Y117.429920

G01 Z-0.125000 F100.0(Penetrate)
G02 X152.749979 Y118.503583 Z-0.125000 I1.245696 J0.063202 F400.000000
G02 X153.894340 Y118.658292 Z-0.125000 I0.716487 J-0.990066
G02 X154.704759 Y117.807671 Z-0.125000 I-0.470154 J-1.259302
G02 X154.585030 Y116.583540 Z-0.125000 I-1.482015 J-0.472969
G02 X153.641854 Y115.780097 Z-0.125000 I-1.535586 J0.847325
G02 X152.395668 Y115.496284 Z-0.125000 I-1.793775 J4.998410
G02 X151.580862 Y115.512399 Z-0.125000 I-0.342110 J3.309474
G02 X150.803101 Y115.760837 Z-0.125000 I0.349699 J2.436419
G02 X150.007734 Y116.532475 Z-0.125000 I0.878476 J1.701223
G02 X149.924925 Y119.382497 Z-0.125000 I2.709866 J1.504951
G02 X149.183800 Y120.315184 Z-0.125000 I0.411576 J1.087841
G02 X149.551776 Y121.547222 Z-0.125000 I1.548609 J0.208444
G02 X150.629182 Y122.121594 Z-0.125000 I1.286894 J-1.116271
G02 X151.864812 Y121.961731 Z-0.125000 I0.307298 J-2.480003
G02 X152.373680 Y121.719767 Z-0.125000 I-1.638626 J-4.102227
G03 X152.883071 Y121.478716 Z-0.125000 I2.086993 J3.751508
G03 X154.080863 Y121.302801 Z-0.125000 I0.972256 J2.454210
G03 X155.199145 Y121.745164 Z-0.125000 I-0.178972 J2.087114
G03 X155.881988 Y122.771614 Z-0.125000 I-1.232983 J1.560593
G03 X155.767377 Y123.997336 Z-0.125000 I-1.660494 J0.462954
G03 X154.834258 Y124.771349 Z-0.125000 I-1.334412 J-0.659242
G03 X153.703512 Y124.527705 Z-0.125000 I-0.334330 J-1.194089
G02 X154.273738 Y124.406383 Z-0.125000 I-0.126385 J-1.994746
G02 X154.765831 Y124.088257 Z-0.125000 I-0.472354 J-1.270320
G01 X155.026437 Y123.581336 Z-0.125000
G02 X155.043566 Y122.978902 Z-0.125000 I-2.085675 J-0.360760
G01 X154.556219 Y122.225071 Z-0.125000
G02 X153.084231 Y122.112633 Z-0.125000 I-0.849244 J1.426401
G02 X152.792509 Y122.261482 Z-0.125000 I0.713092 J1.757850
G01 X152.546082 Y122.481050 Z-0.125000
G02 X152.198062 Y123.382306 Z-0.125000 I1.254836 J1.002378
G02 X152.429701 Y124.325344 Z-0.125000 I1.619490 J0.102171
G02 X153.153442 Y124.949083 Z-0.125000 I1.318495 J-0.798126
G02 X154.080003 Y125.015455 Z-0.125000 I0.561879 J-1.343272
G02 X153.987511 Y126.229538 Z-0.125000 I2.043855 J0.766270
G02 X154.555859 Y127.284675 Z-0.125000 I2.068608 J-0.433613
G02 X155.596958 Y127.841197 Z-0.125000 I1.423652 J-1.411192
G02 X156.753425 Y127.711811 Z-0.125000 I0.371616 J-1.911460
G02 X157.596647 Y129.028272 Z-0.125000 I2.856105 J-0.901115
G02 X158.946130 Y129.701956 Z-0.125000 I1.873035 J-2.063507
G02 X160.441316 Y129.568959 Z-0.125000 I0.514375 J-2.688397
G02 X161.676983 Y128.653847 Z-0.125000 I-1.029245 J-2.681589
G02 X164.427016 Y128.059606 Z-0.125000 I0.999347 J-2.035648
G02 X164.627836 Y126.265294 Z-0.125000 I-1.276878 J-1.051303
G02 X163.984409 Y125.600239 Z-0.125000 I-1.385934 J0.697087
G02 X163.123694 Y125.529091 Z-0.125000 I-0.510750 J0.936979
G01 X162.651160 Y125.967308 Z-0.125000
G02 X162.591927 Y126.653284 Z-0.125000 I0.994241 J0.431396
G02 X162.925467 Y127.238591 Z-0.125000 I1.180650 J-0.285110
G02 X163.487119 Y127.594057 Z-0.125000 I1.124730 J-1.155675
G03 X162.553334 Y127.848918 Z-0.125000 I-0.746857 J-0.898330
G03 X161.704635 Y127.330766 Z-0.125000 I0.210568 J-1.299030
G03 X161.417665 Y126.358743 Z-0.125000 I1.194384 J-0.880990
G03 X161.793668 Y125.407233 Z-0.125000 I1.648269 J0.101291
G03 X162.633842 Y124.865875 Z-0.125000 I1.276444 J1.058365
G03 X163.622948 Y124.875601 Z-0.125000 I0.477388 J1.750492
G03 X164.475931 Y125.382325 Z-0.125000 I-0.567076 J1.925866
G03 X165.041400 Y126.246668 Z-0.125000 I-1.788103 J1.786949
G03 X165.353894 Y127.168536 Z-0.125000 I-9.662845 J3.789401
G01 X165.919575 Y127.813465 Z-0.125000
G01 X166.721908 Y127.732553 Z-0.125000
G02 X167.245043 Y127.001812 Z-0.125000 I-0.779355 J-1.110563
G02 X168.274999 Y127.391338 Z-0.125000 I1.040787 J-1.195542
G02 X169.309820 Y127.015702 Z-0.125000 I0.010820 J-1.583402
G02 X169.877341 Y126.043342 Z-0.125000 I-1.091449 J-1.288825
G02 X169.711532 Y124.911275 Z-0.125000 I-1.714513 J-0.327060
G02 X171.308396 Y122.308312 Z-0.125000 I-0.282732 J-1.964753
G02 X169.886864 Y121.590157 Z-0.125000 I-1.076901 J0.365658
G02 X169.182348 Y121.864932 Z-0.125000 I1.799186 J5.653629
G01 X168.706644 Y122.401495 Z-0.125000
G01 X168.771070 Y123.079916 Z-0.125000
G01 X169.301616 Y123.434767 Z-0.125000
G01 X169.891983 Y123.183549 Z-0.125000
G01 X169.970731 Y122.531877 Z-0.125000
G01 X170.498997 Y122.636337 Z-0.125000
G01 X170.747111 Y123.185367 Z-0.125000
G01 X170.584003 Y123.752703 Z-0.125000
G03 X170.176145 Y124.186438 Z-0.125000 I-1.479301 J-0.982416
G03 X169.615622 Y124.476267 Z-0.125000 I-1.119714 J-1.478569
G03 X169.008080 Y124.486033 Z-0.125000 I-0.320124 J-1.012365
G03 X168.543633 Y124.218224 Z-0.125000 I0.295403 J-1.048941
G03 X168.197971 Y123.774771 Z-0.125000 I1.434214 J-1.474383
G03 X167.846210 Y122.530578 Z-0.125000 I2.273927 J-1.314711
G03 X168.130512 Y121.266253 Z-0.125000 I2.638334 J-0.070859
G03 X168.859619 Y120.714730 Z-0.125000 I0.930048 J0.471815
G03 X169.823963 Y120.743777 Z-0.125000 I0.418424 J2.130912
G03 X170.695124 Y121.140035 Z-0.125000 I-0.695775 J2.685377
G03 X171.497055 Y121.706333 Z-0.125000 I-18.997536 J27.753276
G02 X172.469737 Y122.346662 Z-0.125000 I7.291641 J-10.017310
G02 X173.517163 Y122.813793 Z-0.125000 I2.533760 J-4.273473
G02 X174.650982 Y122.987667 Z-0.125000 I1.133810 J-3.609778
G02 X175.760918 Y122.741183 Z-0.125000 I-0.000006 J-2.622329
G02 X176.588501 Y122.179281 Z-0.125000 I-1.334035 J-2.855193
G03 X177.341330 Y121.485977 Z-0.125000 I30.282058 J32.126636
G03 X178.366812 Y120.639704 Z-0.125000 I10.376140 J11.528949
G03 X180.038151 Y119.793217 Z-0.125000 I3.184764 J4.214907
G02 X178.750364 Y120.067887 Z-0.125000 I-0.034582 J2.994088
G02 X176.598072 Y121.242576 Z-0.125000 I7.576876 J16.441613
G03 X175.472648 Y121.694917 Z-0.125000 I-1.769443 J-2.776172
G03 X174.263157 Y121.835453 Z-0.125000 I-1.467999 J-7.359177
G03 X172.828421 Y121.589122 Z-0.125000 I-0.122355 J-3.588787
G03 X171.541420 Y120.836276 Z-0.125000 I1.763293 J-4.490868
G02 X170.107823 Y119.941231 Z-0.125000 I-4.234787 J5.187256
G02 X168.551064 Y119.388496 Z-0.125000 I-3.826557 J8.308706
G02 X167.016829 Y119.447922 Z-0.125000 I-0.667489 J2.601882
G02 X165.616924 Y120.219091 Z-0.125000 I1.481362 J4.345329
G03 X166.158225 Y120.755924 Z-0.125000 I-0.537745 J1.083541
G03 X166.364437 Y121.538699 Z-0.125000 I-1.720860 J0.871888
G03 X166.253218 Y122.323352 Z-0.125000 I-2.128622 J0.098491
G03 X165.911371 Y123.038569 Z-0.125000 I-3.187027 J-1.083975
G03 X164.542518 Y124.229822 Z-0.125000 I-2.674747 J-1.691424
G03 X162.886982 Y124.152658 Z-0.125000 I-0.752177 J-1.660383
G02 X162.713189 Y124.060682 Z-0.125000 I-1.535676 J2.691533
G01 X162.531458 Y124.043743 Z-0.125000
G01 X162.391466 Y124.138901 Z-0.125000
G02 X162.287756 Y124.289670 Z-0.125000 I1.680919 J1.267314
G03 X161.365864 Y125.212268 Z-0.125000 I-2.456784 J-1.533013
G03 X160.162814 Y125.588126 Z-0.125000 I-1.320028 J-2.111858
G03 X158.932457 Y125.310565 Z-0.125000 I-0.111509 J-2.371412
G03 X158.005965 Y124.408688 Z-0.125000 I1.097953 J-2.054747
G03 X157.844192 Y123.988855 Z-0.125000 I1.314236 J-0.747496
G01 X157.635248 Y123.611240 Z-0.125000
G02 X157.334768 Y123.381809 Z-0.125000 I-1.052997 J1.067599
G03 X156.223177 Y122.068436 Z-0.125000 I1.284835 J-2.214528
G03 X156.182470 Y121.235452 Z-0.125000 I1.277373 J-0.479911
G03 X156.560774 Y120.474173 Z-0.125000 I2.072076 J0.555045
G03 X157.409990 Y120.045801 Z-0.125000 I0.876316 J0.681290
G03 X158.407374 Y120.221616 Z-0.125000 I0.062567 J2.561996
G03 X161.166101 Y117.325645 Z-0.125000 I7.078080 J3.980660
G03 X164.867891 Y116.202495 Z-0.125000 I3.909934 J6.224816
G01 X163.325462 Y116.194287 Z-0.125000
G02 X162.091082 Y116.219421 Z-0.125000 I-0.129028 J23.987063
G02 X160.879940 Y116.430428 Z-0.125000 I0.224704 J4.871146
G02 X159.012590 Y117.430059 Z-0.125000 I1.629961 J5.288788
G03 X157.239917 Y118.676602 Z-0.125000 I-9.627673 J-11.807530
G03 X156.139106 Y119.225411 Z-0.125000 I-4.013345 J-6.671621
G03 X154.974892 Y119.590225 Z-0.125000 I-2.864585 J-7.101560
G03 X153.716941 Y119.711592 Z-0.125000 I-1.101589 J-4.837907
G03 X152.545474 Y119.322831 Z-0.125000 I0.068264 J-2.165094
G03 X151.943516 Y118.417992 Z-0.125000 I0.851312 J-1.218999
G03 X152.235530 Y117.429920 Z-0.125000 I1.049780 J-0.226936
G00 Z5.000000

(End cutting path id: path1032)


(Start cutting path id: path1040)
(ZZZanette)
(Change tool to Default tool)

G00 Z5.000000
G00 X177.089420 Y122.984060

G01 Z-0.125000 F100.0(Penetrate)
G03 X176.689883 Y123.443059 Z-0.125000 I-2.606737 J-1.865655 F400.000000
G03 X176.191189 Y123.774878 Z-0.125000 I-1.202268 J-1.266246
G03 X175.642435 Y123.974524 Z-0.125000 I-1.797236 J-4.085953
G01 X175.192074 Y124.308719 Z-0.125000
G01 X175.085608 Y124.823713 Z-0.125000
G02 X175.306936 Y125.322733 Z-0.125000 I1.097789 J-0.188305
G01 X175.633174 Y125.578928 Z-0.125000
G01 X176.006134 Y125.558242 Z-0.125000
G01 X176.227195 Y125.174084 Z-0.125000
G02 X176.171438 Y124.658510 Z-0.125000 I-2.213878 J-0.021380
G03 X176.104612 Y124.849934 Z-0.125000 I-1.981099 J-0.584213
G01 X176.000360 Y125.017771 Z-0.125000
G01 X175.836932 Y125.130119 Z-0.125000
G01 X175.649394 Y125.128265 Z-0.125000
G01 X175.546733 Y125.055983 Z-0.125000
G01 X175.474367 Y124.947371 Z-0.125000
G01 X175.488040 Y124.384751 Z-0.125000
G01 X175.937156 Y124.055847 Z-0.125000
G01 X176.467412 Y124.168771 Z-0.125000
G01 X176.808039 Y124.634832 Z-0.125000
G03 X176.822237 Y125.211883 Z-0.125000 I-0.995600 J0.313195
G03 X176.556741 Y125.725877 Z-0.125000 I-1.275530 J-0.333291
G03 X176.381803 Y125.897434 Z-0.125000 I-0.979116 J-0.823437
G01 X176.176907 Y126.021999 Z-0.125000
G03 X175.433525 Y126.145278 Z-0.125000 I-0.614923 J-1.405069
G03 X174.250086 Y125.218554 Z-0.125000 I0.114777 J-1.365568
G03 X174.147461 Y124.769531 Z-0.125000 I2.183857 J-0.735364
G01 X174.261633 Y124.363334 Z-0.125000
G01 X173.946289 Y124.650052 Z-0.125000
G01 X173.802794 Y125.066704 Z-0.125000
G01 X173.872825 Y125.502276 Z-0.125000
G01 X174.134921 Y125.843000 Z-0.125000
G01 X173.683394 Y125.726524 Z-0.125000
G01 X173.382242 Y125.324627 Z-0.125000
G03 X173.308932 Y124.832037 Z-0.125000 I1.090944 J-0.414112
G03 X173.399258 Y124.332396 Z-0.125000 I2.275473 J0.153383
G03 X173.559234 Y123.949217 Z-0.125000 I1.890312 J0.564215
G01 X173.828015 Y123.658702 Z-0.125000
G01 X174.335728 Y123.516388 Z-0.125000
G02 X174.882130 Y123.514429 Z-0.125000 I0.246608 J-7.416720
G02 X175.526707 Y123.392832 Z-0.125000 I-0.089852 J-2.245529
G02 X176.128288 Y123.117599 Z-0.125000 I-1.125785 J-3.255712
G02 X176.982890 Y122.560410 Z-0.125000 I-1.893157 J-3.837648
G02 X177.469558 Y121.884808 Z-0.125000 I-1.083557 J-1.293624
G03 X177.368631 Y122.453414 Z-0.125000 I-1.652186 J-0.000000
G03 X177.089420 Y122.984060 Z-0.125000 I-2.122320 J-0.777926
G00 Z5.000000

(End cutting path id: path1040)


(Start cutting path id: path8218)
(ZZZanette)
(Change tool to Default tool)

G00 Z5.000000
G00 X177.208760 Y148.274301

G01 Z-0.125000 F100.0(Penetrate)
G01 X165.345544 Y148.274301 Z-0.125000 F400.000000
G01 X165.345544 Y152.618980 Z-0.125000
G01 X168.665066 Y152.618980 Z-0.125000
G01 X168.665066 Y168.434283 Z-0.125000
G01 X165.345544 Y168.434283 Z-0.125000
G01 X165.345544 Y172.778962 Z-0.125000
G01 X177.208760 Y172.778962 Z-0.125000
G01 X177.208760 Y168.434283 Z-0.125000
G01 X173.889235 Y168.434283 Z-0.125000
G01 X173.889235 Y152.618980 Z-0.125000
G01 X177.208760 Y152.618980 Z-0.125000
G01 X177.208760 Y148.274301 Z-0.125000
G00 Z5.000000

(End cutting path id: path8218)


(Start cutting path id: path8216)
(ZZZanette)
(Change tool to Default tool)

G00 Z5.000000
G00 X163.944274 Y148.274301

G01 Z-0.125000 F100.0(Penetrate)
G01 X157.563715 Y148.274301 Z-0.125000 F400.000000
G01 X152.040245 Y157.259893 Z-0.125000
G01 X149.632228 Y157.259893 Z-0.125000
G01 X149.632228 Y148.274301 Z-0.125000
G01 X144.435270 Y148.274301 Z-0.125000
G01 X144.435270 Y172.778962 Z-0.125000
G01 X153.196634 Y172.778962 Z-0.125000
G02 X154.985686 Y172.707573 Z-0.125000 I-0.000000 J-22.452976
G02 X156.284879 Y172.532106 Z-0.125000 I-0.959145 J-11.999196
G02 X157.517620 Y172.147608 Z-0.125000 I-1.068437 J-5.593910
G02 X158.706500 Y171.462392 Z-0.125000 I-2.598526 J-5.882548
G02 X159.717790 Y170.527031 Z-0.125000 I-3.297337 J-4.579371
G02 X160.515913 Y169.322967 Z-0.125000 I-4.738124 J-4.007255
G02 X160.998214 Y167.974203 Z-0.125000 I-4.592480 J-2.402829
G02 X161.196144 Y166.047998 Z-0.125000 I-9.273692 J-1.926204
G02 X160.889331 Y163.419012 Z-0.125000 I-11.416907 J0.000000
G02 X160.148588 Y161.621029 Z-0.125000 I-5.996852 J1.419038
G02 X158.929527 Y160.096843 Z-0.125000 I-6.385090 J3.857263
G02 X157.182784 Y158.773946 Z-0.125000 I-6.511245 J6.782759
G01 X163.944274 Y148.274301 Z-0.125000
G00 Z5.000000

(End cutting path id: path8216)


(Start cutting path id: path1160)
(ZZZanette)
(Change tool to Default tool)

G00 Z5.000000
G00 X185.268707 Y66.319339

G01 Z-0.125000 F100.0(Penetrate)
G02 X176.755956 Y70.301102 Z-0.125000 I25.032928 J64.609520 F400.000000
G03 X172.572838 Y72.394403 Z-0.125000 I-27.360451 J-49.449072
G03 X169.381598 Y70.022164 Z-0.125000 I-0.935665 J-2.073919
G02 X168.739251 Y66.494999 Z-0.125000 I-5.795892 J-0.766558
G01 X167.319163 Y66.319865 Z-0.125000
G03 X163.575638 Y69.953760 Z-0.125000 I-30.680990 J-27.861418
G03 X159.917367 Y70.727861 Z-0.125000 I-2.538781 J-2.966617
G02 X154.243577 Y71.496249 Z-0.125000 I-1.988900 J6.645807
G03 X146.137618 Y74.155792 Z-0.125000 I-9.418848 J-15.024732
G03 X136.413873 Y71.496249 Z-0.125000 I-1.115597 J-15.026797
G02 X126.703664 Y69.624425 Z-0.125000 I-6.963899 J10.003597
G02 X118.754031 Y73.588995 Z-0.125000 I4.291763 J18.558172
G03 X115.157212 Y74.742055 Z-0.125000 I-3.210206 J-3.827385
G03 X110.655822 Y73.718707 Z-0.125000 I1.227292 J-15.810260
G03 X105.929813 Y71.577627 Z-0.125000 I16.812879 J-43.397513
G02 X101.954133 Y69.953760 Z-0.125000 I-10.657472 J20.413740
G02 X98.966256 Y69.812788 Z-0.125000 I-1.773193 J5.848273
G02 X98.034020 Y70.430224 Z-0.125000 I0.295975 J1.459365
G02 X97.238458 Y71.658453 Z-0.125000 I23.086040 J15.825306
G03 X95.096157 Y73.765469 Z-0.125000 I-5.283583 J-3.229468
G03 X91.613317 Y74.029213 Z-0.125000 I-2.011093 J-3.429268
G03 X81.827688 Y69.781706 Z-0.125000 I65.213647 J-163.638686
G03 X71.871460 Y64.985235 Z-0.125000 I257.224693 J-546.663240
G02 X70.433699 Y65.279886 Z-0.125000 I-0.529144 J1.073151
G01 X70.616953 Y66.420083 Z-0.125000
G02 X77.600821 Y70.549517 Z-0.125000 I181.923848 J-299.706673
G03 X84.834286 Y74.821819 Z-0.125000 I-189.030091 J328.307843
G03 X86.263653 Y76.792990 Z-0.125000 I-1.624204 J2.681598
G03 X86.322886 Y77.676437 Z-0.125000 I-2.680786 J0.623447
G03 X86.163985 Y78.247084 Z-0.125000 I-1.674846 J-0.158926
G00 Z5.000000

(End cutting path id: path1160)


(Footer)
M5
G00 X0.0000 Y0.0000
M2
(Using default footer. To add your own footer create file "footer" in the output dir.)
(end)
%