%
(Header)
(Generated by gcodetools from Inkscape.)
(Using default header. To add your own header create file "header" in the output dir.)
M3
(Header end.)
G21 (All units in mm)

(Start cutting path id: path839)
(ZZZanette)
(Change tool to Default tool)

G00 Z5.000000
G00 X54.457324 Y115.823881

G01 Z-0.125000 F100.0(Penetrate)
G03 X52.775852 Y119.712385 Z-0.125000 I-5.336934 J-0.000000 F400.000000
G03 X48.390428 Y121.258459 Z-0.125000 I-3.944543 J-4.196015
G03 X41.878875 Y115.440329 Z-0.125000 I0.550366 J-7.168835
G03 X44.771321 Y111.516850 Z-0.125000 I3.261152 J-0.623748
G03 X51.666757 Y116.058529 Z-0.125000 I0.716978 J6.416803
G02 X51.866664 Y116.695693 Z-0.125000 I34.135203 J-10.359822
G01 X51.869240 Y116.697319 Z-0.125000
G01 X51.871344 Y116.694867 Z-0.125000
G02 X51.873509 Y116.001198 Z-0.125000 I-11.992820 J-0.384271
G02 X44.513659 Y108.828740 Z-0.125000 I-7.359850 J0.189840
G02 X39.771276 Y111.156468 Z-0.125000 I0.000000 J5.994797
G02 X38.496588 Y114.888755 Z-0.125000 I4.826724 J3.732287
G02 X40.785014 Y120.249436 Z-0.125000 I7.422963 J-0.000000
G02 X48.276186 Y123.427941 Z-0.125000 I7.935027 J-8.284516
G02 X52.580769 Y122.800625 Z-0.125000 I0.461425 J-11.916215
G02 X55.248754 Y121.140089 Z-0.125000 I-2.234610 J-6.563947
G02 X57.601760 Y114.369905 Z-0.125000 I-5.815028 J-5.815028
G02 X54.920620 Y108.323326 Z-0.125000 I-11.081113 J1.295807
G02 X47.225400 Y103.779369 Z-0.125000 I-10.725809 J9.376295
G02 X38.826098 Y104.652467 Z-0.125000 I-2.873188 J13.197271
G02 X33.371262 Y111.034436 Z-0.125000 I4.015540 J8.954367
G02 X34.557606 Y120.724967 Z-0.125000 I12.480393 J3.389996
G02 X37.155610 Y123.906869 Z-0.125000 I10.252355 J-5.719407
G02 X48.307844 Y128.042460 Z-0.125000 I11.152233 J-12.969027
G02 X59.488827 Y122.739810 Z-0.125000 I0.000000 J-14.439241
G02 X62.491647 Y112.595121 Z-0.125000 I-10.585639 J-8.650101
G02 X58.851836 Y103.011598 Z-0.125000 I-20.320680 J2.234811
G02 X56.104875 Y99.615118 Z-0.125000 I-28.014877 J19.848438
G02 X41.288010 Y91.502972 Z-0.125000 I-19.403796 J17.853505
G02 X29.247454 Y93.775878 Z-0.125000 I-3.014035 J17.061816
G02 X24.696127 Y98.680299 Z-0.125000 I6.424022 J10.525562
G02 X23.393074 Y105.650082 Z-0.125000 I11.090605 J5.680170
G03 X25.077484 Y100.681659 Z-0.125000 I12.867366 J1.592598
G03 X28.633305 Y96.875531 Z-0.125000 I10.255164 J6.016686
G03 X38.479900 Y94.009455 Z-0.125000 I9.316475 J13.660017
G03 X51.866664 Y100.188801 Z-0.125000 I-0.606389 J18.903695
G02 X39.738067 Y95.962739 Z-0.125000 I-12.746426 J17.064358
G02 X30.295721 Y98.618879 Z-0.125000 I-0.476430 J16.417765
G02 X25.394206 Y105.662114 Z-0.125000 I6.230504 J9.563064
G02 X26.115043 Y115.859943 Z-0.125000 I17.251280 J3.904978
G03 X26.743567 Y107.081020 Z-0.125000 I15.432542 J-3.307073
G03 X31.526222 Y101.144849 Z-0.125000 I11.224880 J4.148932
G03 X43.383404 Y99.156107 Z-0.125000 I8.265730 J12.940010
G03 X55.817483 Y106.594292 Z-0.125000 I-5.678598 J23.604494
G03 X58.492514 Y110.984545 Z-0.125000 I-10.627861 J9.485766
G03 X59.318769 Y115.627331 Z-0.125000 I-11.678385 J4.473265
G03 X56.822620 Y121.796713 Z-0.125000 I-9.178415 J-0.123947
G03 X48.354916 Y125.453727 Z-0.125000 I-8.467703 J-7.974847
G03 X38.387616 Y121.298225 Z-0.125000 I0.000000 J-14.031430
G03 X35.738557 Y114.860951 Z-0.125000 I6.496831 J-6.437274
G03 X38.456517 Y108.695379 Z-0.125000 I8.352146 J0.000000
G03 X44.186076 Y106.471793 Z-0.125000 I5.729559 J6.269940
G03 X50.570034 Y108.448807 Z-0.125000 I-0.000000 J11.295693
G03 X54.457324 Y115.823881 Z-0.125000 I-5.052450 J7.375074
G00 Z5.000000

(End cutting path id: path839)


(Start cutting path id: path835)
(ZZZanette)
(Change tool to Default tool)

G00 Z5.000000
G00 X74.803189 Y99.275202

G01 Z-0.125000 F100.0(Penetrate)
G01 X74.534482 Y99.351563 Z-0.125000 F400.000000
G01 X74.452757 Y99.498179 Z-0.125000
G01 X74.485048 Y99.605081 Z-0.125000
G01 X74.643801 Y99.776487 Z-0.125000
G02 X82.064855 Y105.755143 Z-0.125000 I1311.641177 J-1620.489924
G03 X89.576917 Y111.855224 Z-0.125000 I-491.634208 J613.107846
G03 X92.683842 Y115.304119 Z-0.125000 I-9.138593 J11.356349
G03 X93.251630 Y117.230066 Z-0.125000 I-2.982531 J1.925947
G03 X92.895576 Y118.813047 Z-0.125000 I-3.696911 J0.000000
G03 X91.981488 Y119.992777 Z-0.125000 I-3.136162 J-1.485991
G03 X90.523305 Y120.770292 Z-0.125000 I-2.519936 J-2.969861
G03 X87.466896 Y121.194925 Z-0.125000 I-3.056410 J-10.787366
G01 X67.955598 Y121.194925 Z-0.125000
G01 X67.955598 Y120.884684 Z-0.125000
G03 X68.128571 Y119.303483 Z-0.125000 I7.313621 J-0.000000
G03 X68.676006 Y118.050126 Z-0.125000 I3.465394 J0.767365
G03 X70.166447 Y116.838394 Z-0.125000 I2.857357 J1.992081
G03 X72.963767 Y116.266586 Z-0.125000 I2.797320 J6.556435
G01 X85.771171 Y116.266586 Z-0.125000
G01 X86.053667 Y116.195992 Z-0.125000
G01 X86.121327 Y116.083250 Z-0.125000
G01 X86.082968 Y115.968751 Z-0.125000
G01 X85.922300 Y115.808520 Z-0.125000
G02 X79.793544 Y110.847092 Z-0.125000 I-2684.378878 J3309.694266
G02 X70.901645 Y103.701980 Z-0.125000 I-1328.632518 J1644.342071
G03 X67.808094 Y100.235591 Z-0.125000 I8.807134 J-10.973457
G03 X67.250881 Y98.307868 Z-0.125000 I3.055950 J-1.927723
G03 X67.607332 Y96.733412 Z-0.125000 I3.655443 J0.000000
G03 X68.524877 Y95.556994 Z-0.125000 I3.125347 J1.491584
G03 X69.984897 Y94.773211 Z-0.125000 I2.536907 J2.973967
G03 X73.051582 Y94.342459 Z-0.125000 I3.066684 J10.701070
G01 X93.458366 Y94.342459 Z-0.125000
G01 X93.458366 Y94.537632 Z-0.125000
G03 X93.106827 Y96.619945 Z-0.125000 I-6.342986 J-0.000000
G03 X92.180791 Y98.021301 Z-0.125000 I-3.213385 J-1.116804
G03 X90.644915 Y98.864332 Z-0.125000 I-2.461777 J-2.664407
G03 X87.478733 Y99.275202 Z-0.125000 I-3.166182 J-11.993929
G01 X74.803189 Y99.275202 Z-0.125000
G00 Z5.000000

(End cutting path id: path835)


(Start cutting path id: path835)
(ZZZanette)
(Change tool to Default tool)

G00 Z5.000000
G00 X119.470952 Y104.813010

G01 Z-0.125000 F100.0(Penetrate)
G01 X119.470952 Y99.163438 Z-0.125000 F400.000000
G03 X119.889796 Y96.795341 Z-0.125000 I6.903907 J-0.000000
G03 X120.796701 Y95.373933 Z-0.125000 I3.664811 J1.338249
G03 X122.374738 Y94.354301 Z-0.125000 I3.086757 J3.046287
G03 X124.702099 Y93.936421 Z-0.125000 I2.327360 J6.272112
G03 X124.906974 Y93.937719 Z-0.125000 I-0.000000 J16.163482
G03 X125.112266 Y93.948258 Z-0.125000 I-0.033747 J2.662192
G01 X125.112266 Y105.995063 Z-0.125000
G03 X123.849598 Y113.041297 Z-0.125000 I-20.291861 J0.000000
G03 X121.182643 Y117.381195 Z-0.125000 I-12.239860 J-4.532243
G03 X116.644312 Y120.519245 Z-0.125000 I-9.395855 J-8.737783
G03 X110.230903 Y121.780170 Z-0.125000 I-6.413409 J-15.679714
G03 X99.763308 Y117.362962 Z-0.125000 I0.000000 J-14.611294
G03 X95.660331 Y107.269059 Z-0.125000 I10.364723 J-10.093903
G03 X99.681946 Y97.449482 Z-0.125000 I13.999036 J-0.000000
G03 X108.343858 Y93.821079 Z-0.125000 I8.661912 J8.524879
G03 X115.154291 Y96.421929 Z-0.125000 I0.000000 J10.217124
G03 X117.181999 Y100.955236 Z-0.125000 I-4.053660 J4.533307
G03 X116.867501 Y103.049693 Z-0.125000 I-7.131471 J0.000000
G03 X115.748616 Y105.397980 Z-0.125000 I-8.513405 J-2.615672
G02 X113.198823 Y100.687448 Z-0.125000 I-8.725746 J1.677850
G02 X108.977002 Y98.980377 Z-0.125000 I-4.221821 J4.367035
G02 X104.273347 Y100.921292 Z-0.125000 I-0.000000 J6.669927
G02 X101.576098 Y107.408350 Z-0.125000 I6.452275 J6.487059
G02 X104.142852 Y113.808297 Z-0.125000 I9.262193 J-0.000000
G02 X110.246869 Y116.417715 Z-0.125000 I6.104017 J-5.834625
G02 X113.886717 Y115.697677 Z-0.125000 I0.000000 J-9.559877
G02 X116.524905 Y113.953408 Z-0.125000 I-3.129711 J-7.600905
G02 X118.438945 Y110.919564 Z-0.125000 I-5.580704 J-5.641545
G02 X119.470952 Y104.813010 Z-0.125000 I-17.550732 J-6.106554
G00 Z5.000000

(End cutting path id: path835)


(Start cutting path id: path835)
(ZZZanette)
(Change tool to Default tool)

G00 Z5.000000
G00 X135.841030 Y93.948258

G01 Z-0.125000 F100.0(Penetrate)
G01 X135.841030 Y116.369816 Z-0.125000 F400.000000
G03 X135.418859 Y118.751940 Z-0.125000 I-6.931717 J-0.000000
G03 X134.519686 Y120.167855 Z-0.125000 I-3.691753 J-1.350971
G03 X132.938653 Y121.186148 Z-0.125000 I-3.071663 J-3.032631
G03 X130.610159 Y121.600963 Z-0.125000 I-2.328495 J-6.327897
G03 X130.406006 Y121.599554 Z-0.125000 I-0.000000 J-14.791198
G03 X130.208250 Y121.584996 Z-0.125000 I0.022944 J-1.662204
G01 X130.208250 Y99.163438 Z-0.125000
G03 X130.626613 Y96.794071 Z-0.125000 I6.918534 J0.000000
G03 X131.529594 Y95.373933 Z-0.125000 I3.675005 J1.339570
G03 X133.101825 Y94.354968 Z-0.125000 I3.076031 J3.023786
G03 X135.427559 Y93.936421 Z-0.125000 I2.325734 J6.252404
G03 X135.627582 Y93.937633 Z-0.125000 I-0.000000 J16.504365
G03 X135.841030 Y93.948258 Z-0.125000 I-0.034435 J2.841096
G00 Z5.000000

(End cutting path id: path835)


(Start cutting path id: path835)
(ZZZanette)
(Change tool to Default tool)

G00 Z5.000000
G00 X163.482173 Y101.353015

G01 Z-0.125000 F100.0(Penetrate)
G01 X163.401807 Y101.376954 Z-0.125000 F400.000000
G01 X163.310949 Y101.460650 Z-0.125000
G02 X153.964608 Y113.656202 Z-0.125000 I5976.110269 J4589.607696
G02 X150.229091 Y118.551411 Z-0.125000 I2334.533480 J1785.347828
G03 X147.558725 Y120.916101 Z-0.125000 I-7.453430 J-5.726788
G03 X145.431786 Y121.497733 Z-0.125000 I-2.126939 J-3.598129
G03 X143.598337 Y121.121059 Z-0.125000 I0.000000 J-4.650471
G03 X142.354430 Y120.251540 Z-0.125000 I1.470942 J-3.428790
G03 X141.482160 Y118.757605 Z-0.125000 I2.847495 J-2.664195
G03 X141.139895 Y116.529203 Z-0.125000 I7.083150 J-2.228402
G01 X141.139895 Y99.163438 Z-0.125000
G03 X141.554882 Y96.796551 Z-0.125000 I6.957278 J-0.000000
G03 X142.461790 Y95.373933 Z-0.125000 I3.628397 J1.312691
G03 X144.024364 Y94.353661 Z-0.125000 I3.159567 J3.132265
G03 X146.271665 Y93.936421 Z-0.125000 I2.247301 J5.843483
G03 X146.439092 Y93.938426 Z-0.125000 I-0.000000 J6.992277
G03 X146.590164 Y93.948258 Z-0.125000 I-0.044172 J1.844215
G01 X146.590164 Y113.857886 Z-0.125000
G01 X146.647607 Y114.029950 Z-0.125000
G01 X146.749551 Y114.080863 Z-0.125000
G01 X146.832722 Y114.054851 Z-0.125000
G01 X146.920776 Y113.965245 Z-0.125000
G02 X154.519043 Y104.035872 Z-0.125000 I-2049.129965 J-1575.930317
G03 X160.018599 Y96.894580 Z-0.125000 I653.619201 J497.668225
G03 X162.684377 Y94.521694 Z-0.125000 I7.587430 J5.840113
G03 X164.799663 Y93.936421 Z-0.125000 I2.115286 J3.529880
G03 X166.646765 Y94.312451 Z-0.125000 I-0.000000 J4.724600
G03 X167.881148 Y95.174630 Z-0.125000 I-1.425072 J3.354999
G03 X168.750668 Y96.663389 Z-0.125000 I-2.910736 J2.698341
G03 X169.099262 Y98.896692 Z-0.125000 I-6.979648 J2.233302
G01 X169.099262 Y116.266586 Z-0.125000
G03 X168.679997 Y118.636896 Z-0.125000 I-6.909902 J-0.000000
G03 X167.773513 Y120.072057 Z-0.125000 I-3.767729 J-1.375933
G03 X166.216462 Y121.079923 Z-0.125000 I-3.154705 J-3.167028
G03 X163.955654 Y121.497733 Z-0.125000 I-2.260807 J-5.907808
G03 X163.804317 Y121.496504 Z-0.125000 I-0.000000 J-9.322466
G03 X163.641560 Y121.489750 Z-0.125000 I0.052384 J-3.226448
G01 X163.641560 Y101.568284 Z-0.125000
G01 X163.581344 Y101.399934 Z-0.125000
G01 X163.482173 Y101.353015 Z-0.125000
G00 Z5.000000

(End cutting path id: path835)


(Start cutting path id: path835)
(ZZZanette)
(Change tool to Default tool)

G00 Z5.000000
G00 X136.354977 Y127.031412

G01 Z-0.125000 F100.0(Penetrate)
G03 X135.381347 Y129.376755 Z-0.125000 I-3.311620 J0.000000 F400.000000
G03 X133.022713 Y130.351564 Z-0.125000 I-2.358634 J-2.366053
G03 X130.668152 Y129.378099 Z-0.125000 I0.000000 J-3.334269
G03 X129.694302 Y127.031412 Z-0.125000 I2.340481 J-2.346687
G03 X130.671655 Y124.666813 Z-0.125000 I3.349119 J-0.000000
G03 X133.022713 Y123.690889 Z-0.125000 I2.351057 J2.343953
G03 X135.377842 Y124.668164 Z-0.125000 I0.000000 J3.326443
G03 X136.354977 Y127.031412 Z-0.125000 I-2.369245 J2.363248
G00 Z5.000000

(End cutting path id: path835)


(Footer)
M5
G00 X0.0000 Y0.0000
M2
(Using default footer. To add your own footer create file "footer" in the output dir.)
(end)
%